looks/Cineon_Rec709_to_Filmscan_LogPFE.cube
TITLE "Cineon_Rec709_to_Filmscan_LogPFE"
LUT_3D_SIZE 6
0.000974 0.000974 0.000972
0.167603 -0.005035 -0.031219
0.412109 0.000743 -0.073059
0.649414 0.083557 -0.081726
0.842285 0.253662 0.036652
1.021484 0.450684 0.222900
0.047913 0.182251 -0.019547
0.176758 0.176147 -0.043762
0.378662 0.172729 -0.075684
0.619629 0.196411 -0.079407
0.831055 0.294189 0.038300
1.019531 0.459717 0.223389
0.212891 0.376221 -0.043182
0.257568 0.374023 -0.049988
0.380615 0.368408 -0.065063
0.583008 0.366943 -0.058228
0.803711 0.396729 0.047180
1.009766 0.492920 0.225708
0.415771 0.563965 0.026947
0.426514 0.563477 0.026520
0.465576 0.561523 0.025818
0.578125 0.557129 0.033508
0.769043 0.556641 0.090027
0.985840 0.585938 0.238159
0.604980 0.748535 0.197510
0.606934 0.748535 0.197510
0.616211 0.748047 0.197510
0.653320 0.746094 0.198486
0.763184 0.741699 0.213257
0.951660 0.742188 0.287354
0.788574 0.932617 0.397217
0.789062 0.932617 0.397217
0.791016 0.932617 0.397217
0.799805 0.932129 0.397217
0.836914 0.930176 0.397949
0.946777 0.925781 0.410645
0.014282 -0.000687 0.226685
0.175659 -0.006378 0.194336
0.409180 -0.000023 0.149292
0.644531 0.083618 0.113403
0.838867 0.255127 0.132568
1.020508 0.451416 0.253662
0.060211 0.184448 0.202393
0.178955 0.178955 0.178955
0.374268 0.176147 0.142944
0.613770 0.199951 0.111450
0.827637 0.295898 0.132812
1.018555 0.460449 0.253906
0.210693 0.381592 0.165405
0.254150 0.379395 0.157471
0.375244 0.373779 0.136841
0.577148 0.371582 0.114258
0.800293 0.398926 0.136108
1.008789 0.493652 0.255371
0.411865 0.567871 0.158081
0.422607 0.567383 0.156738
0.461670 0.565430 0.151855
0.574219 0.560547 0.143188
0.766113 0.558594 0.160156
0.984863 0.586426 0.264160
0.603027 0.750000 0.243530
0.605469 0.749512 0.243408
0.614746 0.749512 0.243042
0.651855 0.747559 0.242310
0.762207 0.743164 0.250244
0.951172 0.742676 0.305664
0.788086 0.933105 0.407471
0.788574 0.933105 0.407471
0.790527 0.932617 0.407471
0.799316 0.932129 0.407227
0.836914 0.930664 0.407471
0.946289 0.926270 0.418213
0.099976 -0.030884 0.469482
0.226196 -0.034241 0.443359
0.423340 -0.025574 0.402100
0.645996 0.064331 0.352051
0.834473 0.254395 0.317871
1.017578 0.452637 0.338867
0.122253 0.171021 0.446045
0.210693 0.167847 0.427734
0.382324 0.167847 0.392822
0.610840 0.196289 0.347412
0.822754 0.296631 0.316895
1.015625 0.461914 0.338867
0.224487 0.384277 0.407227
0.263672 0.382080 0.399414
0.377197 0.377197 0.377197
0.571777 0.375488 0.341797
0.794434 0.402344 0.315186
1.005859 0.495361 0.339355
0.409424 0.573730 0.365479
0.419678 0.572754 0.363525
0.457764 0.570801 0.356689
0.568848 0.565918 0.338379
0.760742 0.562988 0.319092
0.981934 0.588379 0.342773
0.599609 0.753418 0.363525
0.602051 0.753418 0.363281
0.610840 0.752930 0.362061
0.648438 0.750977 0.357666
0.758789 0.746094 0.349854
0.948730 0.744629 0.366211
0.787109 0.934082 0.444824
0.787598 0.934082 0.444824
0.789551 0.934082 0.444580
0.798340 0.933594 0.444092
0.835449 0.931641 0.442627
0.945312 0.927246 0.447021
0.352295 -0.193726 0.684082
0.397217 -0.191650 0.674316
0.517090 -0.177856 0.647949
0.695801 -0.085083 0.602539
0.838867 0.224976 0.546875
1.013672 0.451416 0.509766
0.311279 0.039764 0.670410
0.350342 0.042206 0.661621
0.460449 0.056671 0.637207
0.635254 0.130981 0.594238
0.824707 0.276855 0.544922
1.010742 0.461182 0.509277
0.301514 0.367432 0.641113
0.328125 0.366211 0.635742
0.412598 0.363525 0.618164
0.579590 0.365234 0.583984
0.791992 0.397949 0.541016
1.001953 0.496094 0.508789
0.424072 0.576172 0.598145
0.432861 0.575684 0.596191
0.466553 0.574219 0.589355
0.569336 0.569336 0.569336
0.755859 0.566895 0.535156
0.976562 0.591797 0.507324
0.597168 0.758789 0.557617
0.599609 0.758301 0.557129
0.608398 0.757812 0.555664
0.645020 0.755859 0.548828
0.753418 0.750977 0.530762
0.943848 0.748535 0.510254
0.783691 0.937500 0.553711
0.784180 0.937500 0.553711
0.786133 0.937012 0.553223
0.794922 0.936523 0.552246
0.832520 0.934570 0.547363
0.941895 0.929688 0.539062
0.828125 -0.957520 0.899902
0.837891 -0.953125 0.896973
0.873047 -0.933594 0.888184
0.959473 -0.834961 0.860352
1.007812 -0.333496 0.802246
1.019531 0.420654 0.731934
0.765625 -0.722656 0.890137
0.775391 -0.718262 0.887695
0.808594 -0.698730 0.878906
0.892578 -0.599609 0.851562
0.940430 -0.098267 0.793945
1.015625 0.433594 0.731445
0.519043 0.205933 0.852539
0.527832 0.207275 0.850586
0.560547 0.213013 0.842773
0.656250 0.239136 0.820312
0.818848 0.325684 0.778809
1.002930 0.478027 0.729980
0.498779 0.561523 0.822754
0.504395 0.561523 0.821777
0.525879 0.560547 0.817383
0.601074 0.558105 0.801758
0.763184 0.558594 0.768555
0.974121 0.587402 0.726074
0.611328 0.761230 0.782715
0.613281 0.761230 0.782227
0.621094 0.760742 0.780762
0.653809 0.758789 0.774414
0.754395 0.754395 0.754395
0.939453 0.751953 0.720215
0.781738 0.942383 0.742676
0.782227 0.942383 0.742676
0.783691 0.942383 0.742188
0.792480 0.941895 0.740723
0.829102 0.939941 0.733887
0.937500 0.934570 0.715820
2.134766 -4.597656 1.216797
2.136719 -4.593750 1.215820
2.138672 -4.570312 1.212891
2.148438 -4.464844 1.201172
2.113281 -3.960938 1.159180
1.585938 -1.495117 1.033203
2.068359 -4.363281 1.208008
2.068359 -4.355469 1.207031
2.072266 -4.335938 1.204102
2.080078 -4.230469 1.192383
2.044922 -3.724609 1.151367
1.517578 -1.259766 1.024414
1.777344 -3.347656 1.170898
1.777344 -3.341797 1.170898
1.780273 -3.320312 1.167969
1.788086 -3.216797 1.156250
1.750000 -2.708984 1.115234
1.220703 -0.244629 0.989258
0.702637 0.404785 1.034180
0.704590 0.405029 1.034180
0.711914 0.406494 1.032227
0.743164 0.412598 1.025391
0.836914 0.440186 1.002930
0.999023 0.522461 0.961914
0.684570 0.747070 1.005859
0.685547 0.747070 1.005859
0.690430 0.746582 1.004883
0.711426 0.745605 1.000000
0.785645 0.743164 0.985352
0.946289 0.743652 0.952148
0.795898 0.944824 0.966309
0.795898 0.944824 0.966309
0.797852 0.944824 0.965820
0.805176 0.944336 0.964355
0.837891 0.942383 0.958008
0.937988 0.937988 0.937988
