looks/Cineon_Rec709_to_Fuji.cube
TITLE "Cineon_Rec709_to_Fuji"
LUT_3D_SIZE 16
0.000000 0.000000 0.000000
0.000000 0.000000 0.000000
0.000000 0.000000 0.000000
0.000000 0.000000 0.000000
0.000000 0.000000 0.000000
0.040314 0.000000 0.000000
0.093994 0.000000 0.000000
0.169067 0.000000 0.000000
0.246216 0.000000 0.000000
0.304932 0.000000 0.000000
0.353760 0.000000 0.000000
0.393311 0.000000 0.000000
0.420166 0.000000 0.000000
0.440918 0.000000 0.000000
0.465820 0.000000 0.000000
0.490234 0.000000 0.000000
0.001434 0.000000 0.000000
0.001511 0.000284 0.000000
0.001592 0.000585 0.000000
0.001713 0.001036 0.000000
0.001731 0.001861 0.000000
0.049103 0.003914 0.000000
0.104004 0.002087 0.000000
0.180664 0.007378 0.000000
0.262451 0.003561 0.000000
0.325195 0.000947 0.000000
0.377197 0.000000 0.000000
0.418457 0.000000 0.000000
0.446289 0.000000 0.000000
0.467529 0.000000 0.000000
0.491699 0.000000 0.000000
0.515625 0.000000 0.000000
0.003216 0.000000 0.000000
0.003382 0.000618 0.000000
0.003571 0.001320 0.000000
0.003841 0.002323 0.000000
0.003881 0.004162 0.000000
0.060150 0.008804 0.000000
0.116455 0.004681 0.000000
0.195190 0.016541 0.000000
0.282715 0.008026 0.000000
0.350586 0.002134 0.000000
0.406006 0.000000 0.000000
0.449707 0.000000 0.000000
0.479004 0.000000 0.000000
0.500488 0.000000 0.000000
0.523926 0.000000 0.000000
0.547363 0.000000 0.000000
0.005245 0.000348 0.000000
0.005680 0.001511 0.000000
0.006191 0.002831 0.000000
0.006927 0.004749 0.000000
0.007442 0.008499 0.000000
0.075500 0.017517 0.000000
0.134155 0.011490 0.000000
0.216431 0.031494 0.000000
0.312012 0.017456 0.000000
0.386719 0.007599 0.000000
0.447021 0.003361 0.000000
0.494141 0.001702 0.000000
0.524414 0.000762 0.000000
0.546875 0.000312 0.000000
0.569336 0.000166 0.000000
0.591309 0.000000 0.000000
0.001455 0.004478 0.000000
0.003803 0.006832 0.000000
0.006413 0.009460 0.000000
0.010254 0.013321 0.000000
0.016129 0.023972 0.000000
0.085938 0.044769 0.000000
0.151001 0.051758 0.000000
0.242676 0.065674 0.000000
0.344971 0.060181 0.000000
0.419922 0.054047 0.000000
0.482178 0.043274 0.000000
0.531250 0.021255 0.000000
0.560059 0.009918 0.000000
0.581055 0.004089 0.000000
0.602539 0.002035 0.000000
0.623535 0.000000 0.000000
0.000000 0.059479 0.000000
0.001073 0.062286 0.000000
0.002270 0.065430 0.000000
0.004040 0.070068 0.000000
0.024872 0.079468 0.000000
0.099304 0.094727 0.000000
0.172119 0.103943 0.000000
0.273438 0.122314 0.000000
0.382080 0.129883 0.000000
0.459717 0.132324 0.000000
0.523438 0.128906 0.000000
0.572754 0.120667 0.000000
0.603027 0.116577 0.000000
0.624023 0.113953 0.000000
0.645508 0.110229 0.000000
0.666504 0.106567 0.000000
0.000000 0.112549 0.000000
0.000000 0.114441 0.000000
0.000000 0.116455 0.000000
0.000000 0.119507 0.000000
0.016190 0.129150 0.000000
0.097534 0.148560 0.000000
0.188354 0.162354 0.000000
0.304688 0.188477 0.000000
0.426514 0.205200 0.000000
0.505371 0.209473 0.000000
0.569336 0.209351 0.000000
0.619141 0.203491 0.000000
0.649414 0.203613 0.000000
0.670410 0.204468 0.000000
0.692383 0.203857 0.000000
0.713867 0.203369 0.000000
0.000000 0.166870 0.000000
0.000000 0.171021 0.000000
0.000000 0.175659 0.000000
0.000000 0.182373 0.000000
0.002747 0.198486 0.000000
0.099365 0.223022 0.000000
0.213989 0.246582 0.000000
0.341064 0.275391 0.000000
0.469482 0.298096 0.000000
0.551758 0.302490 0.000000
0.617188 0.302246 0.000000
0.666504 0.297852 0.000000
0.698730 0.298584 0.000000
0.721680 0.300293 0.000000
0.745605 0.304688 0.000000
0.768555 0.309082 0.000000
0.000000 0.230347 0.000000
0.000000 0.236328 0.000000
0.000000 0.243042 0.000000
0.000000 0.252930 0.000000
0.000000 0.272217 0.000000
0.087708 0.300537 0.000000
0.226318 0.332520 0.000000
0.372803 0.363525 0.000000
0.515625 0.391846 0.000000
0.598633 0.391357 0.000000
0.666016 0.389893 0.000000
0.716309 0.384521 0.000000
0.748535 0.385498 0.000000
0.771973 0.388916 0.000000
0.796875 0.397705 0.000000
0.821777 0.406494 0.000000
0.000000 0.283203 0.000000
0.000000 0.291016 0.000000
0.000000 0.299805 0.000000
0.000000 0.312744 0.000000
0.000000 0.334473 0.000000
0.070618 0.364990 0.000000
0.225586 0.401123 0.000000
0.384766 0.435059 0.000000
0.531250 0.467773 0.000000
0.625977 0.472900 0.000000
0.699707 0.475830 0.000000
0.756836 0.477539 0.000000
0.791992 0.481689 0.000000
0.816895 0.486084 0.000000
0.841309 0.494141 0.000000
0.865723 0.501953 0.000000
0.000000 0.317139 0.000000
0.000000 0.327881 0.000000
0.000000 0.340088 0.000000
0.000000 0.358154 0.000000
0.000000 0.382324 0.000000
0.054108 0.415527 0.000000
0.227295 0.454102 0.000000
0.395752 0.490479 0.000000
0.546875 0.526367 0.000000
0.649902 0.537109 0.000000
0.729980 0.544922 0.000000
0.791016 0.551270 0.000000
0.828613 0.557129 0.000000
0.854492 0.562012 0.000000
0.878906 0.570312 0.000000
0.903320 0.578125 0.000000
0.000000 0.329834 0.000000
0.000000 0.344971 0.000000
0.000000 0.362305 0.000000
0.000000 0.387207 0.000000
0.000000 0.414551 0.000000
0.057953 0.450928 0.000000
0.237915 0.490723 0.000000
0.408203 0.528809 0.000000
0.559570 0.565430 0.000000
0.672852 0.584961 0.000000
0.758301 0.598145 0.000000
0.821777 0.607910 0.000000
0.860840 0.614258 0.000000
0.887207 0.619629 0.000000
0.912109 0.627441 0.000000
0.936523 0.635254 0.000000
0.000000 0.344482 0.000000
0.000000 0.362305 0.000000
0.000000 0.382324 0.000000
0.000000 0.411377 0.000000
0.000000 0.440674 0.000000
0.080200 0.479004 0.000000
0.257812 0.518555 0.000000
0.424805 0.558105 0.000000
0.575195 0.594238 0.000000
0.694824 0.618164 0.000000
0.784180 0.633789 0.000000
0.847656 0.644043 0.000000
0.889648 0.651855 0.000000
0.918457 0.657715 0.000000
0.942383 0.665527 0.000000
0.965820 0.672852 0.000000
0.000000 0.368652 0.000000
0.000000 0.388916 0.000000
0.000000 0.412109 0.000000
0.000000 0.445557 0.000000
0.008316 0.475830 0.000000
0.127930 0.513672 0.000000
0.300537 0.552734 0.000000
0.462646 0.590820 0.000000
0.611328 0.625977 0.000000
0.728027 0.650391 0.000000
0.816406 0.666504 0.000000
0.881348 0.677246 0.000000
0.921875 0.685059 0.000000
0.949219 0.691406 0.000000
0.972656 0.698242 0.000000
0.995117 0.705078 0.000000
0.000000 0.388428 0.000000
0.000000 0.410889 0.000000
0.000000 0.436279 0.000000
0.000000 0.473145 0.000000
0.015450 0.503906 0.000000
0.167358 0.541992 0.000000
0.335693 0.579590 0.000000
0.494141 0.617188 0.000000
0.641113 0.651367 0.000000
0.754883 0.675293 0.000000
0.842773 0.692383 0.000000
0.908691 0.703125 0.000000
0.947266 0.710938 0.000000
0.973145 0.717285 0.000000
0.996094 0.723633 0.000000
1.018555 0.729980 0.000000
0.000000 0.406250 0.000000
0.000000 0.430420 0.000000
0.000000 0.458008 0.000000
0.000000 0.497803 0.000000
0.021912 0.529297 0.000000
0.202881 0.567383 0.000000
0.367188 0.604004 0.000000
0.522461 0.640625 0.000000
0.667969 0.673828 0.000000
0.778809 0.697754 0.000000
0.865723 0.714844 0.000000
0.933105 0.726562 0.000000
0.970215 0.734375 0.000000
0.995117 0.740234 0.000000
1.017578 0.746582 0.000000
1.039062 0.752441 0.000000
0.000000 0.000000 0.000000
0.000000 0.000000 0.000000
0.000000 0.000000 0.000000
0.000000 0.000000 0.000000
0.000000 0.000000 0.000000
0.045837 0.000000 0.000013
0.100647 0.000000 0.000100
0.177002 0.000000 0.000022
0.260010 0.000000 0.000000
0.322998 0.000000 0.000000
0.374268 0.000000 0.000000
0.415039 0.000000 0.000000
0.442139 0.000000 0.000000
0.462646 0.000000 0.000000
0.486328 0.000000 0.000000
0.509766 0.000000 0.000000
0.001504 0.000896 0.000623
0.001863 0.001234 0.000780
0.002184 0.001590 0.000937
0.002748 0.002144 0.001188
0.004375 0.002865 0.001142
0.055603 0.005169 0.001384
0.112549 0.004047 0.001302
0.191650 0.007557 0.001281
0.279053 0.003004 0.000546
0.344727 0.000682 0.000265
0.399414 0.000000 0.000000
0.441406 0.000000 0.000000
0.469238 0.000000 0.000000
0.490479 0.000000 0.000000
0.512695 0.000000 0.000000
0.536133 0.000000 0.000000
0.003370 0.001980 0.001376
0.004055 0.002659 0.001658
0.004894 0.003540 0.002068
0.006004 0.004681 0.002569
0.009865 0.006454 0.002600
0.068176 0.011795 0.003197
0.126953 0.008865 0.002687
0.209473 0.016800 0.002735
0.302002 0.006683 0.001209
0.372559 0.001541 0.000596
0.429932 0.000000 0.000000
0.473877 0.000000 0.000000
0.502441 0.000000 0.000000
0.524414 0.000000 0.000000
0.546387 0.000000 0.000000
0.569336 0.000000 0.000000
0.005474 0.004227 0.002544
0.006813 0.005592 0.003109
0.008308 0.007187 0.003735
0.010506 0.009399 0.004673
0.017761 0.012962 0.004734
0.085144 0.022858 0.005646
0.148071 0.018677 0.004726
0.235840 0.032227 0.004822
0.334961 0.015457 0.002024
0.412354 0.006523 0.000982
0.473633 0.002928 0.000000
0.520508 0.001290 0.000000
0.550781 0.000541 0.000000
0.572266 0.000229 0.000000
0.594238 0.000104 0.000000
0.615723 0.000000 0.000000
0.001307 0.013908 0.004654
0.003986 0.016403 0.005157
0.006954 0.019531 0.005795
0.011375 0.023697 0.006660
0.025208 0.033173 0.006580
0.095032 0.052094 0.007496
0.166626 0.058838 0.005962
0.262939 0.070190 0.005348
0.367676 0.062439 0.001509
0.447021 0.052765 0.000297
0.510254 0.038086 0.000000
0.558105 0.016205 0.000000
0.587402 0.007191 0.000000
0.607910 0.002928 0.000000
0.628418 0.001453 0.000000
0.648926 0.000000 0.000000
0.000000 0.068726 0.008698
0.001060 0.071533 0.009102
0.002260 0.074341 0.009544
0.003990 0.078857 0.010208
0.031860 0.087341 0.010071
0.107910 0.102539 0.010208
0.188477 0.112671 0.007793
0.294189 0.128906 0.005409
0.404541 0.133911 0.000622
0.487061 0.133301 0.000000
0.551270 0.126465 0.000000
0.600586 0.116821 0.000000
0.630371 0.112549 0.000000
0.650879 0.109619 0.000000
0.671875 0.107788 0.000000
0.691895 0.105469 0.000000
0.000000 0.121399 0.009590
0.000000 0.123657 0.010078
0.000000 0.125977 0.010612
0.000000 0.129517 0.011421
0.020859 0.139771 0.010521
0.106812 0.159668 0.010071
0.205688 0.174438 0.005379
0.325928 0.198120 0.001801
0.448975 0.211182 0.000000
0.531738 0.212769 0.000000
0.597168 0.210205 0.000000
0.646484 0.202148 0.000000
0.676270 0.201538 0.000000
0.697266 0.202271 0.000000
0.717773 0.202271 0.000000
0.738281 0.202271 0.000000
0.000000 0.179077 0.013718
0.000000 0.183472 0.013847
0.000000 0.188599 0.013985
0.000000 0.195923 0.014198
0.003235 0.212036 0.012215
0.105530 0.237061 0.009262
0.230103 0.260986 0.002537
0.361572 0.287354 0.000000
0.490479 0.306396 0.000000
0.577637 0.308594 0.000000
0.644531 0.306885 0.000000
0.693848 0.302734 0.000000
0.725586 0.303467 0.000000
0.748047 0.305664 0.000000
0.770508 0.310791 0.000000
0.792969 0.315674 0.000000
0.000000 0.244873 0.011101
0.000000 0.251221 0.011093
0.000000 0.258301 0.011086
0.000000 0.268555 0.011070
0.000000 0.288818 0.007069
0.094360 0.318115 0.002340
0.243042 0.350342 0.000000
0.392822 0.379395 0.000000
0.536621 0.404053 0.000000
0.624023 0.403076 0.000000
0.693359 0.401367 0.000000
0.744629 0.395264 0.000000
0.776855 0.397217 0.000000
0.799805 0.401123 0.000000
0.823242 0.410156 0.000000
0.846680 0.419189 0.000000
0.000000 0.299316 0.012138
0.000000 0.308105 0.011780
0.000000 0.318115 0.011421
0.000000 0.332520 0.010788
0.000000 0.355957 0.005135
0.075989 0.387939 0.000363
0.244263 0.424561 0.000000
0.407959 0.457520 0.000000
0.556152 0.487793 0.000000
0.656250 0.493896 0.000000
0.731934 0.496094 0.000000
0.789062 0.498291 0.000000
0.823730 0.501953 0.000000
0.847656 0.506348 0.000000
0.870605 0.514160 0.000000
0.893555 0.521973 0.000000
0.000000 0.334229 0.015900
0.000000 0.346191 0.015358
0.000000 0.359863 0.014755
0.000000 0.379883 0.013847
0.000000 0.406250 0.007076
0.058105 0.441162 0.000685
0.247070 0.481201 0.000000
0.420410 0.517090 0.000000
0.574219 0.551270 0.000000
0.682129 0.562988 0.000000
0.763672 0.570801 0.000000
0.824707 0.576660 0.000000
0.860352 0.581543 0.000000
0.885254 0.585938 0.000000
0.908203 0.593750 0.000000
0.931152 0.601074 0.000000
0.000000 0.347412 0.023071
0.000000 0.363770 0.022461
0.000000 0.382568 0.022003
0.000000 0.409912 0.021500
0.000000 0.439209 0.015366
0.058411 0.477783 0.006905
0.257324 0.519043 0.001252
0.433594 0.557617 0.000000
0.587891 0.592285 0.000000
0.704102 0.611816 0.000000
0.790527 0.624023 0.000000
0.853027 0.632812 0.000000
0.890137 0.638184 0.000000
0.916016 0.643555 0.000000
0.938965 0.650391 0.000000
0.961426 0.657715 0.000000
0.000000 0.362549 0.031921
0.000000 0.381592 0.031830
0.000000 0.403320 0.031555
0.000000 0.434570 0.031128
0.000000 0.465576 0.026947
0.076721 0.505859 0.020706
0.275635 0.546875 0.004871
0.449707 0.587402 0.000000
0.602539 0.622070 0.000000
0.723633 0.645020 0.000000
0.812988 0.660156 0.000000
0.875000 0.668457 0.000000
0.915039 0.675781 0.000000
0.942871 0.682129 0.000000
0.964844 0.688477 0.000000
0.986328 0.694336 0.000000
0.000000 0.388672 0.045654
0.000000 0.409912 0.045837
0.000000 0.434082 0.045990
0.000000 0.469727 0.046814
0.005943 0.500977 0.043457
0.122314 0.541016 0.038666
0.314453 0.580566 0.026245
0.483643 0.619141 0.020477
0.634766 0.652832 0.016525
0.752441 0.676270 0.011551
0.840820 0.691406 0.006931
0.903809 0.701172 0.000991
0.941895 0.708496 0.001037
0.968262 0.714355 0.002905
0.989258 0.720703 0.007202
1.010742 0.727051 0.011566
0.000000 0.410156 0.057068
0.000000 0.433838 0.057617
0.000000 0.459473 0.058228
0.000000 0.497559 0.059113
0.011093 0.529785 0.057037
0.160278 0.568848 0.053436
0.346436 0.607422 0.045044
0.511230 0.644531 0.038666
0.662109 0.677734 0.031174
0.775879 0.700684 0.021622
0.862793 0.716309 0.013123
0.926758 0.726074 0.001982
0.963379 0.733398 0.001944
0.987793 0.739258 0.005123
1.008789 0.745605 0.013481
1.029297 0.751953 0.021835
0.000000 0.429443 0.067017
0.000000 0.454102 0.067871
0.000000 0.482178 0.068848
0.000000 0.522949 0.070312
0.015717 0.555176 0.068970
0.194336 0.593750 0.066284
0.375000 0.631348 0.061432
0.536621 0.667480 0.054596
0.686035 0.700195 0.044006
0.796387 0.722168 0.030609
0.882324 0.737793 0.018509
0.947754 0.748535 0.002726
0.982422 0.755859 0.002722
1.004883 0.761719 0.007210
1.026367 0.768066 0.019211
1.046875 0.774414 0.030838
0.000000 0.000000 0.000000
0.000000 0.000000 0.000000
0.000000 0.000000 0.000000
0.000000 0.000000 0.000000
0.000000 0.000000 0.000000
0.052460 0.000000 0.000029
0.108582 0.000000 0.000219
0.186401 0.000000 0.000048
0.276855 0.000000 0.000000
0.344482 0.000000 0.000000
0.398682 0.000000 0.000000
0.440918 0.000000 0.000000
0.468262 0.000000 0.000000
0.488525 0.000000 0.000000
0.510742 0.000000 0.000000
0.532715 0.000000 0.000000
0.001585 0.001932 0.001344
0.002153 0.002262 0.001625
0.002892 0.002758 0.002035
0.003845 0.003336 0.002504
0.007523 0.004097 0.002537
0.063721 0.006878 0.003149
0.122681 0.006298 0.002806
0.204590 0.007755 0.002760
0.297852 0.002201 0.001151
0.368896 0.000352 0.000596
0.425537 0.000000 0.000000
0.468750 0.000000 0.000000
0.496582 0.000000 0.000000
0.517578 0.000000 0.000000
0.539062 0.000000 0.000000
0.561035 0.000000 0.000000
0.003550 0.004288 0.002983
0.004894 0.005157 0.003706
0.006489 0.006191 0.004555
0.008644 0.007549 0.005684
0.017029 0.009254 0.005772
0.077515 0.015305 0.006947
0.140259 0.014168 0.006023
0.227295 0.017380 0.006134
0.324219 0.004955 0.002617
0.399414 0.000814 0.001325
0.458496 0.000000 0.000000
0.503418 0.000000 0.000000
0.532227 0.000000 0.000000
0.552734 0.000000 0.000000
0.573730 0.000000 0.000000
0.595703 0.000000 0.000000
0.005756 0.008766 0.005547
0.008179 0.010544 0.006836
0.010849 0.012299 0.008217
0.014816 0.014946 0.010254
0.029968 0.018280 0.010384
0.096619 0.029221 0.012398
0.164673 0.027481 0.010399
0.259033 0.033386 0.010590
0.362305 0.013069 0.004444
0.442871 0.005245 0.002167
0.505371 0.002296 0.000000
0.552246 0.000878 0.000000
0.581543 0.000320 0.000000
0.603027 0.000125 0.000000
0.624023 0.000062 0.000000
0.644043 0.000000 0.000000
0.001138 0.025070 0.010170
0.004242 0.028046 0.011375
0.007633 0.031342 0.012695
0.012665 0.036224 0.014656
0.035797 0.044312 0.014481
0.105957 0.061157 0.016495
0.185181 0.067322 0.013054
0.286865 0.075562 0.011719
0.394775 0.065063 0.003330
0.479248 0.051208 0.000649
0.543457 0.031677 0.000000
0.591309 0.010345 0.000000
0.619629 0.003788 0.000000
0.640137 0.001557 0.000000
0.659668 0.000789 0.000000
0.679199 0.000000 0.000000
0.000000 0.080078 0.019119
0.001043 0.082703 0.020004
0.002226 0.085327 0.020981
0.003929 0.089355 0.022430
0.040100 0.096619 0.022064
0.118164 0.111511 0.022400
0.207886 0.123108 0.017090
0.319336 0.136841 0.011841
0.431885 0.139038 0.001362
0.519531 0.133789 0.000000
0.585449 0.123535 0.000000
0.632812 0.111450 0.000000
0.662598 0.107361 0.000000
0.683105 0.105164 0.000000
0.702637 0.104919 0.000000
0.722168 0.104736 0.000000
0.000000 0.131958 0.021057
0.000000 0.134521 0.022141
0.000000 0.137329 0.023315
0.000000 0.141479 0.025070
0.026306 0.152344 0.023102
0.117859 0.172974 0.022095
0.226318 0.188599 0.011841
0.351074 0.209595 0.003983
0.475830 0.218262 0.000000
0.563477 0.216431 0.000000
0.630371 0.211304 0.000000
0.679199 0.200928 0.000000
0.708496 0.198975 0.000000
0.728516 0.199463 0.000000
0.747559 0.200073 0.000000
0.766602 0.200928 0.000000
0.000000 0.193726 0.030106
0.000000 0.198608 0.030396
0.000000 0.204102 0.030701
0.000000 0.212158 0.031158
0.003738 0.228638 0.026840
0.112915 0.253662 0.020294
0.249390 0.278076 0.005543
0.386230 0.301758 0.000000
0.515625 0.316406 0.000000
0.608398 0.316162 0.000000
0.677246 0.312500 0.000000
0.726074 0.307861 0.000000
0.757812 0.309082 0.000000
0.779785 0.312012 0.000000
0.800781 0.317871 0.000000
0.821777 0.323730 0.000000
0.000000 0.262207 0.024368
0.000000 0.269043 0.024353
0.000000 0.276367 0.024338
0.000000 0.287354 0.024307
0.000000 0.308350 0.015610
0.102295 0.338867 0.005131
0.262939 0.371338 0.000000
0.416992 0.398682 0.000000
0.561523 0.418457 0.000000
0.654297 0.416992 0.000000
0.726562 0.415039 0.000000
0.778320 0.408447 0.000000
0.810059 0.410889 0.000000
0.833008 0.416016 0.000000
0.854980 0.425049 0.000000
0.876953 0.434082 0.000000
0.000000 0.318604 0.026688
0.000000 0.328613 0.025894
0.000000 0.339600 0.025024
0.000000 0.355957 0.023727
0.000000 0.381104 0.011482
0.082397 0.415039 0.000893
0.266357 0.453125 0.000000
0.435547 0.484619 0.000000
0.585938 0.512207 0.000000
0.692383 0.518555 0.000000
0.770508 0.520508 0.000000
0.827637 0.522949 0.000000
0.860840 0.526855 0.000000
0.883789 0.530762 0.000000
0.905273 0.538086 0.000000
0.926270 0.545898 0.000000
0.000000 0.354492 0.034912
0.000000 0.368408 0.033722
0.000000 0.383545 0.032379
0.000000 0.405762 0.030426
0.000000 0.434326 0.015572
0.062866 0.471924 0.001525
0.270508 0.513184 0.000000
0.449951 0.549316 0.000000
0.606445 0.581055 0.000000
0.720215 0.593750 0.000000
0.804199 0.601074 0.000000
0.864258 0.606445 0.000000
0.898926 0.610840 0.000000
0.921875 0.614746 0.000000
0.943359 0.621582 0.000000
0.963867 0.628418 0.000000
0.000000 0.368408 0.050537
0.000000 0.386963 0.049622
0.000000 0.406982 0.048584
0.000000 0.436768 0.047089
0.000000 0.468262 0.033691
0.059052 0.509766 0.014946
0.280762 0.552734 0.002783
0.464111 0.592285 0.000000
0.621094 0.624023 0.000000
0.741699 0.644043 0.000000
0.828613 0.655273 0.000000
0.889648 0.662598 0.000000
0.925781 0.667480 0.000000
0.949707 0.671875 0.000000
0.970703 0.678223 0.000000
0.991211 0.684082 0.000000
0.000000 0.384277 0.070251
0.000000 0.405273 0.069824
0.000000 0.428223 0.069031
0.000000 0.461914 0.068054
0.000000 0.495361 0.059448
0.072510 0.538574 0.045685
0.296875 0.581055 0.010574
0.479492 0.622559 0.000000
0.635742 0.654785 0.000000
0.758301 0.677246 0.000000
0.847656 0.690918 0.000000
0.908203 0.698730 0.000000
0.945801 0.704590 0.000000
0.971191 0.709961 0.000000
0.991211 0.715820 0.000000
1.010742 0.720703 0.000000
0.000000 0.412842 0.100525
0.000000 0.435547 0.100952
0.000000 0.460693 0.101379
0.000000 0.497559 0.101501
0.003168 0.531250 0.095825
0.115601 0.573242 0.085327
0.331055 0.614258 0.058167
0.508301 0.653320 0.045502
0.663086 0.685059 0.036072
0.781250 0.706543 0.025177
0.869629 0.721680 0.015450
0.930664 0.729492 0.002230
0.966797 0.736328 0.002203
0.990234 0.741699 0.006069
1.009766 0.747070 0.015884
1.028320 0.752930 0.025696
0.000000 0.436279 0.125244
0.000000 0.460693 0.125977
0.000000 0.487305 0.127197
0.000000 0.526367 0.129272
0.005943 0.560059 0.125244
0.151733 0.601074 0.117249
0.358887 0.640137 0.098083
0.531738 0.677246 0.084167
0.686523 0.709473 0.068481
0.800293 0.729980 0.047791
0.886719 0.744629 0.028824
0.949219 0.753906 0.004211
0.982422 0.759766 0.004147
1.004883 0.765137 0.011192
1.023438 0.771484 0.029724
1.042969 0.777832 0.047974
0.000000 0.457275 0.147095
0.000000 0.482910 0.149048
0.000000 0.510742 0.151123
0.000000 0.552734 0.154297
0.008446 0.585938 0.151367
0.184204 0.625488 0.145508
0.384521 0.664062 0.134766
0.553223 0.699219 0.119812
0.707520 0.730957 0.096619
0.817383 0.750977 0.067322
0.902344 0.765625 0.040649
0.964844 0.774902 0.005947
0.997070 0.781738 0.005898
1.017578 0.787109 0.016052
1.036133 0.793457 0.042236
1.054688 0.799805 0.067688
0.000000 0.000000 0.000000
0.000000 0.000000 0.000000
0.000000 0.000000 0.000000
0.000000 0.000000 0.000000
0.000000 0.000000 0.000066
0.060608 0.000000 0.001252
0.119446 0.000000 0.000762
0.198242 0.000000 0.001678
0.296387 0.000000 0.001087
0.370850 0.000000 0.002146
0.429199 0.000000 0.002302
0.472656 0.000000 0.000930
0.500000 0.000000 0.000266
0.520020 0.000000 0.000065
0.541016 0.000000 0.000340
0.561523 0.000000 0.000600
0.001422 0.003368 0.003906
0.002333 0.003729 0.004211
0.003439 0.004288 0.004848
0.004951 0.005043 0.005886
0.011436 0.005775 0.005920
0.073425 0.008995 0.007904
0.136353 0.009216 0.006779
0.220947 0.007965 0.007469
0.321777 0.001428 0.004589
0.397949 0.000000 0.004208
0.458496 0.000000 0.003401
0.502930 0.000000 0.002062
0.530273 0.000000 0.001483
0.550781 0.000000 0.001601
0.570312 0.000000 0.001841
0.590820 0.000000 0.002394
0.003225 0.007519 0.008514
0.005329 0.008514 0.009697
0.007721 0.009720 0.011246
0.011139 0.011269 0.012955
0.025650 0.013062 0.013588
0.088867 0.019867 0.015778
0.156738 0.020370 0.013855
0.248535 0.017761 0.014404
0.352051 0.003122 0.008614
0.433105 0.000000 0.007023
0.494385 0.000000 0.004601
0.539551 0.000000 0.003325
0.567383 0.000000 0.003119
0.587891 0.000000 0.003288
0.607422 0.000000 0.003851
0.627441 0.000000 0.004368
0.005180 0.015114 0.015572
0.008751 0.017120 0.017670
0.012840 0.019028 0.019882
0.018738 0.022049 0.023193
0.044495 0.025253 0.023804
0.110291 0.037323 0.027084
0.185669 0.038361 0.023941
0.288330 0.034882 0.024109
0.395996 0.010361 0.014206
0.481934 0.004135 0.010307
0.545898 0.001860 0.006344
0.591309 0.000205 0.005177
0.620117 0.000000 0.005329
0.640137 0.000000 0.005806
0.659668 0.000000 0.006584
0.678223 0.000000 0.007320
0.000813 0.040192 0.024445
0.003880 0.043396 0.026260
0.007332 0.046997 0.028305
0.012367 0.052246 0.031281
0.047882 0.058685 0.031342
0.118774 0.072571 0.034393
0.208252 0.078247 0.029373
0.317383 0.082336 0.026733
0.428467 0.068604 0.013748
0.520020 0.049988 0.008659
0.585938 0.024506 0.006428
0.631836 0.003359 0.005653
0.660156 0.000000 0.005985
0.679688 0.000000 0.006542
0.697754 0.000000 0.007591
0.715332 0.000000 0.008553
0.000000 0.094788 0.039185
0.000889 0.096863 0.040436
0.001863 0.099121 0.041748
0.003300 0.102722 0.043793
0.049042 0.109253 0.043579
0.130127 0.123047 0.043701
0.231934 0.136475 0.036102
0.350586 0.146606 0.027328
0.466064 0.145508 0.011459
0.561523 0.135864 0.007435
0.628418 0.120789 0.005581
0.674316 0.107422 0.005074
0.703125 0.102722 0.005489
0.722656 0.101013 0.006180
0.741211 0.103699 0.007656
0.758789 0.106079 0.009048
0.000000 0.146606 0.043549
0.000000 0.149536 0.045105
0.000000 0.152954 0.046875
0.000000 0.157837 0.049438
0.030457 0.169312 0.046783
0.129761 0.190552 0.045135
0.251465 0.207520 0.030090
0.382568 0.224854 0.017532
0.509277 0.228394 0.009819
0.604004 0.223511 0.007175
0.673340 0.215210 0.004848
0.720703 0.202393 0.003828
0.749023 0.200073 0.004333
0.768066 0.200439 0.005287
0.785156 0.201904 0.007275
0.801758 0.203491 0.009140
0.000000 0.213867 0.058929
0.000000 0.219238 0.059174
0.000000 0.225220 0.059479
0.000000 0.233887 0.059875
0.003799 0.250732 0.053802
0.119629 0.275879 0.043823
0.271973 0.300781 0.022339
