looks/Cineon_Rec709_to_Filmscan_Fuji.cube
TITLE "Cineon_Rec709_to_Filmscan_Fuji"
LUT_3D_SIZE 16
0.003139 0.002575 0.001719
0.003414 0.002708 0.001744
0.003717 0.002913 0.001738
0.005013 0.003523 0.001595
0.035553 0.005558 0.001345
0.103760 0.004303 0.001020
0.187256 0.010925 0.000741
0.288330 0.004818 0.000246
0.370117 0.000947 0.000066
0.440186 0.000000 0.000000
0.520996 0.004375 0.000000
0.590820 0.007023 0.000000
0.666504 0.083008 0.000000
0.754395 0.174561 0.000000
0.831055 0.289795 0.024170
0.906250 0.435059 0.105286
0.005512 0.004440 0.002916
0.005970 0.004650 0.002905
0.006538 0.005119 0.002958
0.008781 0.006168 0.002678
0.035797 0.009254 0.002211
0.108276 0.007973 0.001815
0.184204 0.019089 0.001337
0.294189 0.010185 0.000379
0.380127 0.002796 0.000177
0.457031 0.005146 0.000000
0.529297 0.010780 0.000000
0.599609 0.017853 0.000000
0.672852 0.103577 0.000000
0.758789 0.182495 0.000000
0.834473 0.297852 0.023834
0.908203 0.438721 0.104492
0.008278 0.007496 0.004391
0.009262 0.007812 0.004429
0.010246 0.008430 0.004505
0.013535 0.009682 0.003952
0.038513 0.014008 0.003376
0.117188 0.014313 0.002769
0.185669 0.025497 0.001831
0.302490 0.020935 0.000523
0.387207 0.017105 0.000228
0.466309 0.020599 0.000000
0.539062 0.019089 0.000000
0.606934 0.044128 0.000000
0.679199 0.119324 0.000000
0.763672 0.191528 0.000000
0.837402 0.305908 0.023376
0.910156 0.443359 0.104065
0.007473 0.018707 0.006233
0.009338 0.019150 0.005981
0.011795 0.020416 0.005825
0.018280 0.023987 0.004875
0.044586 0.032501 0.004086
0.122009 0.042358 0.003418
0.189941 0.047852 0.001875
0.310547 0.051483 0.000626
0.397217 0.051117 0.000160
0.481934 0.044006 0.000000
0.553223 0.048187 0.000000
0.619629 0.085388 0.000000
0.688477 0.143555 0.000000
0.770996 0.204956 0.000000
0.842773 0.319092 0.022354
0.913574 0.450928 0.103149
0.005775 0.057190 0.008636
0.007553 0.057129 0.008156
0.015594 0.058594 0.007416
0.027771 0.061829 0.006371
0.064270 0.069641 0.005459
0.134033 0.080566 0.004211
0.203491 0.085999 0.002268
0.323730 0.097229 0.000822
0.415771 0.100708 0.000059
0.500977 0.099182 0.000000
0.570801 0.111755 0.000000
0.637207 0.134888 0.000000
0.703613 0.177368 0.000000
0.782227 0.230835 0.000000
0.850586 0.339111 0.020798
0.918457 0.461914 0.102844
0.011391 0.112305 0.009903
0.020813 0.113770 0.009239
0.031113 0.115662 0.008598
0.048737 0.118347 0.007561
0.095398 0.125000 0.006630
0.154785 0.132202 0.004833
0.227783 0.140747 0.002520
0.345215 0.158813 0.000772
0.441650 0.166504 0.000000
0.526855 0.168701 0.000000
0.595215 0.178711 0.000000
0.662598 0.188354 0.000000
0.725098 0.216431 0.000000
0.798340 0.273682 0.000000
0.862793 0.369385 0.018112
0.925781 0.479980 0.102783
0.016785 0.172729 0.008759
0.028946 0.175415 0.008217
0.049988 0.178223 0.007790
0.085388 0.183838 0.007156
0.134155 0.190552 0.005920
0.188599 0.196167 0.003290
0.264404 0.208008 0.000800
0.380371 0.229248 0.000000
0.477539 0.238159 0.000000
0.561035 0.239868 0.000000
0.626953 0.246704 0.000000
0.694824 0.254395 0.000000
0.752441 0.282471 0.000000
0.821777 0.329346 0.000000
0.879883 0.406250 0.011711
0.936523 0.505859 0.103455
0.125854 0.268799 0.005718
0.138550 0.270996 0.005051
0.153442 0.273438 0.004318
0.176758 0.277344 0.003159
0.212280 0.283203 0.001671
0.259521 0.291748 0.000152
0.335449 0.303467 0.000000
0.432861 0.319824 0.000000
0.521484 0.328857 0.000000
0.598633 0.327881 0.000000
0.665039 0.329590 0.000000
0.729980 0.332764 0.000000
0.787598 0.352539 0.000000
0.852051 0.388916 0.000105
0.901855 0.457275 0.005417
0.950684 0.544434 0.109741
0.261963 0.370850 0.000000
0.271240 0.373047 0.000000
0.281982 0.374756 0.000000
0.298828 0.377930 0.000000
0.324951 0.382080 0.000000
0.366211 0.387939 0.000000
0.427979 0.398438 0.000000
0.508301 0.411377 0.000000
0.576172 0.415039 0.000000
0.646973 0.412354 0.000000
0.711914 0.413574 0.000000
0.773438 0.414307 0.000000
0.829590 0.432129 0.000000
0.884766 0.467773 0.000035
0.927734 0.523926 0.000979
0.969238 0.597168 0.121338
0.429932 0.479004 0.000000
0.437012 0.480469 0.000000
0.442871 0.481689 0.000000
0.453613 0.482666 0.000000
0.471191 0.485596 0.000000
0.497803 0.490967 0.000000
0.536621 0.498047 0.000000
0.582520 0.501953 0.000000
0.635742 0.503906 0.000000
0.704102 0.507812 0.000000
0.764160 0.510254 0.000000
0.825684 0.518555 0.000000
0.882324 0.536621 0.000000
0.923828 0.562012 0.000000
0.960449 0.605957 0.000000
0.993164 0.663574 0.141357
0.608887 0.589355 0.000000
0.611328 0.589355 0.000000
0.615234 0.589844 0.000000
0.619629 0.590332 0.000000
0.628418 0.590820 0.000000
0.640625 0.592285 0.000000
0.660156 0.593750 0.000000
0.687988 0.595703 0.000000
0.729004 0.598633 0.000000
0.788574 0.607422 0.000000
0.833008 0.608398 0.000000
0.890625 0.619629 0.000000
0.929199 0.629883 0.000000
0.958496 0.645996 0.000000
0.987793 0.678223 0.007084
1.009766 0.718750 0.190430
0.754395 0.675293 0.004593
0.755859 0.675781 0.004559
0.757812 0.675781 0.003893
0.760254 0.676270 0.003191
0.765625 0.676758 0.002455
0.772461 0.677246 0.002182
0.784180 0.678711 0.001740
0.802246 0.680176 0.001091
0.828613 0.682617 0.000136
0.856934 0.684570 0.000000
0.891602 0.688477 0.000000
0.928711 0.693359 0.000000
0.959961 0.701660 0.000000
0.986328 0.715820 0.000000
1.004883 0.736816 0.088318
1.019531 0.765625 0.250977
0.870605 0.750977 0.084656
0.871094 0.750977 0.084290
0.872070 0.750977 0.083923
0.873535 0.751465 0.084106
0.875488 0.751465 0.082153
0.878418 0.751465 0.080383
0.884277 0.752441 0.078003
0.893066 0.753418 0.074341
0.905762 0.755371 0.070129
0.923340 0.757324 0.065002
0.942871 0.759766 0.071655
0.964844 0.762695 0.082886
0.984863 0.768066 0.111389
1.002930 0.777344 0.167236
1.016602 0.792480 0.258545
1.026367 0.811523 0.350586
0.940430 0.816895 0.321045
0.940430 0.816895 0.321045
0.940918 0.816406 0.320312
0.940918 0.816406 0.320312
0.941406 0.816895 0.320312
0.942871 0.816895 0.321045
0.944824 0.817383 0.321045
0.948730 0.817871 0.321777
0.953613 0.817871 0.320801
0.961426 0.819336 0.322021
0.972168 0.820312 0.322998
0.983887 0.822754 0.329102
0.996582 0.826660 0.341309
1.009766 0.832031 0.362549
1.019531 0.841309 0.402344
1.027344 0.854004 0.457764
0.973633 0.874023 0.527832
0.973633 0.874023 0.527344
0.973633 0.874023 0.527344
0.973633 0.874023 0.527344
0.974121 0.874023 0.527344
0.974609 0.874023 0.527832
0.975098 0.874023 0.527832
0.976074 0.874512 0.528809
0.978027 0.875000 0.529785
0.980469 0.875000 0.529297
0.984375 0.875977 0.530762
0.990234 0.877441 0.534180
0.997559 0.879395 0.539062
1.005859 0.882324 0.547852
1.012695 0.888184 0.568359
1.018555 0.896484 0.600586
0.981934 0.919922 0.688965
0.981934 0.919922 0.688965
0.981934 0.919922 0.688965
0.981934 0.919922 0.688477
0.981934 0.919922 0.688477
0.982422 0.919922 0.687988
0.982422 0.919922 0.687988
0.982910 0.919922 0.688965
0.983887 0.919922 0.688477
0.984863 0.920410 0.689453
0.987305 0.920898 0.689453
0.990234 0.921387 0.690918
0.994629 0.922852 0.693359
0.999512 0.924805 0.699219
1.004883 0.927734 0.708496
1.010742 0.932129 0.726074
0.004009 0.004490 0.003370
0.004536 0.004536 0.003456
0.005196 0.004723 0.003603
0.008278 0.005203 0.003443
0.042389 0.007332 0.003260
0.112793 0.007317 0.002972
0.198120 0.011246 0.002586
0.305176 0.003817 0.001068
0.390137 0.000771 0.000375
0.463623 0.000000 0.000000
0.542969 0.003553 0.000000
0.610840 0.004978 0.000000
0.683105 0.082153 0.000000
0.763184 0.176147 0.004086
0.834961 0.295166 0.031769
0.907715 0.438232 0.125854
0.007103 0.007633 0.005733
0.007935 0.007725 0.005840
0.009254 0.008240 0.006237
0.014343 0.009064 0.005928
0.045044 0.012337 0.005589
0.117798 0.013374 0.005230
0.196777 0.020081 0.004745
0.311768 0.008926 0.001923
0.402588 0.002157 0.001081
0.481689 0.004864 0.000000
0.551758 0.008842 0.000000
0.619629 0.017151 0.000000
0.689453 0.101440 0.000000
0.767578 0.184570 0.004124
0.837891 0.302979 0.031204
0.910156 0.442627 0.125854
0.010666 0.012955 0.008911
0.012383 0.013092 0.009186
0.014427 0.013443 0.009651
0.022400 0.014572 0.009117
0.051086 0.018799 0.008575
0.127441 0.022461 0.008209
0.202026 0.027893 0.006657
0.322754 0.020660 0.002737
0.410645 0.017456 0.001386
0.491455 0.018799 0.000000
0.562500 0.015717 0.000000
0.627441 0.042786 0.000000
0.695312 0.117310 0.000000
0.772461 0.193604 0.003990
0.840820 0.310791 0.030319
0.911621 0.446289 0.125366
0.008575 0.029984 0.012901
0.010887 0.030273 0.012955
0.013947 0.031067 0.013069
0.026352 0.033478 0.011688
0.056610 0.040466 0.010826
0.132202 0.050446 0.010300
0.206909 0.054016 0.007183
0.329102 0.054749 0.003345
0.422119 0.052673 0.000843
0.507812 0.040558 0.000000
0.576172 0.045502 0.000000
0.639648 0.084229 0.000000
0.704590 0.141479 0.000000
0.779785 0.207886 0.003944
0.845703 0.323486 0.028931
0.915039 0.453857 0.125366
0.005810 0.069458 0.018829
0.007851 0.069519 0.018478
0.018753 0.070068 0.017288
0.036072 0.072388 0.015869
0.074585 0.079041 0.014740
0.144165 0.089355 0.013031
0.221436 0.094360 0.008461
0.342529 0.103760 0.004051
0.439453 0.103638 0.000341
0.525879 0.099182 0.000000
0.593750 0.112000 0.000000
0.656738 0.133789 0.000000
0.719238 0.175903 0.000000
0.790039 0.234619 0.003794
0.854492 0.344482 0.026917
0.919434 0.464600 0.125000
0.013153 0.123291 0.023209
0.024231 0.124451 0.021973
0.036652 0.126099 0.020889
0.057129 0.129639 0.019485
0.102783 0.135132 0.018143
0.165894 0.143188 0.014763
0.245728 0.151855 0.008652
0.364014 0.166870 0.003263
0.463623 0.171387 0.000000
0.551270 0.171631 0.000000
0.617676 0.179077 0.000000
0.681641 0.187744 0.000000
0.741699 0.216064 0.000000
0.806152 0.278076 0.003254
0.866699 0.374512 0.023026
0.927246 0.483154 0.126587
0.019852 0.188110 0.020920
0.031281 0.190552 0.019989
0.053589 0.193848 0.019211
0.089478 0.199097 0.018234
0.143188 0.206421 0.015854
0.202759 0.212036 0.009613
0.282715 0.222534 0.002420
0.397705 0.240845 0.000000
0.498535 0.246460 0.000000
0.583496 0.245850 0.000000
0.649414 0.250977 0.000000
0.713379 0.257324 0.000000
0.768555 0.284912 0.000000
0.827637 0.334717 0.002115
0.883789 0.412842 0.014854
0.937988 0.508789 0.128662
0.129761 0.286377 0.012405
0.144775 0.288574 0.010948
0.160156 0.290771 0.009552
0.185059 0.294189 0.007050
0.223877 0.300293 0.003645
0.274902 0.308105 0.000506
0.352295 0.318359 0.000000
0.448975 0.331543 0.000000
0.540039 0.338379 0.000000
0.618164 0.335693 0.000000
0.686523 0.335938 0.000000
0.748047 0.338135 0.000000
0.803711 0.357666 0.000000
0.856934 0.395996 0.000646
0.905762 0.464355 0.006676
0.952148 0.547852 0.136108
0.276611 0.391113 0.000000
0.286865 0.393066 0.000000
0.298096 0.394531 0.000000
0.315186 0.397217 0.000000
0.341553 0.400635 0.000000
0.382812 0.406250 0.000000
0.442383 0.414307 0.000000
0.523438 0.425537 0.000000
0.594238 0.428223 0.000000
0.665527 0.423096 0.000000
0.731445 0.423828 0.000000
0.791992 0.423584 0.000000
0.846680 0.441162 0.000000
0.889648 0.475098 0.000105
0.932129 0.531250 0.001155
0.970703 0.601074 0.148682
0.447754 0.500488 0.000000
0.454590 0.501465 0.000000
0.460938 0.502441 0.000000
0.471924 0.504395 0.000000
0.489502 0.506836 0.000000
0.515625 0.510742 0.000000
0.555176 0.517090 0.000000
0.601074 0.519531 0.000000
0.656250 0.521484 0.000000
0.725098 0.524414 0.000000
0.785645 0.525391 0.000000
0.845703 0.532227 0.000000
0.894531 0.546875 0.000000
0.928223 0.568848 0.000000
0.963867 0.612793 0.000000
0.994141 0.667480 0.166870
0.624512 0.607422 0.003178
0.626465 0.606934 0.003004
0.630371 0.607422 0.002762
0.635254 0.607910 0.002586
0.643555 0.608398 0.001995
0.657227 0.610352 0.001404
0.677246 0.611328 0.000745
0.706055 0.612793 0.000339
0.748047 0.615723 0.000000
0.806152 0.623535 0.000000
0.847656 0.622070 0.000000
0.896484 0.627441 0.000000
0.933594 0.637207 0.000000
0.962402 0.652832 0.000000
0.988770 0.682617 0.034363
1.009766 0.721680 0.208496
0.760254 0.685059 0.008400
0.761719 0.685059 0.007736
0.763672 0.685059 0.006813
0.766113 0.686035 0.006111
0.770996 0.686523 0.004261
0.778320 0.687012 0.003752
0.789062 0.687988 0.003035
0.807129 0.689453 0.001842
0.832031 0.691406 0.000273
0.861816 0.693359 0.000000
0.896484 0.696777 0.000000
0.933105 0.701172 0.000000
0.963867 0.708984 0.000000
0.988770 0.722168 0.011284
1.005859 0.741699 0.119812
1.019531 0.768555 0.267334
0.870605 0.756836 0.122742
0.871582 0.756836 0.122559
0.872070 0.757324 0.122131
0.873535 0.756836 0.121033
0.875977 0.757324 0.119995
0.878418 0.757812 0.119446
0.884277 0.758301 0.116516
0.893066 0.759277 0.113464
0.905762 0.760742 0.107971
0.923828 0.762695 0.103638
0.942871 0.764648 0.107788
0.965332 0.767578 0.117554
0.985840 0.772949 0.145386
1.002930 0.781738 0.198486
1.015625 0.795410 0.274414
1.025391 0.813965 0.363770
0.939941 0.821289 0.340332
0.940430 0.821289 0.340332
0.940430 0.821289 0.340332
0.941406 0.821289 0.339600
0.941895 0.821289 0.340332
0.942871 0.821289 0.339844
0.945312 0.821777 0.339844
0.948242 0.822266 0.340576
0.953613 0.822754 0.340820
0.960938 0.823242 0.340820
0.971680 0.824219 0.341797
0.983398 0.826172 0.345947
0.996094 0.830078 0.357422
1.008789 0.835449 0.377686
1.019531 0.843750 0.413574
1.027344 0.855957 0.466797
0.972656 0.876465 0.538574
0.972656 0.876465 0.538574
0.973145 0.876465 0.538574
0.973145 0.876465 0.538086
0.973633 0.876465 0.538086
0.974121 0.876465 0.537598
0.974609 0.876465 0.538574
0.975586 0.876953 0.539062
0.977051 0.877441 0.540039
0.979980 0.877441 0.539551
0.983887 0.877930 0.540039
0.989746 0.879395 0.542969
0.997070 0.881348 0.547363
1.005859 0.883789 0.555176
1.012695 0.889160 0.574219
1.018555 0.897461 0.605469
0.981445 0.920410 0.692383
0.981445 0.920410 0.692383
0.981445 0.920410 0.692383
0.981934 0.920898 0.692871
0.981934 0.920898 0.692871
0.981934 0.920898 0.692871
0.981934 0.920898 0.692871
0.982910 0.920898 0.692871
0.983398 0.920898 0.692871
0.984863 0.921387 0.693848
0.986816 0.921875 0.693848
0.990234 0.922852 0.695312
0.994629 0.923828 0.697266
0.999023 0.925293 0.702148
1.004883 0.928223 0.712402
1.010742 0.933105 0.729492
0.003592 0.006535 0.011200
0.004761 0.006718 0.010132
0.006241 0.006886 0.008804
0.012299 0.007431 0.007217
0.052521 0.009895 0.006107
0.125000 0.011482 0.005688
0.212280 0.011818 0.005131
0.325684 0.002628 0.002127
0.413330 0.000440 0.000817
0.489014 0.000000 0.000000
0.565918 0.002451 0.000000
0.632324 0.002619 0.000000
0.702148 0.080200 0.000000
0.767578 0.181030 0.012817
0.838379 0.300537 0.040100
0.909668 0.441406 0.150024
0.006821 0.011215 0.017731
0.008934 0.011566 0.015854
0.011642 0.012184 0.014275
0.022095 0.013153 0.011734
0.058289 0.016785 0.010483
0.131226 0.020676 0.009964
0.214600 0.021149 0.009155
0.335205 0.007420 0.003880
0.428223 0.001232 0.002207
0.508301 0.004631 0.000000
0.575684 0.006721 0.000000
0.641113 0.015419 0.000000
0.708008 0.099243 0.000000
0.771484 0.189331 0.012375
0.841309 0.308350 0.039093
0.911621 0.445801 0.149536
0.011017 0.019058 0.024918
0.014549 0.019577 0.022720
0.018814 0.020462 0.021072
0.035248 0.021530 0.017395
0.070190 0.025681 0.016052
0.141724 0.032867 0.015701
0.223633 0.031952 0.012848
0.346924 0.019699 0.005394
0.436768 0.016739 0.002729
0.517578 0.016739 0.000000
0.586426 0.012161 0.000000
0.647949 0.040894 0.000000
0.713867 0.114685 0.000000
0.776367 0.198608 0.012146
0.845215 0.316895 0.038055
0.913574 0.450439 0.149170
0.008316 0.043945 0.029419
0.011604 0.044617 0.026993
0.016602 0.045959 0.025284
0.037781 0.047211 0.021576
0.074158 0.051544 0.020142
0.145874 0.061035 0.019623
0.228149 0.061188 0.013702
0.352295 0.058990 0.006729
0.448242 0.053406 0.001635
0.535156 0.036804 0.000000
0.599609 0.042480 0.000000
0.660156 0.081787 0.000000
0.723145 0.140503 0.000000
0.783691 0.213501 0.011459
0.850098 0.329834 0.036316
0.916992 0.457764 0.149170
0.005444 0.085632 0.035980
0.008324 0.085876 0.034271
0.023972 0.086365 0.031830
0.047821 0.086670 0.029282
0.089172 0.091553 0.027466
0.157837 0.100647 0.024673
0.243286 0.104614 0.016083
0.364502 0.110901 0.008041
0.464355 0.107239 0.000632
0.553223 0.099915 0.000000
0.617188 0.110046 0.000000
0.676758 0.131714 0.000000
0.737793 0.174561 0.000000
0.794434 0.240479 0.010490
0.858398 0.350342 0.033661
0.921875 0.468994 0.150146
0.015961 0.137573 0.041718
0.029068 0.138550 0.039673
0.043915 0.140137 0.037903
0.067871 0.142700 0.035248
0.112549 0.148438 0.033234
0.179932 0.156860 0.027267
0.267334 0.164673 0.015976
0.385254 0.175293 0.006229
0.488525 0.177368 0.000000
0.575684 0.174194 0.000000
0.641113 0.178467 0.000000
0.702637 0.187256 0.000000
0.760742 0.216675 0.000000
0.810547 0.283936 0.008606
0.870605 0.380615 0.028641
0.929199 0.486572 0.152832
0.023514 0.208008 0.036896
0.034576 0.210205 0.035156
0.058105 0.213013 0.033875
0.096863 0.217651 0.031982
0.153931 0.224609 0.028137
0.219727 0.230591 0.017105
0.304443 0.239136 0.004208
0.417969 0.252441 0.000000
0.520508 0.255127 0.000000
0.606934 0.251221 0.000000
0.671387 0.254883 0.000000
0.733398 0.259766 0.000000
0.787109 0.288330 0.000000
0.833008 0.340576 0.004715
0.887695 0.418945 0.018219
0.939453 0.512695 0.156494
0.136230 0.307373 0.020172
0.153198 0.309326 0.018158
0.170166 0.311523 0.015511
0.196411 0.314941 0.011581
0.238525 0.320557 0.005924
0.294189 0.327881 0.001012
0.372803 0.336182 0.000000
0.466797 0.344482 0.000000
0.560059 0.348633 0.000000
0.640137 0.343994 0.000000
0.708496 0.341797 0.000000
0.767578 0.344238 0.000000
0.819824 0.364258 0.000051
0.862305 0.404053 0.001274
0.909668 0.471924 0.008034
0.953613 0.551758 0.165161
0.295166 0.414551 0.000000
0.305420 0.416016 0.000000
0.317627 0.417725 0.000000
0.335205 0.419678 0.000000
0.362061 0.423096 0.000000
0.402832 0.426758 0.000000
0.460938 0.432617 0.000000
0.540039 0.439697 0.000000
0.613770 0.441406 0.000000
0.686035 0.435059 0.000000
0.753418 0.434570 0.000000
0.812500 0.433594 0.000000
0.857422 0.450195 0.000000
0.895508 0.483887 0.000140
0.936035 0.538086 0.002726
0.971680 0.604980 0.177246
0.465088 0.521484 0.006199
0.470947 0.522461 0.005798
0.477295 0.522949 0.005276
0.488281 0.524414 0.004784
0.505859 0.526367 0.004238
0.532715 0.530762 0.002975
0.572266 0.536133 0.001669
0.621582 0.539062 0.000455
0.679688 0.540039 0.000000
0.749512 0.542480 0.000000
0.808594 0.541504 0.000000
0.860352 0.544434 0.000000
0.900391 0.555664 0.000000
0.933594 0.577148 0.000000
0.965820 0.618164 0.022873
0.994629 0.670410 0.189453
0.626953 0.617188 0.016541
0.630371 0.617676 0.015854
0.633301 0.618164 0.015327
0.639160 0.619141 0.013863
0.647461 0.619629 0.012054
0.660645 0.620605 0.009155
0.682129 0.622559 0.004910
0.711914 0.623047 0.002436
0.754395 0.625977 0.000000
0.810059 0.632812 0.000000
0.854004 0.631348 0.000000
0.901367 0.636230 0.000000
0.937988 0.645020 0.000000
0.966797 0.660156 0.000000
0.989746 0.687500 0.065857
1.008789 0.723633 0.226929
0.766602 0.695801 0.013115
0.768555 0.696289 0.012001
0.770508 0.696777 0.010895
0.772949 0.696777 0.009300
0.777344 0.697266 0.006790
0.785156 0.697754 0.005558
0.795898 0.698730 0.004467
0.812500 0.699707 0.002796
0.836914 0.701660 0.000478
0.867676 0.703613 0.000000
0.902832 0.706543 0.000000
0.937988 0.709961 0.000000
0.967773 0.717285 0.000000
0.989746 0.727539 0.046539
1.005859 0.746094 0.154297
1.018555 0.771484 0.283691
0.871582 0.763184 0.163208
0.871582 0.763184 0.163208
0.872070 0.763672 0.163452
0.874023 0.763672 0.162964
0.875977 0.763672 0.161987
0.878906 0.764160 0.161011
0.884277 0.764648 0.158325
0.893066 0.765625 0.155396
0.906250 0.766602 0.149780
0.924316 0.769043 0.145630
0.943359 0.770508 0.148315
0.966797 0.773438 0.156006
0.986328 0.778809 0.182007
1.003906 0.786621 0.232788
1.015625 0.799316 0.291748
1.025391 0.816895 0.377441
0.939941 0.826172 0.361572
0.940430 0.826172 0.361572
0.940918 0.826172 0.361084
0.941406 0.826172 0.361084
0.941895 0.826172 0.360352
0.942871 0.826660 0.361084
0.944824 0.826660 0.361816
0.948242 0.826660 0.360840
0.953125 0.827148 0.360840
0.960449 0.827637 0.361084
0.970703 0.828613 0.361816
0.982910 0.830078 0.364746
0.995605 0.833496 0.374756
1.008789 0.838867 0.392822
1.018555 0.846191 0.424805
1.026367 0.857910 0.476074
0.972168 0.878906 0.548340
0.972168 0.878906 0.548340
0.972168 0.878906 0.548340
0.972656 0.878906 0.548340
0.972656 0.878906 0.548340
0.973145 0.878906 0.548340
0.973633 0.878906 0.548340
0.974609 0.878906 0.548340
0.976562 0.878906 0.547852
0.979004 0.879883 0.549316
0.982910 0.880371 0.549805
0.988770 0.881348 0.551758
0.996582 0.883301 0.555664
1.004883 0.885742 0.563965
1.011719 0.891113 0.582520
1.017578 0.899414 0.613281
0.980957 0.921875 0.698242
0.980957 0.921875 0.698242
0.980957 0.921875 0.698242
0.980957 0.921875 0.698242
0.981445 0.921875 0.697754
0.981445 0.921875 0.697754
0.981445 0.922363 0.698242
0.982422 0.922363 0.698242
0.982910 0.921875 0.697754
0.984375 0.922363 0.697754
0.986328 0.922852 0.698242
0.989746 0.923340 0.700195
0.994141 0.924316 0.701172
0.999023 0.926270 0.706543
1.003906 0.929199 0.715820
1.009766 0.934082 0.733398
0.002136 0.008484 0.040344
0.003115 0.008560 0.035736
0.004524 0.008804 0.030823
0.012962 0.009392 0.023972
0.058197 0.011955 0.023193
0.136841 0.014122 0.019180
0.226440 0.011993 0.017807
0.346680 0.001522 0.010475
0.443604 0.000000 0.006710
0.523926 0.000000 0.003887
0.598633 0.001020 0.002710
0.657715 0.000000 0.005138
0.713867 0.082581 0.011368
0.774902 0.188721 0.027527
0.843262 0.307373 0.063171
0.911621 0.446777 0.182739
0.004097 0.014824 0.053894
0.005905 0.015038 0.049133
0.008392 0.015564 0.044678
0.022827 0.016464 0.038513
0.065125 0.020370 0.035919
0.142212 0.025848 0.031342
0.232788 0.021973 0.026871
0.359619 0.005859 0.015602
0.461182 0.000000 0.010300
0.544922 0.003687 0.003963
0.608887 0.003368 0.002844
0.666504 0.012741 0.005138
0.720215 0.102112 0.011116
0.778809 0.197388 0.026596
0.846191 0.315918 0.062744
0.913086 0.450195 0.182739
0.006615 0.024841 0.071777
0.009727 0.025177 0.067749
0.013657 0.025589 0.064514
0.036652 0.026947 0.059082
0.079834 0.031555 0.053436
0.152466 0.041138 0.046448
0.246460 0.035522 0.036896
0.374268 0.018799 0.020630
0.472412 0.015747 0.011879
0.554688 0.013916 0.003849
0.620117 0.006844 0.002804
0.674316 0.039490 0.004951
0.726074 0.119019 0.010971
0.783691 0.207275 0.025711
0.849609 0.324219 0.061646
0.915527 0.454834 0.182617
0.002220 0.055634 0.079163
0.003286 0.055603 0.075073
0.008278 0.056091 0.071045
0.036652 0.057312 0.065308
0.082458 0.061279 0.059052
0.155640 0.069702 0.052032
0.251465 0.069824 0.039673
0.378906 0.063416 0.023727
0.483887 0.054443 0.010315
0.573730 0.031647 0.003664
0.633789 0.038147 0.002607
0.686035 0.080688 0.004723
0.735352 0.144653 0.010872
0.791016 0.222900 0.024109
0.854980 0.337158 0.060394
0.918457 0.462402 0.183472
0.000123 0.096619 0.083496
0.003271 0.096130 0.079346
0.020035 0.096619 0.075806
0.048065 0.098572 0.071411
0.094299 0.102539 0.065186
0.167358 0.110962 0.057343
0.266113 0.116394 0.043274
0.391113 0.119141 0.025833
0.500000 0.111816 0.008858
0.590332 0.100159 0.003689
0.651367 0.109192 0.002523
0.702637 0.131348 0.004581
0.750000 0.180908 0.010208
0.802246 0.250488 0.021408
0.863281 0.357910 0.058014
0.923340 0.473389 0.184448
0.014229 0.149292 0.086365
0.026169 0.150757 0.083435
0.040222 0.153076 0.080872
0.063416 0.156616 0.076965
0.114258 0.161133 0.070007
0.189575 0.169556 0.060608
0.288818 0.179199 0.044189
0.411133 0.184937 0.023926
0.520020 0.184570 0.008453
0.611328 0.177979 0.004200
0.673828 0.178955 0.002535
0.727051 0.189331 0.003971
0.771484 0.226318 0.008102
0.818359 0.293213 0.017151
0.875488 0.388428 0.055054
0.930176 0.491211 0.187256
0.010071 0.227539 0.084351
0.020554 0.229614 0.081482
0.047668 0.231812 0.078613
0.090393 0.236206 0.074585
0.156250 0.242798 0.067749
0.230347 0.249756 0.054230
0.324219 0.257568 0.033356
0.441162 0.268311 0.017746
0.549316 0.267578 0.009239
0.638672 0.260742 0.004051
0.703613 0.261475 0.001793
0.757324 0.267578 0.001923
0.797363 0.298828 0.004097
0.841797 0.351074 0.009026
0.892090 0.427246 0.047272
0.940918 0.518066 0.190674
0.126465 0.326416 0.071716
0.145142 0.328613 0.068787
0.164429 0.330811 0.065125
0.194702 0.334473 0.059998
0.243042 0.340088 0.051422
0.304688 0.347656 0.040863
