looks/Cineon_Rec709_to_Filmscan_Log.cube
TITLE "Cineon_Rec709_to_Filmscan_Log"
LUT_3D_SIZE 16
0.098206 0.101807 0.100647
0.104431 0.103271 0.100220
0.114258 0.107666 0.102783
0.138306 0.110413 0.099854
0.173706 0.118103 0.099487
0.240479 0.125366 0.095154
0.314209 0.121155 0.091919
0.400635 0.112671 0.083069
0.456543 0.095337 0.074036
0.503906 0.075378 0.064758
0.533691 0.123413 0.054291
0.561035 0.168823 0.042023
0.584473 0.240967 0.027252
0.605469 0.317871 0.020905
0.625000 0.393066 0.055725
0.642090 0.461426 0.188477
0.099182 0.109375 0.101746
0.105347 0.110352 0.101746
0.116211 0.111328 0.103027
0.141846 0.116821 0.100037
0.172119 0.120972 0.099792
0.242065 0.134155 0.095337
0.314697 0.128784 0.092407
0.402588 0.124512 0.082458
0.461426 0.113525 0.072876
0.506348 0.121704 0.061371
0.537598 0.152588 0.049500
0.563477 0.187378 0.038879
0.586426 0.252441 0.022888
0.606934 0.325684 0.016830
0.625488 0.397461 0.053192
0.642090 0.463379 0.188477
0.099854 0.119385 0.104004
0.103516 0.120911 0.104858
0.118713 0.124329 0.104858
0.146729 0.129639 0.102173
0.170288 0.133545 0.101440
0.242798 0.146973 0.096863
0.316650 0.145874 0.093445
0.403076 0.152100 0.081543
0.465820 0.149292 0.069946
0.508301 0.158325 0.056824
0.541016 0.170654 0.045624
0.565918 0.207764 0.035095
0.588379 0.264648 0.018097
0.608398 0.334229 0.011765
0.626465 0.401611 0.050385
0.642578 0.465576 0.188843
0.099487 0.135010 0.103699
0.108215 0.138672 0.105103
0.125732 0.142578 0.103943
0.151245 0.149170 0.101868
0.177368 0.155518 0.101379
0.246216 0.168457 0.096985
0.322754 0.176392 0.091370
0.406006 0.185425 0.078735
0.471191 0.182373 0.064758
0.511719 0.185913 0.052063
0.545898 0.194092 0.040894
0.569824 0.236450 0.027374
0.591309 0.282959 0.010567
0.610840 0.346680 0.003557
0.627930 0.408691 0.046051
0.643066 0.468750 0.188843
0.104431 0.159546 0.108276
0.124634 0.163208 0.107117
0.143921 0.167969 0.105591
0.156006 0.170776 0.104309
0.181519 0.174683 0.103149
0.252930 0.191406 0.097656
0.329346 0.202026 0.089722
0.410889 0.216431 0.075134
0.479004 0.213867 0.059174
0.517578 0.228394 0.044006
0.553223 0.242065 0.030212
0.576172 0.271973 0.011093
0.596191 0.312500 -0.002075
0.613770 0.364502 -0.008278
0.629883 0.418945 0.039032
0.644531 0.474365 0.188965
0.136108 0.206055 0.106567
0.148560 0.210449 0.105469
0.158813 0.214478 0.104797
0.174683 0.219727 0.103882
0.212158 0.229492 0.100708
0.280029 0.245117 0.092468
0.349365 0.259277 0.081848
0.422852 0.273682 0.064209
0.488037 0.282227 0.043182
0.526367 0.291260 0.025467
0.561523 0.302246 0.007763
0.584473 0.317627 -0.011467
0.603027 0.351318 -0.024353
0.618652 0.388672 -0.024643
0.632812 0.434570 0.028412
0.646484 0.482666 0.190308
0.156494 0.269287 0.101990
0.169189 0.272217 0.100708
0.183838 0.275635 0.099121
0.210571 0.281250 0.095886
0.256104 0.291260 0.089111
0.316406 0.304199 0.077820
0.376465 0.316406 0.063538
0.439941 0.329590 0.042847
0.502441 0.337891 0.017410
0.538574 0.346924 -0.002817
0.572266 0.354980 -0.022873
0.593750 0.373535 -0.043823
0.611328 0.392334 -0.056824
0.625000 0.419922 -0.045807
0.637207 0.454590 0.014069
0.648926 0.495117 0.190186
0.251709 0.347412 0.075806
0.265381 0.350098 0.072693
0.279785 0.353027 0.069397
0.301025 0.357178 0.064453
0.330566 0.363525 0.056885
0.368408 0.371826 0.045990
0.414551 0.381592 0.028732
0.464355 0.391113 0.004723
0.515625 0.400879 -0.023743
0.552246 0.407715 -0.050537
0.582520 0.414551 -0.073547
0.605469 0.423584 -0.098694
0.620605 0.437012 -0.100098
0.632812 0.455811 -0.080872
0.643066 0.479736 -0.000624
0.652344 0.511230 0.190430
0.368896 0.422119 0.016617
0.375732 0.423828 0.013702
0.383057 0.425293 0.010818
0.393555 0.427734 0.006035
0.408936 0.431152 -0.001498
0.430908 0.435059 -0.012833
0.460205 0.440430 -0.030243
0.496826 0.447510 -0.054840
0.535645 0.455811 -0.083984
0.566895 0.460205 -0.111145
0.593750 0.465088 -0.132080
0.614258 0.471436 -0.150269
0.630371 0.480713 -0.159180
0.641602 0.492188 -0.131348
0.648926 0.508789 -0.017471
0.656738 0.531250 0.194092
0.467773 0.484619 -0.076355
0.470947 0.485352 -0.079346
0.474121 0.486328 -0.082764
0.479248 0.487305 -0.087036
0.487061 0.489014 -0.094604
0.498779 0.491943 -0.105713
0.514160 0.494385 -0.117676
0.532227 0.496338 -0.127930
0.556152 0.499756 -0.147217
0.584961 0.505859 -0.184570
0.605957 0.508789 -0.199585
0.624512 0.513672 -0.211914
0.638672 0.519043 -0.202515
0.648926 0.526855 -0.163574
0.656738 0.539062 -0.057465
0.661621 0.552734 0.206665
0.533203 0.528809 -0.144165
0.534180 0.528809 -0.145020
0.535645 0.529297 -0.147949
0.537598 0.529297 -0.150391
0.541504 0.530273 -0.156250
0.547363 0.531250 -0.165527
0.556152 0.532715 -0.178223
0.567871 0.535156 -0.194458
0.582520 0.537598 -0.205566
0.599609 0.541016 -0.216064
0.619141 0.545410 -0.249878
0.634766 0.549316 -0.256348
0.646973 0.553223 -0.234741
0.656250 0.558105 -0.173828
0.662109 0.564941 -0.019455
0.666504 0.575684 0.217773
0.581543 0.562988 -0.150757
0.582520 0.562988 -0.151855
0.582520 0.563477 -0.152588
0.583984 0.562988 -0.154175
0.585449 0.563965 -0.157227
0.587891 0.563965 -0.160522
0.591797 0.564941 -0.166016
0.598145 0.566406 -0.174072
0.606934 0.567871 -0.184570
0.617676 0.570312 -0.198120
0.630371 0.573242 -0.208008
0.642090 0.575684 -0.205933
0.653320 0.578613 -0.185669
0.661133 0.582031 -0.087158
0.666504 0.586426 0.097778
0.669922 0.593750 0.263916
0.617676 0.591309 0.000086
0.617676 0.591309 0.000248
0.617676 0.591309 0.000064
0.618652 0.591309 -0.000486
0.619141 0.591309 -0.002703
0.620117 0.591797 -0.002184
0.621582 0.591797 -0.001878
0.624023 0.592285 -0.001216
0.627441 0.592773 0.001631
0.632812 0.593262 0.007488
0.640137 0.595215 0.008362
0.649902 0.597656 0.000040
0.658203 0.600098 0.051422
0.664551 0.602051 0.147705
0.668945 0.605469 0.250488
0.671875 0.609375 0.324463
0.638672 0.612305 0.281982
0.638672 0.612305 0.281982
0.638672 0.612305 0.281982
0.639160 0.611816 0.282227
0.639160 0.612305 0.281982
0.640137 0.612305 0.282471
0.640625 0.612305 0.282471
0.641602 0.612305 0.282715
0.643555 0.612793 0.283447
0.645996 0.613281 0.287109
0.649414 0.613770 0.291504
0.654297 0.614746 0.298584
0.660645 0.616699 0.301758
0.666504 0.618652 0.319092
0.669434 0.619629 0.352783
0.672363 0.622559 0.390869
0.650879 0.628418 0.415283
0.650879 0.628418 0.415283
0.650879 0.628418 0.415283
0.650879 0.628418 0.415283
0.651367 0.628418 0.415283
0.651367 0.628418 0.415283
0.651855 0.628418 0.415283
0.652344 0.628418 0.415527
0.653320 0.628906 0.415283
0.654785 0.628906 0.415527
0.656738 0.629395 0.415771
0.658691 0.629395 0.417725
0.661621 0.629395 0.421143
0.665527 0.630859 0.426270
0.669434 0.632324 0.435791
0.671387 0.632812 0.453857
0.657227 0.639648 0.498291
0.657227 0.639648 0.498291
0.657227 0.639648 0.498291
0.657227 0.639648 0.498291
0.657227 0.639648 0.498291
0.657715 0.639648 0.498291
0.657715 0.639648 0.498291
0.657715 0.639648 0.498291
0.658203 0.640137 0.498291
0.659180 0.640137 0.498535
0.660156 0.640137 0.498291
0.661621 0.640625 0.498779
0.663086 0.640625 0.499268
0.665039 0.640625 0.500488
0.666992 0.641113 0.503418
0.668945 0.642090 0.509766
0.098938 0.102844 0.110107
0.105896 0.103394 0.109619
0.116638 0.106750 0.107483
0.132202 0.106506 0.106018
0.183960 0.115723 0.105957
0.236206 0.122131 0.101685
0.323975 0.119812 0.099976
0.403564 0.109497 0.093140
0.462891 0.093079 0.081848
0.505371 0.089111 0.076050
0.537109 0.117249 0.060303
0.563477 0.169678 0.048157
0.586426 0.241089 0.033722
0.606445 0.320312 0.035004
0.625488 0.395996 0.086670
0.642090 0.463135 0.210449
0.098389 0.110718 0.112122
0.107910 0.112854 0.110718
0.119202 0.114502 0.109009
0.136841 0.118774 0.107422
0.186646 0.126587 0.106873
0.237427 0.134766 0.102295
0.323975 0.135010 0.101624
0.405762 0.130127 0.093079
0.465088 0.122559 0.083984
0.508789 0.126953 0.071716
0.540527 0.143799 0.055298
0.566406 0.193237 0.044556
0.588379 0.254395 0.030182
0.607910 0.328125 0.031158
0.625977 0.399902 0.084045
0.642578 0.465088 0.210083
0.098694 0.119995 0.112122
0.108032 0.122742 0.110413
0.121460 0.126709 0.109985
0.144043 0.131348 0.109009
0.186401 0.140259 0.109558
0.244141 0.149292 0.105347
0.324951 0.153320 0.103882
0.407715 0.155762 0.091797
0.468994 0.152466 0.080566
0.512207 0.154663 0.065369
0.543457 0.171631 0.052460
0.568848 0.215088 0.040314
0.590332 0.267822 0.026596
0.609375 0.336182 0.026428
0.626953 0.404297 0.081238
0.643066 0.467285 0.210449
0.101807 0.138306 0.114075
0.114502 0.143066 0.113037
0.121948 0.143921 0.111206
0.142334 0.145996 0.108337
0.192749 0.159546 0.109192
0.244263 0.164673 0.103638
0.329346 0.180420 0.101135
0.411865 0.184204 0.086304
0.473145 0.187622 0.075806
0.516602 0.188721 0.060059
0.548340 0.207397 0.048828
0.573242 0.241821 0.032074
0.593262 0.287842 0.020584
0.611816 0.349121 0.018875
0.628418 0.411133 0.076599
0.643555 0.470459 0.209717
0.109131 0.169067 0.115540
0.123352 0.172485 0.115051
0.136353 0.175903 0.113770
0.161987 0.180664 0.113281
0.199463 0.188965 0.113342
0.260010 0.202637 0.107361
0.338135 0.215210 0.101868
0.417969 0.227295 0.085144
0.479980 0.229614 0.071533
0.522461 0.238037 0.052094
0.554688 0.251709 0.038269
0.579590 0.270752 0.017639
0.598145 0.316406 0.007515
0.614746 0.366699 0.008385
0.630371 0.421143 0.068726
0.644531 0.476074 0.210571
0.118652 0.203979 0.114807
0.131836 0.206787 0.113525
0.150391 0.212646 0.112976
0.182617 0.223999 0.112610
0.225464 0.236328 0.108948
0.278076 0.246826 0.099487
0.355713 0.266357 0.092529
0.431396 0.275879 0.070251
0.488525 0.288574 0.055054
0.533691 0.289062 0.029785
0.562500 0.304932 0.016541
0.587402 0.319580 -0.003160
0.604980 0.351562 -0.018890
0.619629 0.391357 -0.007156
0.633301 0.436279 0.058075
0.646484 0.483887 0.210449
0.166748 0.281738 0.113220
0.183472 0.285156 0.112061
0.200317 0.289062 0.110535
0.226562 0.294678 0.107361
0.265137 0.303223 0.100525
0.318115 0.314453 0.090210
0.383057 0.327637 0.076782
0.446777 0.340088 0.051880
0.501953 0.348145 0.029999
0.543457 0.355957 0.003117
0.573730 0.364258 -0.015312
0.596191 0.378174 -0.036804
0.613281 0.393066 -0.049622
0.625977 0.422607 -0.029114
0.637695 0.456543 0.045471
0.648926 0.496338 0.210327
0.255859 0.357178 0.083069
0.266846 0.359375 0.079651
0.277588 0.361328 0.076172
0.296631 0.365234 0.070984
0.326416 0.370850 0.063721
0.370605 0.379150 0.053741
0.422363 0.389160 0.034637
0.471924 0.398682 0.005123
0.515625 0.406494 -0.015244
0.557129 0.412354 -0.049744
0.584473 0.419189 -0.067566
0.606934 0.427490 -0.084351
0.622070 0.440186 -0.085449
0.633789 0.457520 -0.062469
0.643066 0.481201 0.035095
0.652832 0.512207 0.210571
0.373291 0.428467 0.029083
0.380615 0.430176 0.025635
0.388184 0.431641 0.022415
0.398926 0.433838 0.017258
0.414795 0.437012 0.009377
0.436768 0.440674 -0.001876
0.466064 0.446045 -0.019623
0.500000 0.451904 -0.042450
0.536133 0.458984 -0.069397
0.569336 0.463623 -0.099609
0.596191 0.469238 -0.123413
0.616211 0.475098 -0.139282
0.632324 0.483643 -0.146118
0.642090 0.494141 -0.101990
0.649414 0.510254 0.020752
0.656738 0.532227 0.214844
0.467773 0.488037 -0.047485
0.471191 0.489014 -0.050262
0.474121 0.489502 -0.052368
0.479248 0.490723 -0.056305
0.487305 0.492188 -0.062286
0.498779 0.494629 -0.072083
0.514648 0.497070 -0.085571
0.534180 0.499756 -0.104797
0.558594 0.502930 -0.130249
0.585449 0.508301 -0.156494
0.607422 0.511230 -0.177368
0.625977 0.515625 -0.189331
0.639648 0.520996 -0.176758
0.649902 0.529297 -0.136230
0.657227 0.540527 -0.013496
0.661133 0.553711 0.226318
0.533691 0.531738 -0.112305
0.534668 0.531738 -0.113220
0.536621 0.531738 -0.116455
0.538574 0.532227 -0.119690
0.542480 0.533203 -0.126709
0.548340 0.534180 -0.137085
0.557129 0.535645 -0.150757
0.569336 0.538086 -0.167847
0.583496 0.540039 -0.178589
0.599609 0.542969 -0.185059
0.620117 0.547852 -0.220459
0.635254 0.551270 -0.222534
0.647461 0.555176 -0.203857
0.656250 0.559082 -0.128662
0.662109 0.565918 0.034821
0.666504 0.576660 0.235107
0.581055 0.564941 -0.093872
0.581543 0.564941 -0.095337
0.582031 0.564941 -0.096436
0.583496 0.565430 -0.098938
0.584961 0.565430 -0.101807
0.587891 0.565918 -0.107239
0.592285 0.566895 -0.117004
0.599121 0.568359 -0.131104
0.607910 0.570312 -0.147339
0.618164 0.571777 -0.154785
0.629883 0.574219 -0.151001
0.642090 0.576660 -0.155762
0.653320 0.579590 -0.136841
0.661133 0.583496 -0.036560
0.666504 0.587402 0.149170
0.669922 0.594727 0.277832
0.616211 0.592285 0.084656
0.616211 0.592285 0.084656
0.616699 0.592285 0.084473
0.617188 0.592285 0.083923
0.618164 0.592285 0.082581
0.619141 0.592285 0.082153
0.620605 0.592773 0.080322
0.623535 0.593262 0.076843
0.626953 0.593750 0.076050
0.632812 0.594727 0.077576
0.640137 0.596191 0.074219
0.649414 0.598633 0.079468
0.657715 0.600586 0.123108
0.664551 0.602539 0.185181
0.668945 0.606445 0.267578
0.671387 0.610352 0.333984
0.638184 0.612793 0.302246
0.638184 0.612793 0.302246
0.638184 0.612793 0.302246
0.638184 0.612793 0.302490
0.638672 0.612793 0.302246
0.639160 0.612793 0.302246
0.640137 0.612793 0.302246
0.641113 0.613281 0.302979
0.643066 0.613770 0.302979
0.645508 0.613770 0.305664
0.648926 0.614746 0.309814
0.653809 0.615234 0.313232
0.660645 0.617188 0.316895
0.666016 0.618652 0.331543
0.669434 0.620117 0.361084
0.672363 0.623047 0.396973
0.650391 0.628906 0.421387
0.650391 0.628906 0.421387
0.650391 0.628906 0.421387
0.650391 0.628418 0.421387
0.650879 0.628906 0.421387
0.651367 0.628906 0.421387
0.651367 0.628906 0.421387
0.652344 0.628906 0.421143
0.652832 0.628906 0.420898
0.654297 0.629395 0.421143
0.656250 0.629395 0.421387
0.658691 0.629883 0.423096
0.661621 0.629883 0.426270
0.665527 0.631348 0.430908
0.669434 0.632324 0.439697
0.670898 0.633301 0.456787
0.657227 0.639648 0.500488
0.657227 0.639648 0.500488
0.657227 0.639648 0.500488
0.657227 0.639648 0.500488
0.657227 0.639648 0.500488
0.657227 0.639648 0.500488
0.657227 0.640137 0.500488
0.657715 0.640137 0.500488
0.658203 0.640137 0.500488
0.659180 0.640137 0.500488
0.659668 0.640625 0.500488
0.661621 0.640625 0.500488
0.663086 0.640625 0.500977
0.664551 0.640625 0.502441
0.666992 0.641113 0.505371
0.668945 0.642090 0.511230
0.097290 0.102661 0.120117
0.104858 0.104614 0.121521
0.116882 0.108887 0.124329
0.142456 0.110596 0.121948
0.184448 0.119019 0.117859
0.245850 0.125366 0.116760
0.329346 0.120178 0.111145
0.407715 0.107117 0.104370
0.468506 0.090393 0.093201
0.508301 0.093018 0.081726
0.540039 0.117249 0.070251
0.565918 0.172852 0.059631
0.587891 0.241333 0.044281
0.607422 0.321045 0.050415
0.625488 0.398193 0.118164
0.642090 0.464355 0.229858
0.097534 0.111389 0.123169
0.106140 0.112610 0.123535
0.118530 0.113770 0.123169
0.145630 0.120422 0.123718
0.185303 0.126221 0.118774
0.246094 0.136841 0.119446
0.329346 0.135742 0.110596
0.410156 0.132202 0.103455
0.469727 0.125610 0.091064
0.511719 0.126831 0.078857
0.542969 0.145142 0.067139
0.568359 0.194214 0.054291
0.589844 0.256348 0.041290
0.608887 0.328857 0.047241
0.626465 0.402344 0.115784
0.642578 0.466309 0.230347
0.096985 0.123230 0.128418
0.103577 0.124268 0.125610
0.120239 0.127441 0.123535
0.150879 0.134521 0.124329
0.181641 0.138916 0.116821
0.250244 0.151489 0.118958
0.329590 0.154053 0.108887
0.412354 0.156738 0.102478
0.472168 0.152466 0.088928
0.515625 0.149780 0.075623
0.546387 0.173950 0.063049
0.570801 0.214722 0.049469
0.592285 0.271729 0.038422
0.610352 0.337891 0.043854
0.627441 0.406494 0.113464
0.643066 0.468994 0.229736
0.097107 0.143433 0.129150
0.108887 0.146973 0.128540
0.126343 0.150513 0.128296
0.152588 0.155762 0.128662
0.192383 0.165039 0.124268
0.251709 0.171753 0.123230
0.335449 0.184570 0.113525
0.417725 0.185425 0.101196
0.476074 0.190308 0.085876
0.520508 0.190674 0.070496
0.551270 0.209717 0.055145
0.574707 0.243164 0.042786
0.595215 0.293213 0.033417
0.612793 0.351318 0.037872
0.628906 0.413330 0.109985
0.643555 0.471924 0.229614
0.101685 0.169556 0.128296
0.123718 0.174438 0.128418
0.143921 0.180542 0.130249
0.164429 0.185425 0.127808
0.195557 0.190674 0.120667
0.265869 0.209106 0.121460
0.344971 0.220581 0.107971
0.424316 0.234009 0.097168
0.483398 0.236084 0.077271
0.527344 0.242798 0.060577
0.557129 0.253662 0.044067
0.581055 0.277832 0.033447
0.599609 0.320312 0.020096
0.615723 0.369629 0.030304
0.630859 0.423340 0.103882
0.645020 0.477295 0.230347
0.125366 0.219849 0.136353
0.139038 0.223389 0.135620
0.156372 0.228149 0.134155
0.184204 0.235718 0.130615
0.226685 0.246094 0.125977
0.285400 0.257080 0.121155
0.361328 0.273193 0.106873
0.436768 0.281494 0.086853
0.491211 0.292236 0.066223
0.538086 0.291748 0.043243
0.565430 0.309326 0.027023
0.588379 0.326172 0.013786
0.606934 0.352539 -0.007519
0.620605 0.394287 0.014992
0.633789 0.438477 0.094604
0.646484 0.485107 0.229980
0.159668 0.289062 0.125244
0.173950 0.291748 0.122070
0.190430 0.295166 0.118958
0.219604 0.300781 0.116089
0.266602 0.310791 0.114380
0.324219 0.322266 0.106201
0.387695 0.333496 0.083862
0.451416 0.347168 0.065369
0.505371 0.354248 0.037170
0.546387 0.361816 0.013100
0.576172 0.366455 -0.009857
0.597168 0.380615 -0.021484
0.614746 0.395020 -0.035156
0.626953 0.424805 -0.011574
0.638184 0.458252 0.083313
0.648926 0.497559 0.229980
0.259277 0.365967 0.108826
0.272461 0.368164 0.106689
0.285889 0.370850 0.104492
0.305420 0.374268 0.100037
0.335449 0.379883 0.090942
0.376953 0.387207 0.074341
0.426025 0.396484 0.052826
0.475098 0.405273 0.028732
0.519043 0.412354 -0.000520
0.559082 0.417969 -0.030502
0.586426 0.423340 -0.051117
0.607422 0.431396 -0.061096
0.623047 0.443115 -0.064758
0.634766 0.459473 -0.042480
0.643555 0.483643 0.074707
0.652832 0.513672 0.229980
0.378906 0.436523 0.046173
0.385742 0.438232 0.041138
0.393066 0.439697 0.035919
0.403564 0.441895 0.028534
0.418945 0.445312 0.018158
0.440674 0.448486 0.007656
0.468750 0.452637 -0.002127
0.502930 0.457764 -0.020828
0.541992 0.466064 -0.066467
0.571777 0.469727 -0.085693
0.598633 0.473389 -0.112183
0.618652 0.478760 -0.123901
0.632812 0.486328 -0.118774
0.642578 0.496094 -0.064941
0.649902 0.511719 0.064026
0.656738 0.532715 0.234741
0.468018 0.491211 -0.011284
0.470947 0.491943 -0.013451
0.474365 0.492676 -0.015717
0.479492 0.493652 -0.019501
0.487061 0.495117 -0.024811
0.498535 0.497559 -0.034210
0.514160 0.500000 -0.048096
0.535645 0.502441 -0.072266
0.561035 0.506348 -0.104126
0.585449 0.511230 -0.123718
0.608398 0.514160 -0.149292
0.626953 0.518066 -0.158691
0.640625 0.523926 -0.149414
0.650391 0.531738 -0.102051
0.656738 0.541504 0.043121
0.661621 0.554199 0.244629
0.534180 0.534180 -0.066711
0.535645 0.534668 -0.068542
0.537109 0.534668 -0.070007
0.539062 0.535156 -0.072998
0.542480 0.535645 -0.077637
0.548340 0.536621 -0.084717
0.557129 0.538086 -0.096558
0.568848 0.540039 -0.112549
0.583984 0.542969 -0.132690
0.601562 0.545410 -0.150391
0.620117 0.549805 -0.173828
0.635254 0.552734 -0.176636
0.648438 0.556641 -0.164673
0.656250 0.560547 -0.077209
0.662109 0.567383 0.095825
0.666504 0.577148 0.253906
0.580566 0.566895 -0.028061
0.581543 0.566895 -0.029343
0.582520 0.567383 -0.031342
0.583008 0.567383 -0.033569
0.584961 0.567871 -0.038605
0.588379 0.568359 -0.045441
0.592285 0.568848 -0.055237
0.599609 0.570312 -0.074280
0.608398 0.572266 -0.094299
0.618652 0.573730 -0.099304
0.629395 0.575684 -0.087341
0.642090 0.578125 -0.096436
0.653320 0.581055 -0.075378
0.661621 0.584961 0.019730
0.666016 0.588867 0.188232
0.669434 0.595215 0.292480
0.615234 0.593262 0.161743
0.615234 0.593262 0.160034
0.615234 0.593262 0.160034
0.616211 0.593262 0.159302
0.616699 0.593262 0.158447
0.617676 0.593750 0.158203
0.619629 0.593750 0.155273
0.622559 0.594238 0.151733
0.626465 0.594727 0.146484
0.632812 0.596191 0.141602
0.640137 0.597168 0.140869
0.648926 0.599609 0.150757
0.657227 0.601562 0.177734
0.664551 0.604004 0.217651
0.668945 0.607422 0.284668
0.671387 0.610840 0.343506
0.637207 0.613281 0.322754
0.637207 0.613281 0.322998
0.637207 0.613281 0.322998
0.637207 0.613281 0.322998
0.637695 0.613770 0.322754
0.638184 0.613281 0.322998
0.639160 0.613770 0.322754
0.640137 0.613770 0.322510
0.642090 0.614258 0.322021
0.644531 0.614258 0.323242
0.648438 0.615234 0.324463
0.653809 0.616211 0.328125
0.660156 0.617676 0.331299
0.665527 0.619141 0.344482
0.669434 0.620605 0.369629
0.671875 0.623535 0.402832
0.650391 0.628906 0.427734
0.650391 0.628906 0.427734
0.650391 0.628906 0.427734
0.650391 0.628906 0.427734
0.650391 0.628906 0.427734
0.650879 0.628906 0.427734
0.650879 0.628906 0.427734
0.651855 0.629395 0.427490
0.652832 0.629395 0.426758
0.654297 0.629395 0.427002
0.655762 0.629883 0.427734
0.658203 0.629883 0.429199
0.661133 0.630371 0.431641
0.665527 0.631348 0.435547
0.668945 0.632812 0.444092
0.670898 0.633301 0.460449
0.656738 0.640137 0.502930
0.657227 0.640137 0.502930
0.657227 0.640137 0.502930
0.657227 0.640137 0.502930
0.657227 0.640137 0.502930
0.657227 0.640137 0.502930
0.657227 0.640137 0.502930
0.657715 0.640137 0.502930
0.658203 0.640137 0.502930
0.658691 0.640625 0.502930
0.659668 0.640625 0.502930
0.661133 0.641113 0.502930
0.663086 0.641113 0.503418
0.664551 0.641113 0.504883
0.666504 0.641602 0.507324
0.668945 0.642578 0.512695
0.100159 0.103821 0.162598
0.106262 0.105225 0.159058
0.118958 0.108276 0.156860
0.140259 0.108154 0.150269
0.192017 0.117920 0.151489
0.249023 0.122742 0.141479
0.336914 0.119019 0.137695
0.414307 0.106873 0.128418
0.471191 0.090393 0.116150
0.513184 0.082397 0.099182
0.542969 0.124084 0.093506
0.568359 0.176758 0.080322
0.589355 0.246704 0.074707
0.608887 0.321533 0.079895
0.625977 0.399658 0.157104
0.642578 0.466553 0.254883
0.097900 0.113342 0.163940
0.106934 0.114502 0.160400
0.119324 0.116516 0.158325
0.142212 0.121582 0.151733
0.193726 0.130005 0.152588
0.249634 0.135742 0.142456
0.336182 0.136108 0.140015
0.416016 0.131348 0.128052
0.474365 0.120300 0.113098
0.516113 0.127686 0.099915
0.546387 0.154907 0.091187
0.570801 0.196167 0.075439
0.591309 0.261230 0.071655
0.610352 0.330322 0.077637
0.626953 0.403564 0.156494
0.643066 0.468262 0.254883
0.095276 0.125854 0.164795
0.104370 0.127563 0.161377
0.121765 0.131592 0.160278
0.148804 0.137451 0.157104
0.191772 0.145752 0.157959
0.255127 0.153564 0.149170
0.336670 0.156494 0.142944
0.418213 0.159058 0.128784
0.477783 0.156006 0.113037
0.519043 0.160645 0.101013
0.549805 0.178589 0.085022
0.573242 0.217041 0.071350
0.593262 0.276123 0.068542
0.611816 0.340088 0.075989
0.627930 0.408203 0.155029
0.643066 0.470459 0.254883
0.096436 0.148560 0.164917
0.110168 0.153076 0.164673
0.121765 0.153564 0.159058
0.144897 0.155762 0.151611
0.198608 0.168579 0.155884
0.255371 0.173706 0.144897
0.341797 0.188721 0.142334
0.423096 0.191528 0.125488
0.482178 0.194092 0.109741
0.523438 0.197266 0.095459
0.555176 0.205933 0.072876
0.577148 0.246948 0.067017
0.596191 0.296631 0.063477
0.613770 0.354980 0.074097
0.628906 0.414795 0.153320
0.644043 0.473877 0.255127
0.101990 0.181641 0.169434
0.120361 0.185547 0.166748
0.135742 0.189453 0.163208
0.162476 0.195312 0.161987
0.206055 0.203369 0.161865
0.271240 0.217285 0.152710
0.351318 0.227783 0.141968
0.429199 0.239380 0.125854
0.490479 0.235840 0.098999
0.529297 0.247070 0.087097
0.561523 0.255859 0.063538
0.582520 0.285156 0.059448
0.601074 0.324219 0.052795
0.617188 0.374756 0.070129
0.631348 0.425537 0.150757
0.645020 0.479248 0.255127
0.106628 0.225586 0.160034
0.122620 0.228760 0.157715
0.145386 0.234375 0.157471
0.184204 0.244385 0.159424
0.232910 0.255615 0.156738
0.289551 0.265869 0.145264
0.367188 0.282715 0.138184
0.441406 0.291992 0.117432
0.497559 0.301270 0.094666
0.539062 0.304688 0.074768
0.568848 0.315918 0.050568
0.590332 0.332520 0.041534
0.607910 0.358398 0.033478
0.622070 0.399414 0.055542
0.634277 0.441162 0.146484
0.646973 0.487305 0.254883
0.159790 0.302246 0.166870
0.179688 0.305420 0.165894
0.198975 0.309082 0.164429
0.229004 0.314453 0.160645
0.272461 0.322998 0.152710
0.328857 0.333496 0.142090
0.393066 0.343262 0.124695
0.456055 0.355469 0.101807
0.511230 0.360352 0.064941
0.549316 0.367188 0.043091
0.580078 0.370605 0.014435
0.599121 0.385498 0.011421
0.615723 0.401611 0.010262
0.628906 0.428467 0.022232
0.638672 0.461426 0.141113
