looks/Cineon_Rec709_to_Fuji.cube
TITLE "Cineon_Rec709_to_Fuji"
LUT_3D_SIZE 6
0.000000 0.000000 0.000000
0.000000 0.000000 0.000000
0.093994 0.000000 0.000000
0.304932 0.000000 0.000000
0.420166 0.000000 0.000000
0.490234 0.000000 0.000000
0.005245 0.000348 0.000000
0.006927 0.004749 0.000000
0.134155 0.011490 0.000000
0.386719 0.007599 0.000000
0.524414 0.000762 0.000000
0.591309 0.000000 0.000000
0.000000 0.112549 0.000000
0.000000 0.119507 0.000000
0.188354 0.162354 0.000000
0.505371 0.209473 0.000000
0.649414 0.203613 0.000000
0.713867 0.203369 0.000000
0.000000 0.283203 0.000000
0.000000 0.312744 0.000000
0.225586 0.401123 0.000000
0.625977 0.472900 0.000000
0.791992 0.481689 0.000000
0.865723 0.501953 0.000000
0.000000 0.344482 0.000000
0.000000 0.411377 0.000000
0.257812 0.518555 0.000000
0.694824 0.618164 0.000000
0.889648 0.651855 0.000000
0.965820 0.672852 0.000000
0.000000 0.406250 0.000000
0.000000 0.497803 0.000000
0.367188 0.604004 0.000000
0.778809 0.697754 0.000000
0.970215 0.734375 0.000000
1.039062 0.752441 0.000000
0.000000 0.000000 0.000000
0.000000 0.000000 0.000000
0.119446 0.000000 0.000762
0.370850 0.000000 0.002146
0.500000 0.000000 0.000266
0.561523 0.000000 0.000600
0.005180 0.015114 0.015572
0.018738 0.022049 0.023193
0.185669 0.038361 0.023941
0.481934 0.004135 0.010307
0.620117 0.000000 0.005329
0.678223 0.000000 0.007320
0.000000 0.146606 0.043549
0.000000 0.157837 0.049438
0.251465 0.207520 0.030090
0.604004 0.223511 0.007175
0.749023 0.200073 0.004333
0.801758 0.203491 0.009140
0.000000 0.344971 0.058777
0.000000 0.387939 0.054779
0.291260 0.491211 0.017273
0.738770 0.552734 0.000000
0.907715 0.560547 0.000000
0.966309 0.578613 0.000000
0.000000 0.413574 0.129883
0.000000 0.498779 0.128906
0.317627 0.625977 0.046753
0.801270 0.719727 0.016037
0.983398 0.744141 0.011551
1.039062 0.755859 0.018112
0.000000 0.493652 0.256104
0.000000 0.591309 0.269287
0.387939 0.706055 0.241821
0.839844 0.788574 0.141602
1.012695 0.816406 0.054749
1.063477 0.834473 0.145874
0.000000 0.000000 0.118103
0.000000 0.000000 0.128296
0.131226 0.000000 0.153198
0.411133 0.000000 0.169434
0.536133 0.000000 0.171631
0.589355 0.000000 0.192749
0.000000 0.029465 0.187256
0.000000 0.037354 0.200806
0.208618 0.044617 0.223389
0.532227 0.004749 0.219116
0.661621 0.000000 0.227417
0.702148 0.000000 0.250244
0.000000 0.200928 0.263672
0.000000 0.218018 0.277100
0.249390 0.268555 0.302002
0.654297 0.272217 0.290283
0.794434 0.254883 0.297363
0.828613 0.259277 0.322510
0.000000 0.436279 0.350098
0.000000 0.489746 0.375244
0.162842 0.597656 0.393799
0.776855 0.658203 0.375732
0.944336 0.664551 0.373535
0.981934 0.677246 0.399902
0.000000 0.505371 0.435791
0.000000 0.598145 0.474365
0.120544 0.732422 0.502930
0.810059 0.830078 0.486328
0.994629 0.853516 0.485107
1.034180 0.859863 0.496338
0.000000 0.584961 0.576172
0.000000 0.682617 0.616211
0.141113 0.804199 0.645020
0.811035 0.886719 0.632324
0.987793 0.914062 0.629395
1.028320 0.933594 0.674805
0.000000 0.000000 0.301514
0.000000 0.000000 0.319580
0.098328 0.000000 0.369385
0.411865 0.000000 0.401855
0.549316 0.000000 0.416992
0.604492 0.000000 0.451904
0.000000 0.037842 0.401611
0.000000 0.042084 0.435547
0.170654 0.019928 0.489258
0.536133 0.005081 0.510254
0.669434 0.000000 0.526367
0.709473 0.000000 0.551270
0.000000 0.254150 0.520508
0.000000 0.278564 0.564453
0.103455 0.326172 0.626953
0.647461 0.321289 0.646973
0.793945 0.304688 0.658691
0.827148 0.313232 0.682129
0.000000 0.502930 0.616211
0.000000 0.572266 0.679688
0.000000 0.686523 0.748047
0.734863 0.749023 0.779297
0.917480 0.750000 0.786621
0.954590 0.759766 0.803711
0.000000 0.568359 0.666992
0.000000 0.667969 0.742188
0.000000 0.808105 0.815918
0.751465 0.916992 0.857422
0.956055 0.940918 0.867676
0.996582 0.941406 0.865723
0.000000 0.627930 0.743652
0.000000 0.727051 0.805176
0.000000 0.848633 0.864258
0.760254 0.942383 0.896484
0.958008 0.974609 0.912109
0.997070 0.985352 0.934570
0.000000 0.000000 0.377441
0.000000 0.000000 0.403320
0.025024 0.000000 0.454834
0.388672 0.000000 0.497559
0.552734 0.000000 0.521484
0.613281 0.000000 0.553223
0.000000 0.035553 0.485840
0.000000 0.034180 0.522461
0.097168 0.012192 0.588867
0.526855 0.004860 0.632812
0.667969 0.000000 0.648438
0.708984 0.000000 0.667969
0.000000 0.272949 0.612305
0.000000 0.297119 0.661133
0.043121 0.342041 0.736816
0.627441 0.334961 0.779785
0.783691 0.319092 0.791016
0.817383 0.329834 0.807129
0.000000 0.525391 0.705566
0.000000 0.591797 0.771973
0.000000 0.711426 0.858398
0.712402 0.780762 0.913574
0.900879 0.779297 0.923828
0.940918 0.792969 0.934082
0.000000 0.584961 0.735352
0.000000 0.680664 0.809570
0.000000 0.821289 0.893555
0.722168 0.935547 0.954590
0.938477 0.961914 0.970215
0.980957 0.966797 0.974609
0.000000 0.635254 0.780273
0.000000 0.732910 0.843750
0.000000 0.852539 0.910645
0.737793 0.954102 0.962891
0.946777 0.987793 0.981445
0.991211 0.996094 0.989258
0.000000 0.000000 0.397705
0.000000 0.000000 0.431152
0.000000 0.000000 0.488525
0.395264 0.000000 0.538086
0.566895 0.000000 0.561035
0.628418 0.000000 0.587402
0.000000 0.032471 0.504395
0.000000 0.030609 0.541992
0.061096 0.011703 0.612793
0.526855 0.004322 0.662109
0.673828 0.000000 0.677246
0.714355 0.000000 0.692383
0.000000 0.276611 0.630371
0.000000 0.297363 0.677734
0.000000 0.341553 0.756348
0.618652 0.333984 0.806641
0.784180 0.316406 0.820312
0.816895 0.327393 0.828613
0.000000 0.541016 0.723633
0.000000 0.596191 0.787109
0.000000 0.719727 0.876465
0.695312 0.781738 0.933594
0.902344 0.791504 0.949707
0.941895 0.806641 0.956543
0.000000 0.589355 0.750488
0.000000 0.679688 0.819336
0.000000 0.819336 0.904785
0.722656 0.937012 0.969727
0.940430 0.966309 0.988281
0.981934 0.977539 0.993652
0.000000 0.638184 0.789062
0.000000 0.732422 0.851562
0.000000 0.854004 0.920410
0.778809 0.962891 0.977539
0.957031 0.990723 0.994141
1.000000 1.000000 0.999512
