looks/Cineon_Rec709_to_Kodak.cube
TITLE "Cineon_Rec709_to_Kodak"
LUT_3D_SIZE 6
0.000000 0.000000 0.000000
0.008026 0.000000 0.000000
0.168457 0.000000 0.000000
0.448975 0.000000 0.000000
0.574707 0.000000 0.000000
0.619629 0.000000 0.000000
0.000000 0.006329 0.000000
0.019791 0.020996 0.000812
0.224609 0.046936 0.000000
0.541504 0.010239 0.000000
0.654785 0.000377 0.000000
0.691406 0.000000 0.000000
0.000000 0.118469 0.004601
0.009056 0.142090 0.006378
0.296631 0.222778 0.000000
0.673828 0.261719 0.000000
0.786133 0.237061 0.000000
0.812988 0.221191 0.000000
0.000000 0.309082 0.000000
0.000000 0.386963 0.000000
0.351074 0.532715 0.000000
0.801758 0.625000 0.000000
0.946777 0.632812 0.000000
0.977051 0.609375 0.000000
0.000000 0.385742 0.000000
0.000000 0.490234 0.000000
0.346924 0.645996 0.000000
0.843750 0.770996 0.000000
1.009766 0.799805 0.000000
1.060547 0.804688 0.000000
0.000000 0.431396 0.000000
0.000000 0.559082 0.000000
0.412354 0.703125 0.000000
0.865723 0.817383 0.000000
1.042969 0.858887 0.000000
1.100586 0.871582 0.000000
0.000000 0.000000 0.006035
0.016602 0.000000 0.016769
0.180298 0.005096 0.020569
0.475586 0.000000 0.007446
0.610352 0.000000 0.001604
0.654297 0.000000 0.001572
0.000000 0.020554 0.029083
0.026154 0.036469 0.033478
0.241699 0.063477 0.033020
0.568848 0.016098 0.007851
0.694336 0.002100 0.003307
0.730957 0.000000 0.001718
0.000000 0.137817 0.056610
0.008072 0.168823 0.054688
0.314941 0.250977 0.022507
0.703613 0.290527 0.005203
0.830566 0.265625 0.001569
0.855469 0.238159 0.001102
0.000000 0.344971 0.057404
0.000000 0.421631 0.021805
0.370850 0.566895 0.004490
0.837402 0.664062 0.000000
0.991699 0.671875 0.000000
1.018555 0.641602 0.000000
0.000000 0.417969 0.066589
0.000000 0.525879 0.016190
0.369873 0.686035 0.006603
0.871582 0.808594 0.000000
1.047852 0.840820 0.000000
1.093750 0.839844 0.000000
0.000000 0.468994 0.126099
0.000000 0.598145 0.086914
0.398438 0.740723 0.023987
0.874512 0.850098 0.013908
1.061523 0.889648 0.001389
1.117188 0.901855 0.000000
0.000000 0.000000 0.142578
0.010445 0.000000 0.168945
0.188477 0.000000 0.198608
0.504883 0.000000 0.214600
0.633789 0.000000 0.209229
0.677246 0.000000 0.199951
0.000000 0.030914 0.193848
0.005543 0.045349 0.214111
0.252686 0.064819 0.249268
0.592285 0.016846 0.258545
0.717285 0.007942 0.250000
0.751465 0.001881 0.234985
0.000000 0.180420 0.262939
0.000000 0.210938 0.282715
0.294678 0.291260 0.316162
0.708496 0.324707 0.320557
0.844727 0.308105 0.317383
0.873047 0.279785 0.294434
0.000000 0.409668 0.326904
0.000000 0.488037 0.350342
0.275146 0.632324 0.370117
0.827637 0.728027 0.372070
0.990234 0.734863 0.359131
1.024414 0.704590 0.333008
0.000000 0.487061 0.357178
0.000000 0.599121 0.391113
0.225708 0.756836 0.409668
0.838867 0.873535 0.403320
1.031250 0.904785 0.390869
1.083984 0.897949 0.353027
0.000000 0.541992 0.443848
0.000000 0.675293 0.491211
0.175659 0.804199 0.494873
0.826660 0.915039 0.506348
1.035156 0.958496 0.500977
1.092773 0.970703 0.505371
0.000000 0.000000 0.351807
0.000000 0.000000 0.387207
0.185791 0.000000 0.440674
0.510742 0.000000 0.474854
0.645020 0.000000 0.480957
0.691895 0.000000 0.476074
0.000000 0.025772 0.437500
0.000000 0.030609 0.472412
0.237427 0.039581 0.536133
0.597656 0.019257 0.566895
0.731445 0.010704 0.571289
0.769531 0.005005 0.559082
0.000000 0.225342 0.547363
0.000000 0.264160 0.589355
0.206177 0.337646 0.655762
0.697266 0.372559 0.689941
0.842773 0.358887 0.690918
0.877930 0.328125 0.667969
0.000000 0.473145 0.644531
0.000000 0.553711 0.692383
0.000840 0.693848 0.756348
0.771484 0.784180 0.788086
0.952637 0.792969 0.790527
0.998047 0.757324 0.763184
0.000000 0.556641 0.675781
0.000000 0.668457 0.733398
0.000000 0.822754 0.793945
0.776367 0.936035 0.822754
0.984375 0.964844 0.823730
1.045898 0.958008 0.804199
0.000000 0.600586 0.726562
0.000000 0.729980 0.788574
0.000000 0.861328 0.835938
0.752930 0.965332 0.862793
0.984863 1.007812 0.872070
1.052734 1.022461 0.881836
0.000000 0.000000 0.453857
0.000000 0.000000 0.489014
0.152222 0.000000 0.546387
0.510742 0.000000 0.599609
0.659180 0.000000 0.611328
0.708008 0.000000 0.614746
0.000000 0.042450 0.560059
0.000000 0.052307 0.602539
0.191772 0.088928 0.675781
0.603027 0.032715 0.724609
0.747559 0.022202 0.732910
0.790527 0.017487 0.728027
0.000000 0.245605 0.666016
0.000000 0.295654 0.719238
0.094788 0.376953 0.802734
0.676270 0.414307 0.848145
0.840332 0.397705 0.854004
0.881348 0.370117 0.841309
0.000000 0.490723 0.768066
0.000000 0.578125 0.830078
0.000000 0.712402 0.905273
0.729980 0.801758 0.950195
0.928711 0.809082 0.957031
0.983398 0.780273 0.943359
0.000000 0.581055 0.803711
0.000000 0.694336 0.867188
0.000000 0.842773 0.936035
0.726074 0.953125 0.979492
0.956055 0.982910 0.990234
1.027344 0.980469 0.981934
0.000000 0.622559 0.828125
0.000000 0.752441 0.893555
0.000000 0.877441 0.947754
0.716309 0.982422 0.987793
0.961914 1.024414 1.002930
1.040039 1.041016 1.007812
0.000000 0.000000 0.565918
0.000000 0.000000 0.612305
0.139648 0.000000 0.683594
0.582031 0.000000 0.739258
0.727051 0.000000 0.750488
0.770020 0.000000 0.754883
0.000000 0.160034 0.660645
0.000000 0.183838 0.704102
0.073181 0.254150 0.791016
0.638672 0.260498 0.843262
0.801758 0.230225 0.854004
0.840332 0.209473 0.855469
0.000000 0.312744 0.734375
0.000000 0.351562 0.788086
0.000000 0.460693 0.870605
0.677246 0.493652 0.920410
0.857422 0.485107 0.930176
0.905762 0.483887 0.935547
0.000000 0.504395 0.815918
0.000000 0.594238 0.875977
0.000000 0.711426 0.943848
0.696777 0.798340 0.995605
0.920898 0.815430 1.011719
0.983398 0.821289 1.020508
0.000000 0.592773 0.847168
0.000000 0.708496 0.908203
0.000000 0.840820 0.972656
0.707031 0.947754 1.020508
0.946777 0.979492 1.041016
1.021484 0.988770 1.046875
0.000000 0.640625 0.871094
0.000000 0.772461 0.937500
0.000000 0.896484 0.993652
0.752930 1.000000 1.038086
0.965332 1.035156 1.055664
1.036133 1.049805 1.062500
