looks/Cineon_Rec709_to_Filmscan_Fuji.cube
TITLE "Cineon_Rec709_to_Filmscan_Fuji"
LUT_3D_SIZE 6
0.003139 0.002575 0.001719
0.005013 0.003523 0.001595
0.187256 0.010925 0.000741
0.440186 0.000000 0.000000
0.666504 0.083008 0.000000
0.906250 0.435059 0.105286
0.007473 0.018707 0.006233
0.018280 0.023987 0.004875
0.189941 0.047852 0.001875
0.481934 0.044006 0.000000
0.688477 0.143555 0.000000
0.913574 0.450928 0.103149
0.016785 0.172729 0.008759
0.085388 0.183838 0.007156
0.264404 0.208008 0.000800
0.561035 0.239868 0.000000
0.752441 0.282471 0.000000
0.936523 0.505859 0.103455
0.429932 0.479004 0.000000
0.453613 0.482666 0.000000
0.536621 0.498047 0.000000
0.704102 0.507812 0.000000
0.882324 0.536621 0.000000
0.993164 0.663574 0.141357
0.870605 0.750977 0.084656
0.873535 0.751465 0.084106
0.884277 0.752441 0.078003
0.923340 0.757324 0.065002
0.984863 0.768066 0.111389
1.026367 0.811523 0.350586
0.981934 0.919922 0.688965
0.981934 0.919922 0.688477
0.982422 0.919922 0.687988
0.984863 0.920410 0.689453
0.994629 0.922852 0.693359
1.010742 0.932129 0.726074
0.002136 0.008484 0.040344
0.012962 0.009392 0.023972
0.226440 0.011993 0.017807
0.523926 0.000000 0.003887
0.713867 0.082581 0.011368
0.911621 0.446777 0.182739
0.002220 0.055634 0.079163
0.036652 0.057312 0.065308
0.251465 0.069824 0.039673
0.573730 0.031647 0.003664
0.735352 0.144653 0.010872
0.918457 0.462402 0.183472
0.010071 0.227539 0.084351
0.090393 0.236206 0.074585
0.324219 0.257568 0.033356
0.638672 0.260742 0.004051
0.797363 0.298828 0.004097
0.940918 0.518066 0.190674
0.468750 0.540527 0.047302
0.493652 0.543457 0.042297
0.577637 0.553711 0.025894
0.762207 0.560059 0.000000
0.909668 0.569336 0.000000
0.993652 0.674805 0.219727
0.872070 0.773926 0.232300
0.874512 0.773926 0.229492
0.884766 0.774902 0.226807
0.923828 0.778809 0.215210
0.987305 0.787109 0.240234
1.024414 0.820801 0.395020
0.979980 0.923828 0.705566
0.980469 0.923828 0.705566
0.980957 0.923828 0.706055
0.983398 0.923828 0.705566
0.993652 0.926270 0.708984
1.009766 0.935059 0.739746
0.000000 0.009964 0.273926
0.007988 0.010780 0.265137
0.265381 0.005325 0.247192
0.563965 0.000000 0.217285
0.748047 0.107666 0.235474
0.910156 0.475342 0.360596
0.000000 0.082947 0.351318
0.000000 0.084167 0.342285
0.289551 0.079590 0.312500
0.620117 0.042542 0.248047
0.771973 0.182495 0.245239
0.916504 0.491455 0.363525
0.000000 0.324707 0.415771
0.001159 0.330566 0.410156
0.341064 0.347412 0.387695
0.687500 0.328125 0.304199
0.838379 0.361572 0.272461
0.937500 0.548340 0.375488
0.430908 0.652832 0.445068
0.463867 0.654297 0.439941
0.571289 0.663086 0.422119
0.787109 0.662109 0.370361
0.936035 0.652344 0.322510
0.991699 0.717285 0.408447
0.858398 0.836426 0.517090
0.861816 0.836426 0.516113
0.872559 0.836914 0.513184
0.914551 0.839355 0.500000
0.982422 0.839844 0.482666
1.019531 0.853027 0.528320
0.974121 0.937500 0.769043
0.974121 0.937500 0.769043
0.975098 0.937988 0.769043
0.977539 0.938477 0.769531
0.987305 0.938965 0.768555
1.003906 0.946289 0.789551
0.076904 0.000000 0.429443
0.165283 0.000000 0.434082
0.332764 0.000000 0.448730
0.522461 0.000000 0.448730
0.736816 0.052643 0.572754
0.901367 0.539062 0.685547
0.044830 0.006580 0.485352
0.125977 0.001449 0.493896
0.337402 0.000000 0.515137
0.604492 0.005451 0.548340
0.764160 0.185303 0.601074
0.906738 0.558105 0.691406
0.000000 0.371094 0.692383
0.022797 0.373779 0.697754
0.346191 0.378662 0.703613
0.679688 0.364258 0.687500
0.832520 0.418457 0.668457
0.925781 0.623535 0.708496
0.329834 0.745605 0.803711
0.382812 0.748047 0.803223
0.505371 0.759766 0.804688
0.745605 0.760742 0.789551
0.914551 0.750488 0.750977
0.969727 0.795898 0.745117
0.806641 0.912109 0.844727
0.810059 0.912109 0.843750
0.824219 0.914062 0.843262
0.874512 0.919922 0.839355
0.948242 0.918457 0.819824
0.992188 0.915527 0.798340
0.957520 0.964355 0.893066
0.958008 0.964355 0.893066
0.958496 0.964355 0.892578
0.960938 0.964844 0.892090
0.971680 0.965820 0.890137
0.989258 0.967773 0.892578
0.576172 0.000000 0.549805
0.579102 0.000000 0.550781
0.587891 0.000000 0.553711
0.607910 0.000000 0.561035
0.615234 0.000000 0.557129
0.867188 0.498779 0.840332
0.552734 0.000000 0.541016
0.556641 0.000000 0.541992
0.568359 0.000000 0.544434
0.590332 0.000000 0.550293
0.599609 0.000000 0.547852
0.874023 0.525391 0.848145
0.504395 0.099365 0.695312
0.517578 0.097778 0.696777
0.564941 0.090027 0.702148
0.670410 0.107117 0.721680
0.783203 0.291748 0.781250
0.896973 0.613770 0.875000
0.562988 0.770508 0.908203
0.578125 0.771484 0.909180
0.631836 0.772949 0.911621
0.768066 0.772949 0.916992
0.892578 0.770020 0.917480
0.947266 0.825195 0.923340
0.801758 0.939453 0.957520
0.805176 0.939453 0.958008
0.816406 0.941406 0.958984
0.860352 0.947754 0.961426
0.925781 0.949219 0.960449
0.970703 0.950195 0.953613
0.943848 0.980469 0.971680
0.944336 0.980469 0.971680
0.944824 0.980469 0.971680
0.947754 0.980469 0.971680
0.958496 0.981934 0.971191
0.978027 0.983887 0.970703
0.628418 0.000000 0.587402
0.628418 0.000000 0.587402
0.628418 0.000000 0.587402
0.628418 0.000000 0.587402
0.628418 0.000000 0.587402
0.628418 0.000000 0.587402
0.628418 0.000000 0.587402
0.628418 0.000000 0.587402
0.628418 0.000000 0.587402
0.628418 0.000000 0.587402
0.628418 0.000000 0.587402
0.628418 0.000000 0.587402
0.628418 0.000000 0.587402
0.628418 0.000000 0.587402
0.628418 0.000000 0.587402
0.628418 0.000000 0.587402
0.628418 0.000000 0.587402
0.627441 0.000000 0.584961
0.790039 0.456543 0.858887
0.791992 0.457031 0.859375
0.797852 0.460693 0.860840
0.814941 0.475098 0.866211
0.852051 0.539062 0.887207
0.918457 0.710449 0.931641
0.884766 0.948242 0.980957
0.886230 0.948730 0.980957
0.890137 0.948730 0.981445
0.908203 0.951660 0.982422
0.937500 0.953125 0.983887
0.968750 0.959473 0.985352
0.953613 0.985352 0.990723
0.953613 0.985352 0.990723
0.954102 0.985352 0.990723
0.955566 0.985352 0.990723
0.961426 0.985840 0.990723
0.980469 0.989746 0.992676
