looks/Cineon_Rec709_to_Filmscan_Kodak.cube
TITLE "Cineon_Rec709_to_Filmscan_Kodak"
LUT_3D_SIZE 6
0.003654 0.004368 0.004742
0.025314 0.008110 0.004562
0.269043 0.016342 0.001348
0.572266 0.000000 0.000008
0.747070 0.093323 0.000000
0.937500 0.431396 0.032196
0.007336 0.030472 0.009354
0.047119 0.043030 0.007427
0.271729 0.071472 0.001515
0.607910 0.053986 0.000000
0.771973 0.165771 0.000000
0.944336 0.446533 0.032257
0.066223 0.200195 0.008530
0.136230 0.215088 0.005817
0.355469 0.257568 0.000269
0.696777 0.287354 0.000000
0.843262 0.335693 0.000000
0.966797 0.505859 0.036316
0.510742 0.564941 0.000000
0.535645 0.569336 0.000000
0.621582 0.588867 0.000000
0.812500 0.615723 0.000000
0.961426 0.632324 0.000000
1.027344 0.682129 0.043030
0.909180 0.815918 0.000000
0.911133 0.815918 0.000000
0.921387 0.817871 0.000000
0.960449 0.824707 0.000000
1.033203 0.837891 0.007042
1.072266 0.853516 0.121277
1.019531 0.952637 0.559082
1.019531 0.952637 0.559082
1.020508 0.952637 0.559082
1.024414 0.953613 0.558594
1.038086 0.955078 0.558105
1.064453 0.960449 0.580566
0.005951 0.009445 0.053589
0.041412 0.013351 0.048218
0.282715 0.021057 0.033142
0.598633 0.000000 0.000190
0.769531 0.103516 0.004082
0.941406 0.440674 0.105225
0.005642 0.054932 0.070923
0.055298 0.064819 0.063416
0.291260 0.091797 0.040771
0.639160 0.076721 0.000000
0.794922 0.178345 0.004269
0.947754 0.456055 0.104858
0.035095 0.233521 0.074036
0.128784 0.247559 0.063782
0.367920 0.290283 0.018997
0.715820 0.320068 0.000000
0.865723 0.354492 0.000355
0.969727 0.516602 0.104187
0.514648 0.594727 0.006596
0.541504 0.600098 0.004467
0.629883 0.619141 0.000118
0.827148 0.643066 0.000000
0.972168 0.648438 0.000000
1.028320 0.689941 0.085571
0.902344 0.828125 0.078491
0.905762 0.828613 0.077454
0.916504 0.830566 0.075256
0.956543 0.836914 0.066345
1.029297 0.847656 0.058868
1.070312 0.859375 0.212036
1.016602 0.955566 0.580566
1.016602 0.955566 0.580566
1.017578 0.955566 0.580566
1.021484 0.956543 0.580078
1.035156 0.958008 0.579102
1.062500 0.962891 0.598145
0.000000 0.007549 0.305420
0.046875 0.010429 0.297852
0.323730 0.012192 0.278809
0.617676 0.000000 0.239746
0.787598 0.134033 0.225098
0.946777 0.474854 0.293457
0.000024 0.071716 0.344238
0.007530 0.081482 0.335938
0.314697 0.095520 0.317871
0.657227 0.091370 0.268066
0.812500 0.209839 0.234741
0.953125 0.492432 0.295166
0.000610 0.299072 0.397461
0.003889 0.309570 0.390381
0.353027 0.345459 0.369141
0.716309 0.364502 0.306152
0.878418 0.396973 0.256592
0.974121 0.552734 0.301514
0.458496 0.663574 0.400391
0.489746 0.666992 0.397217
0.594238 0.687012 0.384033
0.812988 0.703613 0.335449
0.971680 0.699219 0.279297
1.026367 0.724609 0.312744
0.872559 0.869629 0.415527
0.875488 0.870117 0.415039
0.887695 0.871582 0.412598
0.931641 0.875977 0.400879
1.014648 0.884277 0.371338
1.062500 0.880859 0.382568
1.006836 0.967285 0.660645
1.006836 0.967285 0.660156
1.007812 0.966797 0.659668
1.011719 0.967773 0.658691
1.026367 0.969238 0.654785
1.054688 0.972168 0.660645
0.166260 0.000000 0.502930
0.251221 0.000000 0.508301
0.433105 0.000000 0.518555
0.607910 0.000000 0.505371
0.781738 0.105835 0.576660
0.942871 0.519531 0.621582
0.121460 0.017899 0.541016
0.191772 0.015495 0.550293
0.404053 0.000494 0.567383
0.653320 0.018158 0.588867
0.806641 0.214111 0.602539
0.948730 0.539062 0.626465
0.000000 0.353027 0.708496
0.064026 0.360107 0.712402
0.374512 0.380859 0.718750
0.708496 0.395752 0.708496
0.867676 0.446289 0.664551
0.966309 0.603027 0.639160
0.382080 0.734863 0.795410
0.417480 0.739746 0.795898
0.530273 0.756836 0.797363
0.760254 0.771484 0.777344
0.938965 0.768555 0.725586
1.005859 0.775391 0.667480
0.816406 0.926270 0.793945
0.820312 0.926758 0.793945
0.833496 0.928223 0.791504
0.882812 0.933105 0.781738
0.970215 0.936523 0.752441
1.034180 0.926270 0.703613
0.981445 0.989258 0.827148
0.981934 0.989258 0.826660
0.982910 0.989746 0.826172
0.986816 0.989746 0.825195
1.002930 0.991211 0.818359
1.037109 0.991699 0.803711
0.701660 0.000000 0.683594
0.703613 0.000000 0.682129
0.708984 0.000000 0.677246
0.716797 0.000000 0.659668
0.706055 0.000000 0.616211
0.915527 0.493164 0.843262
0.680664 0.000000 0.676270
0.683105 0.000000 0.675781
0.689453 0.000000 0.669922
0.700195 0.000000 0.651367
0.692871 0.000000 0.612305
0.921387 0.518555 0.850586
0.545898 0.227661 0.787598
0.561523 0.226685 0.788574
0.612793 0.224121 0.791504
0.722656 0.230713 0.800781
0.833008 0.344971 0.830566
0.940918 0.602051 0.874512
0.556152 0.764160 0.943848
0.570312 0.765625 0.944336
0.623535 0.770020 0.946777
0.768555 0.780762 0.949219
0.911621 0.782715 0.940430
0.980469 0.797852 0.914551
0.791992 0.950684 0.975098
0.795410 0.951172 0.975586
0.807129 0.952637 0.975586
0.852051 0.957520 0.975098
0.936523 0.963867 0.968750
1.005859 0.958008 0.943359
0.955566 1.008789 0.979980
0.955566 1.008789 0.979980
0.956543 1.008789 0.979980
0.960938 1.008789 0.979492
0.977539 1.010742 0.976562
1.014648 1.013672 0.968262
0.770020 0.000000 0.754883
0.770020 0.000000 0.754883
0.770020 0.000000 0.754883
0.770020 0.000000 0.754883
0.770020 0.000000 0.754883
0.770020 0.000000 0.754883
0.770020 0.000000 0.754883
0.770020 0.000000 0.754883
0.770020 0.000000 0.754883
0.770020 0.000000 0.754883
0.770020 0.000000 0.754883
0.770020 0.000000 0.754883
0.770020 0.000000 0.754883
0.770020 0.000000 0.754883
0.770020 0.000000 0.754883
0.770020 0.000000 0.754883
0.770020 0.000000 0.754883
0.762695 0.000000 0.738770
0.825195 0.571777 0.949707
0.826660 0.571777 0.949707
0.833008 0.573730 0.950684
0.851074 0.581055 0.953613
0.895508 0.613770 0.963379
0.961426 0.729004 0.986328
0.863281 0.952148 1.027344
0.864746 0.952148 1.027344
0.870605 0.952637 1.027344
0.895020 0.956055 1.028320
0.939453 0.958984 1.030273
0.997070 0.963867 1.026367
0.958984 1.017578 1.041016
0.958984 1.017578 1.041016
0.959961 1.018555 1.041016
0.962891 1.018555 1.041016
0.976074 1.020508 1.041016
1.009766 1.024414 1.039062
