looks/Cineon_Rec709_to_Filmscan_LogPFE.cube
TITLE "Cineon_Rec709_to_Filmscan_LogPFE"
LUT_3D_SIZE 16
0.000974 0.000974 0.000972
0.046356 -0.000750 -0.007828
0.096680 -0.002659 -0.017578
0.167603 -0.005035 -0.031219
0.248047 -0.006416 -0.046204
0.328613 -0.005058 -0.060181
0.412109 0.000743 -0.073059
0.499756 0.014099 -0.083862
0.578613 0.041229 -0.088074
0.649414 0.083557 -0.081726
0.716309 0.136719 -0.057770
0.779785 0.192749 -0.016190
0.842285 0.253662 0.036652
0.901855 0.319824 0.092407
0.961914 0.386719 0.154053
1.021484 0.450684 0.222900
0.009415 0.059387 -0.004692
0.054810 0.057678 -0.013489
0.105103 0.055756 -0.023239
0.168823 0.053864 -0.035400
0.241821 0.052979 -0.048859
0.318115 0.054626 -0.061981
0.399170 0.060608 -0.074341
0.485840 0.071655 -0.084717
0.564941 0.092529 -0.088379
0.638672 0.123657 -0.081543
0.708984 0.163086 -0.057007
0.774902 0.210083 -0.015526
0.838867 0.265137 0.037018
0.899902 0.327148 0.092651
0.960449 0.390869 0.154297
1.021484 0.453125 0.223022
0.020554 0.118042 -0.010757
0.065979 0.116089 -0.019547
0.110718 0.114258 -0.028122
0.169922 0.112244 -0.039307
0.236450 0.110901 -0.051361
0.308838 0.111267 -0.063538
0.388184 0.114258 -0.075256
0.474365 0.121338 -0.085144
0.554199 0.135010 -0.088257
0.629883 0.156372 -0.080933
0.702148 0.187134 -0.056000
0.770508 0.227051 -0.014725
0.835938 0.276855 0.037506
0.897461 0.335205 0.092957
0.959473 0.395264 0.154419
1.020508 0.455566 0.223145
0.047913 0.182251 -0.019547
0.088379 0.180176 -0.027283
0.127808 0.178345 -0.034729
0.176758 0.176147 -0.043762
0.235107 0.174072 -0.053986
0.302246 0.172729 -0.064880
0.378662 0.172729 -0.075684
0.463379 0.175171 -0.084839
0.542969 0.182495 -0.087280
0.619629 0.196411 -0.079407
0.693848 0.218994 -0.054077
0.763672 0.250977 -0.013329
0.831055 0.294189 0.038300
0.894043 0.347168 0.093384
0.957520 0.402100 0.154785
1.019531 0.459717 0.223389
0.096252 0.244263 -0.030334
0.127563 0.242554 -0.036163
0.156128 0.241089 -0.041351
0.193604 0.239258 -0.048004
0.242065 0.237183 -0.056152
0.301758 0.235107 -0.065430
0.372803 0.233521 -0.074951
0.453613 0.233398 -0.083008
0.531250 0.236694 -0.084656
0.607910 0.244995 -0.076233
0.683105 0.260254 -0.050415
0.754883 0.284668 -0.010788
0.823730 0.319824 0.039734
0.889648 0.364014 0.094299
0.954590 0.412842 0.155396
1.017578 0.466553 0.223755
0.154297 0.307861 -0.039612
0.173950 0.306885 -0.043030
0.193237 0.305908 -0.046326
0.220581 0.304443 -0.050873
0.258789 0.302734 -0.056885
0.309326 0.300537 -0.064209
0.372803 0.298340 -0.072083
0.446533 0.296875 -0.078552
0.520508 0.297852 -0.079102
0.595215 0.302002 -0.069946
0.670410 0.311768 -0.044647
0.743164 0.328857 -0.006294
0.814453 0.355225 0.042358
0.883301 0.387939 0.095947
0.950195 0.429199 0.156494
1.014648 0.477051 0.224487
0.212891 0.376221 -0.043182
0.225464 0.375488 -0.045135
0.238281 0.375000 -0.047119
0.257568 0.374023 -0.049988
0.286133 0.372559 -0.054016
0.326660 0.370605 -0.059204
0.380615 0.368408 -0.065063
0.443848 0.366455 -0.069275
0.511719 0.365723 -0.068420
0.583008 0.366943 -0.058228
0.656738 0.371338 -0.035919
0.730469 0.380859 0.001516
0.803711 0.396729 0.047180
0.874512 0.420166 0.098938
0.943359 0.452393 0.158325
1.009766 0.492920 0.225708
0.277100 0.440674 -0.036957
0.285156 0.440430 -0.037994
0.293701 0.439941 -0.039093
0.307129 0.439209 -0.040710
0.327637 0.437988 -0.043060
0.358154 0.436523 -0.046234
0.399902 0.434570 -0.049530
0.450195 0.432617 -0.050995
0.509277 0.430908 -0.048187
0.575195 0.430176 -0.037262
0.645508 0.431641 -0.018143
0.717773 0.436035 0.014412
0.791504 0.445312 0.055511
0.863770 0.460693 0.104248
0.935059 0.483887 0.161743
1.003906 0.515625 0.227905
0.348389 0.502441 -0.014046
0.353516 0.502441 -0.014503
0.359131 0.501953 -0.014992
0.367676 0.501465 -0.015625
0.380371 0.500977 -0.016403
0.399902 0.500000 -0.017273
0.427979 0.498779 -0.017776
0.466553 0.497070 -0.018387
0.515137 0.495117 -0.016815
0.572754 0.493896 -0.008179
0.637695 0.493408 0.008667
0.707031 0.494629 0.034149
0.779297 0.499268 0.069153
0.852051 0.508301 0.113342
0.924805 0.523438 0.167603
0.995605 0.546875 0.231689
0.415771 0.563965 0.026947
0.418701 0.563965 0.026825
0.421631 0.563965 0.026703
0.426514 0.563477 0.026520
0.434326 0.562988 0.026260
0.446777 0.562500 0.025970
0.465576 0.561523 0.025818
0.492920 0.560059 0.026276
0.530273 0.558594 0.028305
0.578125 0.557129 0.033508
0.635254 0.555664 0.044128
0.699219 0.555176 0.062256
0.769043 0.556641 0.090027
0.840332 0.561035 0.128052
0.913574 0.570312 0.177612
0.985840 0.585938 0.238159
0.480225 0.625977 0.079529
0.481689 0.625488 0.079468
0.483643 0.625488 0.079407
0.486328 0.625488 0.079346
0.491211 0.625000 0.079224
0.498779 0.625000 0.079041
0.510742 0.624023 0.078918
0.529297 0.623535 0.078979
0.556152 0.622070 0.079773
0.593262 0.620605 0.082275
0.640625 0.619141 0.088257
0.696777 0.617676 0.100037
0.761230 0.617188 0.120361
0.829590 0.618652 0.151001
0.901367 0.623535 0.193970
0.974121 0.632812 0.248291
0.542480 0.687012 0.135498
0.543457 0.687012 0.135498
0.544434 0.687012 0.135498
0.546387 0.686523 0.135376
0.549316 0.686523 0.135376
0.553711 0.686523 0.135254
0.561523 0.686035 0.135254
0.573242 0.685547 0.135254
0.591797 0.684570 0.135620
0.618164 0.683105 0.136841
0.655273 0.681641 0.140137
0.702148 0.680176 0.147339
0.758301 0.678711 0.161011
0.821777 0.678711 0.184082
0.890625 0.680176 0.218994
0.962402 0.685059 0.263916
0.604980 0.748535 0.197510
0.605469 0.748535 0.197510
0.605957 0.748535 0.197510
0.606934 0.748535 0.197510
0.608398 0.748047 0.197510
0.611328 0.748047 0.197510
0.616211 0.748047 0.197510
0.623535 0.747559 0.197510
0.635254 0.747070 0.197876
0.653320 0.746094 0.198486
0.680176 0.745117 0.200317
0.716309 0.743652 0.204590
0.763184 0.741699 0.213257
0.819336 0.740723 0.229126
0.882812 0.740723 0.254639
0.951660 0.742188 0.287354
0.666016 0.809570 0.266113
0.666016 0.809570 0.266113
0.666504 0.809570 0.266113
0.666992 0.809570 0.266113
0.667969 0.809570 0.266113
0.669922 0.809570 0.266113
0.672363 0.809570 0.266113
0.677246 0.809082 0.266357
0.684570 0.808594 0.266602
0.696289 0.808105 0.267090
0.714844 0.807129 0.268066
0.741211 0.806152 0.270508
0.777344 0.804688 0.274658
0.824219 0.803223 0.282715
0.880371 0.801758 0.297119
0.944336 0.801758 0.319580
0.727051 0.871094 0.333252
0.727539 0.871094 0.333252
0.727539 0.871094 0.333252
0.728027 0.871094 0.333252
0.728516 0.871094 0.333252
0.729492 0.871094 0.333252
0.730957 0.871094 0.333252
0.733887 0.871094 0.333252
0.738770 0.870605 0.333252
0.746094 0.870117 0.333496
0.757812 0.869629 0.333740
0.775879 0.868652 0.334229
0.802246 0.867676 0.335938
0.838379 0.866211 0.339600
0.885254 0.864746 0.347412
0.941406 0.863281 0.361328
0.788574 0.932617 0.397217
0.788574 0.932617 0.397217
0.788574 0.932617 0.397217
0.789062 0.932617 0.397217
0.789062 0.932617 0.397217
0.790039 0.932617 0.397217
0.791016 0.932617 0.397217
0.792480 0.932617 0.397217
0.795410 0.932129 0.397217
0.799805 0.932129 0.397217
0.807129 0.931641 0.397217
0.818848 0.931152 0.397461
0.836914 0.930176 0.397949
0.863281 0.929199 0.399658
0.899902 0.927734 0.403076
0.946777 0.925781 0.410645
0.003847 0.000977 0.072144
0.049225 -0.000747 0.063293
0.099548 -0.002657 0.053589
0.169312 -0.004951 0.040192
0.248169 -0.006226 0.025543
0.327881 -0.004807 0.011719
0.410889 0.001027 -0.001052
0.498291 0.014404 -0.011810
0.576660 0.041565 -0.015930
0.647461 0.084167 -0.012794
0.714355 0.137695 0.002621
0.778320 0.193604 0.030090
0.841309 0.254150 0.066956
0.901367 0.320068 0.112305
0.961426 0.387207 0.167114
1.021484 0.450928 0.231445
0.012291 0.059387 0.066467
0.057678 0.057678 0.057678
0.107727 0.055786 0.047974
0.170044 0.053986 0.036072
0.241821 0.053192 0.022903
0.317139 0.054871 0.009949
0.397705 0.060883 -0.002302
0.483887 0.072449 -0.012665
0.562988 0.093323 -0.016281
0.636719 0.124695 -0.013023
0.707031 0.164185 0.002916
0.773438 0.211060 0.030396
0.837891 0.265625 0.067200
0.898926 0.327637 0.112488
0.959961 0.391113 0.167236
1.020508 0.453369 0.231567
0.023315 0.118408 0.060394
0.068787 0.116455 0.051605
0.112610 0.114685 0.043182
0.170654 0.112732 0.032227
0.236084 0.111572 0.020416
0.307861 0.112000 0.008362
0.386475 0.115112 -0.003241
0.472412 0.122375 -0.013100
0.552246 0.136230 -0.016159
0.627930 0.157715 -0.012817
0.700195 0.188354 0.003418
0.769043 0.228027 0.030807
0.834473 0.277344 0.067505
0.896973 0.335449 0.112732
0.958984 0.395508 0.167480
1.020508 0.455811 0.231689
0.050476 0.183350 0.051575
0.090088 0.181274 0.044006
0.128784 0.179443 0.036713
0.176880 0.177368 0.027893
0.234375 0.175415 0.017807
0.301025 0.174072 0.007000
0.376709 0.174072 -0.003687
0.461182 0.176636 -0.012779
0.540527 0.184082 -0.015175
0.617676 0.197876 -0.011940
0.691895 0.220215 0.004471
0.762207 0.252197 0.031586
0.830078 0.294678 0.068054
0.893555 0.347656 0.113098
0.957031 0.402344 0.167725
1.018555 0.459961 0.231934
0.097473 0.245728 0.041046
0.128052 0.244019 0.035339
0.156006 0.242554 0.030258
0.192993 0.240845 0.023743
0.240967 0.238770 0.015671
0.300293 0.236694 0.006489
0.371094 0.235229 -0.002958
0.451416 0.235229 -0.010956
0.528809 0.238525 -0.012589
0.605957 0.246582 -0.009697
0.681152 0.261719 0.006603
0.753418 0.285645 0.033112
0.822754 0.320312 0.069092
0.889160 0.364502 0.113831
0.954102 0.413086 0.168213
1.017578 0.466553 0.232300
0.153931 0.309570 0.032074
0.173218 0.308594 0.028687
0.192383 0.307617 0.025436
0.219482 0.306396 0.020950
0.257324 0.304443 0.014999
0.307617 0.302490 0.007748
0.370850 0.300293 -0.000071
0.444336 0.298828 -0.006481
0.518066 0.299561 -0.009186
0.593262 0.303711 -0.005005
0.668457 0.313232 0.010635
0.741699 0.329834 0.036011
0.813477 0.355713 0.070984
0.882324 0.388428 0.115173
0.949707 0.429443 0.169189
1.014648 0.477051 0.232910
0.211670 0.378174 0.028671
0.223999 0.377441 0.026733
0.236816 0.376953 0.024765
0.255859 0.375977 0.021927
0.284424 0.374512 0.017929
0.324707 0.372559 0.012764
0.378418 0.370361 0.006882
0.441406 0.368652 0.000528
0.509277 0.367676 -0.001745
0.581055 0.368652 0.003613
0.654785 0.373047 0.017838
0.729004 0.381836 0.041351
0.802734 0.397461 0.074768
0.873535 0.420654 0.117737
0.943359 0.452881 0.170898
1.009766 0.493164 0.234009
0.275391 0.442871 0.031586
0.283447 0.442383 0.030426
0.291992 0.441895 0.029205
0.305176 0.441162 0.027359
0.325684 0.439941 0.024643
0.356201 0.438477 0.020920
0.397949 0.436523 0.016739
0.447998 0.434570 0.013756
0.507324 0.432617 0.013458
0.572754 0.431885 0.018112
0.644043 0.432861 0.030029
0.716797 0.437012 0.050720
0.790527 0.446045 0.081482
0.863281 0.461182 0.122375
0.934570 0.484131 0.173950
1.003906 0.515625 0.236084
0.346680 0.504395 0.045807
0.351807 0.504395 0.045197
0.357422 0.503906 0.044525
0.365967 0.503418 0.043640
0.378662 0.502930 0.042358
0.398193 0.501953 0.040649
0.426270 0.500488 0.038605
0.464600 0.498779 0.036865
0.513184 0.496826 0.036652
0.570801 0.495117 0.039825
0.636230 0.494629 0.048859
0.706055 0.495605 0.065857
0.778809 0.500000 0.092834
0.851562 0.508789 0.130371
0.924316 0.523926 0.179443
0.995605 0.546875 0.239624
0.414307 0.565430 0.072571
0.417236 0.565430 0.072327
0.420166 0.564941 0.072021
0.425049 0.564941 0.071655
0.432861 0.564453 0.071045
0.445312 0.563965 0.070190
0.464111 0.562988 0.069031
0.491455 0.561523 0.067993
0.528809 0.560059 0.067688
0.576660 0.558105 0.069519
0.634277 0.556641 0.075684
0.698242 0.556152 0.088501
0.768066 0.557129 0.110718
0.839844 0.561523 0.143677
0.913086 0.570801 0.188721
0.985352 0.585938 0.245361
0.479248 0.626953 0.109375
0.480713 0.626465 0.109314
0.482666 0.626465 0.109192
0.485352 0.626465 0.109009
0.490234 0.625977 0.108704
0.497803 0.625977 0.108337
0.509766 0.625000 0.107788
0.528320 0.624023 0.107239
0.555176 0.623047 0.106995
0.592285 0.621582 0.107971
0.639648 0.619629 0.111755
0.696289 0.618164 0.120667
0.760254 0.617676 0.137573
0.829102 0.619141 0.164673
0.900879 0.623535 0.204102
0.974121 0.632812 0.254639
0.541992 0.687500 0.155029
0.542969 0.687500 0.155029
0.543945 0.687500 0.154907
0.545410 0.687500 0.154907
0.548340 0.687012 0.154785
0.553223 0.687012 0.154663
0.560547 0.686523 0.154419
0.572754 0.686035 0.154175
0.590820 0.685059 0.154175
0.617676 0.683594 0.154663
0.654297 0.682129 0.156982
0.701172 0.680664 0.162720
0.757812 0.679199 0.174561
0.821777 0.679199 0.195312
0.890625 0.680664 0.227905
0.962402 0.685059 0.269775
0.604492 0.749023 0.210327
0.604980 0.749023 0.210327
0.605469 0.749023 0.210327
0.606445 0.748535 0.210327
0.608398 0.748535 0.210205
0.610840 0.748535 0.210205
0.615723 0.748047 0.210205
0.623047 0.748047 0.210083
0.634766 0.747070 0.210205
0.653320 0.746582 0.210693
0.679688 0.745117 0.212036
0.715820 0.743652 0.215576
0.763184 0.742188 0.223389
0.818848 0.741211 0.238037
0.882812 0.740723 0.261230
0.951660 0.742188 0.292236
0.665527 0.810059 0.274414
0.666016 0.810059 0.274414
0.666016 0.810059 0.274414
0.666992 0.810059 0.274414
0.667969 0.810059 0.274414
0.669434 0.809570 0.274414
0.672363 0.809570 0.274414
0.676758 0.809570 0.274658
0.684570 0.809082 0.274658
0.696289 0.808594 0.275146
0.714355 0.807617 0.276123
0.740723 0.806152 0.277588
0.777344 0.804688 0.281250
0.823730 0.803223 0.288574
0.880371 0.802246 0.302002
0.943848 0.801758 0.323486
0.727051 0.871582 0.337891
0.727051 0.871582 0.337891
0.727539 0.871582 0.337891
0.727539 0.871094 0.337891
0.728516 0.871094 0.337891
0.729492 0.871094 0.337891
0.730957 0.871094 0.337891
0.733887 0.871094 0.337891
0.738281 0.870605 0.337891
0.745605 0.870605 0.337891
0.757812 0.869629 0.337891
0.775879 0.869141 0.338623
0.802246 0.867676 0.340088
0.838379 0.866211 0.343506
0.885254 0.864746 0.350830
0.941406 0.863281 0.364014
0.788574 0.932617 0.399902
0.788574 0.932617 0.399902
0.788574 0.932617 0.399902
0.789062 0.932617 0.399902
0.789062 0.932617 0.399902
0.790039 0.932617 0.399902
0.791016 0.932617 0.399902
0.792480 0.932617 0.399902
0.795410 0.932129 0.399902
0.799805 0.932129 0.399902
0.807129 0.931641 0.399902
0.818848 0.931152 0.399902
0.836914 0.930176 0.400391
0.863281 0.929199 0.401855
0.899902 0.927734 0.405518
0.946289 0.926270 0.412598
0.007282 0.000777 0.144531
0.052673 -0.000950 0.135620
0.102966 -0.002863 0.125732
0.171265 -0.005066 0.112549
0.248413 -0.006237 0.097900
0.327148 -0.004776 0.083679
0.409668 0.001064 0.069946
0.496826 0.014404 0.057312
0.575195 0.041473 0.049316
0.645996 0.084351 0.047363
0.712402 0.138184 0.053253
0.777344 0.194214 0.068726
0.840332 0.254639 0.094971
0.900391 0.320557 0.131958
0.960938 0.387451 0.180542
1.021484 0.450928 0.240479
0.015732 0.059174 0.138550
0.061127 0.057465 0.129639
0.109741 0.055664 0.120178
0.171631 0.053894 0.108215
0.241943 0.053162 0.094971
0.316650 0.054901 0.081543
0.396484 0.060913 0.068359
0.482422 0.073120 0.056030
0.561523 0.093689 0.048431
0.634766 0.125366 0.046875
0.705078 0.164917 0.053162
0.772461 0.211670 0.068848
0.836914 0.266113 0.095154
0.898438 0.327881 0.132080
0.959473 0.391602 0.180664
1.020508 0.453369 0.240601
0.026672 0.118591 0.132080
0.072083 0.116638 0.123291
0.114929 0.114929 0.114929
0.171631 0.113098 0.104065
0.235962 0.112000 0.092102
0.306885 0.112488 0.079590
0.385254 0.115723 0.066956
0.470703 0.123108 0.055115
0.550293 0.136963 0.047943
0.625977 0.158691 0.046722
0.698730 0.189209 0.053253
0.767578 0.228760 0.068970
0.833984 0.277832 0.095337
0.896484 0.335938 0.132324
0.958496 0.395996 0.180908
1.019531 0.456055 0.240723
0.053650 0.184204 0.122742
0.092285 0.182251 0.115295
0.130127 0.180420 0.107971
0.177124 0.178467 0.099182
0.233887 0.176514 0.088867
0.299805 0.175171 0.077576
0.375244 0.175293 0.065796
0.459473 0.177856 0.054596
0.538574 0.185303 0.047943
0.615723 0.199097 0.046997
0.690430 0.221313 0.053619
0.761230 0.252930 0.069397
0.829102 0.295410 0.095642
0.893066 0.347900 0.132568
0.956543 0.402832 0.181152
1.018555 0.460205 0.240845
0.098999 0.247070 0.111450
0.128906 0.245483 0.105774
0.156372 0.244019 0.100647
0.192749 0.242310 0.093994
0.240234 0.240234 0.085693
0.299072 0.238281 0.075867
0.369385 0.236816 0.065247
0.449463 0.236694 0.054962
0.526855 0.239868 0.048828
0.604004 0.247925 0.048065
0.679688 0.262695 0.054657
0.751953 0.286377 0.070312
0.821777 0.321045 0.096375
0.888184 0.364746 0.133179
0.953613 0.413574 0.181641
1.016602 0.466797 0.241211
0.153809 0.311279 0.100769
0.172974 0.310303 0.097290
0.191772 0.309326 0.093933
0.218628 0.307861 0.089294
0.256104 0.306152 0.082886
0.306152 0.304199 0.074890
0.369141 0.302002 0.065735
0.442383 0.300537 0.056763
0.516113 0.301270 0.051239
0.591309 0.305176 0.050598
0.666992 0.314453 0.056976
0.740723 0.330811 0.072144
0.812500 0.356445 0.097778
0.881836 0.388916 0.134277
0.949219 0.429688 0.182495
1.013672 0.477295 0.241821
0.210815 0.379883 0.093567
0.223022 0.379150 0.091431
0.235840 0.378662 0.089294
0.254883 0.377686 0.086182
0.282959 0.376221 0.081665
0.323242 0.374268 0.075562
0.376709 0.372070 0.068054
0.439697 0.370117 0.060913
0.507324 0.369385 0.056152
0.579102 0.370117 0.055603
0.653320 0.374023 0.061493
0.727539 0.382812 0.075928
0.801758 0.398193 0.100769
0.873047 0.421143 0.136475
0.942871 0.453125 0.183960
1.009766 0.493164 0.242920
0.274170 0.444580 0.091431
0.282227 0.444092 0.090149
0.290771 0.443604 0.088867
0.303711 0.442871 0.086853
0.324219 0.441650 0.083801
0.354736 0.440186 0.079468
0.396240 0.438232 0.074158
0.446289 0.436035 0.069092
0.505371 0.434326 0.065247
0.571289 0.433350 0.064758
0.642578 0.434082 0.069885
0.715332 0.437988 0.082947
0.789551 0.446777 0.106201
0.862793 0.461670 0.140503
0.934082 0.484619 0.186768
1.002930 0.516113 0.244629
0.345459 0.505859 0.095947
0.350586 0.505859 0.095215
0.356201 0.505371 0.094421
0.364502 0.504883 0.093323
0.377197 0.504395 0.091675
0.396729 0.502930 0.089294
0.424805 0.501953 0.086243
0.463135 0.500000 0.082825
0.511719 0.498047 0.080078
0.569336 0.496338 0.079529
0.635254 0.495605 0.083679
0.705078 0.496582 0.094849
0.777832 0.500488 0.115723
0.851074 0.509277 0.147583
0.923828 0.523926 0.191772
0.995117 0.546875 0.247559
0.413330 0.566406 0.110779
0.416016 0.566406 0.110474
0.418945 0.566406 0.110107
0.423828 0.565918 0.109558
0.431641 0.565430 0.108765
0.444092 0.564941 0.107544
0.462891 0.563965 0.105835
0.490479 0.562500 0.103821
0.527832 0.561035 0.101990
0.575684 0.559082 0.101562
0.633301 0.557617 0.104614
0.697754 0.556641 0.113525
0.767090 0.558105 0.131104
0.839355 0.562012 0.159546
0.912598 0.570801 0.200439
0.985352 0.585938 0.252686
0.478271 0.627441 0.136963
0.479980 0.627441 0.136841
0.481689 0.627441 0.136719
0.484619 0.627441 0.136475
0.489258 0.626953 0.136108
0.496826 0.626465 0.135498
0.508789 0.625977 0.134644
0.527344 0.625000 0.133667
0.554199 0.623535 0.132690
0.591309 0.622070 0.132446
0.638672 0.620117 0.134521
0.695312 0.618652 0.140991
0.759766 0.618164 0.154907
0.828613 0.619629 0.178711
0.900879 0.624023 0.214844
0.973633 0.632812 0.261719
0.541504 0.687988 0.174438
0.542480 0.687988 0.174438
0.543457 0.687988 0.174316
0.544922 0.687988 0.174194
0.547852 0.687988 0.174072
0.552734 0.687500 0.173828
0.560059 0.687012 0.173462
0.572266 0.686523 0.173096
0.590332 0.685547 0.172607
0.617188 0.684570 0.172607
0.653809 0.682617 0.174072
0.700684 0.681152 0.178467
0.757324 0.679688 0.188599
0.821289 0.679199 0.207153
0.890137 0.680664 0.237305
0.961914 0.685547 0.275879
0.604004 0.749023 0.223633
0.604492 0.749023 0.223511
0.604980 0.749023 0.223511
0.605957 0.749023 0.223511
0.607910 0.749023 0.223511
0.610352 0.749023 0.223389
0.615234 0.748535 0.223267
0.622559 0.748535 0.223145
0.634766 0.747559 0.223022
0.652832 0.747070 0.223267
0.679199 0.745605 0.224243
0.715820 0.744141 0.227173
0.762695 0.742676 0.234009
0.818848 0.741211 0.247437
0.882324 0.740723 0.268311
0.951660 0.742188 0.297363
0.665039 0.810059 0.283447
0.665527 0.810059 0.283447
0.666016 0.810059 0.283447
0.666504 0.810059 0.283447
0.667480 0.810059 0.283447
0.669434 0.810059 0.283447
0.671875 0.810059 0.283447
0.676758 0.809570 0.283447
0.684082 0.809082 0.283203
0.695801 0.808594 0.283447
0.713867 0.807617 0.283691
0.740723 0.806641 0.284912
0.776855 0.805176 0.288086
0.823730 0.803711 0.294678
0.879883 0.802246 0.307129
0.943848 0.801758 0.327637
0.727051 0.871582 0.342773
0.727051 0.871582 0.342773
0.727051 0.871582 0.342773
0.727539 0.871582 0.342773
0.728027 0.871582 0.342773
0.729004 0.871582 0.342773
0.730957 0.871094 0.342773
0.733887 0.871094 0.342773
0.738281 0.871094 0.342529
0.745605 0.870605 0.342529
0.757324 0.870117 0.342773
0.775391 0.869141 0.343018
0.802246 0.867676 0.344238
0.838379 0.866211 0.347412
0.885254 0.864746 0.354492
0.941406 0.863770 0.367188
0.788086 0.932617 0.402832
0.788574 0.932617 0.402832
0.788574 0.932617 0.402832
0.788574 0.932617 0.402832
0.789062 0.932617 0.402832
0.789551 0.932617 0.402832
0.790527 0.932617 0.402832
0.792480 0.932617 0.402832
0.794922 0.932617 0.402832
0.799805 0.932129 0.402588
0.807129 0.931641 0.402588
0.818848 0.931152 0.402832
0.836914 0.930176 0.403320
0.863281 0.929199 0.404541
0.899414 0.927734 0.407715
0.946289 0.926270 0.414795
0.014282 -0.000687 0.226685
0.059692 -0.002420 0.217529
0.109985 -0.004341 0.207397
0.175659 -0.006378 0.194336
0.250244 -0.007401 0.179565
0.327637 -0.005871 0.164551
0.409180 -0.000023 0.149292
0.495850 0.013268 0.134033
0.573730 0.040222 0.121704
0.644531 0.083618 0.113403
0.710938 0.138184 0.110901
0.775879 0.194580 0.116577
0.838867 0.255127 0.132568
0.899902 0.321045 0.160156
0.959961 0.387695 0.200806
1.020508 0.451416 0.253662
0.022751 0.057709 0.220093
0.068115 0.055969 0.210938
0.114380 0.054321 0.201660
0.175293 0.052582 0.189575
0.243530 0.052002 0.176025
0.316895 0.053802 0.161987
0.395996 0.059814 0.147217
0.481201 0.072876 0.132080
0.560059 0.093140 0.120300
0.633301 0.125366 0.112488
0.703613 0.165283 0.110535
0.770996 0.212158 0.116516
0.835938 0.266602 0.132568
0.897461 0.328369 0.160278
0.958984 0.391846 0.200928
1.020508 0.453613 0.253662
0.033539 0.117676 0.212891
0.078979 0.115723 0.203857
0.120056 0.114136 0.195679
0.174561 0.112488 0.184814
0.237183 0.111511 0.172607
0.307129 0.112183 0.159302
0.384521 0.115601 0.145142
0.469482 0.123169 0.130615
0.548828 0.137329 0.119263
0.624023 0.159180 0.111938
0.697266 0.189819 0.110291
0.766113 0.229370 0.116455
0.832520 0.278564 0.132690
0.895508 0.336426 0.160400
0.957520 0.396240 0.201050
1.019531 0.456299 0.253662
0.060211 0.184448 0.202393
0.097168 0.182617 0.195068
0.133545 0.180908 0.187866
0.178955 0.178955 0.178955
0.234375 0.177246 0.168335
0.299561 0.176025 0.156250
0.374268 0.176147 0.142944
0.457764 0.178711 0.129150
0.537109 0.186157 0.118408
0.613770 0.199951 0.111450
0.688477 0.222046 0.110107
0.759766 0.253662 0.116516
0.827637 0.295898 0.132812
0.892090 0.348633 0.160522
0.955566 0.403076 0.201172
1.018555 0.460449 0.253906
0.102783 0.248169 0.189819
0.131470 0.246582 0.184204
0.158081 0.245239 0.179077
0.193604 0.243530 0.172241
0.240112 0.241577 0.163452
0.298340 0.239624 0.152832
0.368164 0.238159 0.140747
0.447754 0.238037 0.127930
0.525391 0.241211 0.117859
0.602051 0.249146 0.111389
0.677734 0.263916 0.110291
0.750488 0.287354 0.116821
0.820801 0.321777 0.133179
0.887207 0.365479 0.160889
0.952637 0.413818 0.201538
1.016602 0.467041 0.254150
0.155151 0.312744 0.176758
0.173828 0.311768 0.173218
0.192261 0.310791 0.169678
0.218628 0.309570 0.164795
0.255615 0.307861 0.157959
0.305176 0.305664 0.149170
0.367676 0.303467 0.138550
0.440674 0.302002 0.127197
0.514160 0.302734 0.118103
0.589355 0.306641 0.112061
0.665039 0.315430 0.111206
0.739258 0.331787 0.117798
0.811035 0.357178 0.134033
0.880859 0.389648 0.161743
0.948242 0.430176 0.202271
1.013672 0.477539 0.254639
0.210693 0.381592 0.165405
0.222778 0.381104 0.163086
0.235352 0.380371 0.160889
0.254150 0.379395 0.157471
0.282227 0.377930 0.152466
0.322021 0.375977 0.145630
0.375244 0.373779 0.136841
0.437988 0.371826 0.127563
0.505371 0.371094 0.119629
0.577148 0.371582 0.114258
0.651855 0.375488 0.113586
0.726074 0.384033 0.120056
0.800293 0.398926 0.136108
0.872070 0.421875 0.163452
0.941895 0.453613 0.203613
1.008789 0.493652 0.255371
0.273438 0.446289 0.156982
