looks/Cineon_Rec709_to_Filmscan_Kodak.cube
TITLE "Cineon_Rec709_to_Filmscan_Kodak"
LUT_3D_SIZE 16
0.003654 0.004368 0.004742
0.005764 0.005226 0.004734
0.008583 0.006184 0.004665
0.025314 0.008110 0.004562
0.078491 0.012299 0.003710
0.165649 0.016403 0.002413
0.269043 0.016342 0.001348
0.394775 0.005543 0.000307
0.500977 0.000000 0.000005
0.572266 0.000000 0.000008
0.642578 0.003717 0.000000
0.690430 0.007107 0.000000
0.747070 0.093323 0.000000
0.812988 0.203247 0.000000
0.877930 0.312012 0.000601
0.937500 0.431396 0.032196
0.004810 0.007889 0.006062
0.007469 0.009384 0.005772
0.011200 0.011559 0.005459
0.031281 0.014633 0.005074
0.080627 0.021576 0.004066
0.168457 0.030853 0.002674
0.267578 0.028580 0.001343
0.401367 0.012550 0.000272
0.509766 0.000042 0.000023
0.584473 0.005375 0.000000
0.651367 0.009407 0.000000
0.699707 0.014748 0.000000
0.753906 0.118713 0.000000
0.817383 0.212891 0.000000
0.880859 0.320312 0.000281
0.939453 0.435547 0.032043
0.006592 0.013550 0.007683
0.010048 0.015778 0.007023
0.014465 0.018967 0.006466
0.039703 0.023605 0.005806
0.087280 0.033600 0.004673
0.172729 0.049316 0.002939
0.272949 0.043060 0.001530
0.411133 0.025864 0.000299
0.514648 0.015060 0.000046
0.593262 0.024170 0.000000
0.659668 0.017624 0.000000
0.708008 0.045593 0.000000
0.760742 0.137817 0.000000
0.822754 0.223389 0.000000
0.884277 0.329102 0.000165
0.940918 0.439209 0.031921
0.007336 0.030472 0.009354
0.010376 0.033020 0.008804
0.019226 0.036774 0.008339
0.047119 0.043030 0.007427
0.093140 0.053864 0.005749
0.172363 0.069153 0.003315
0.271729 0.071472 0.001515
0.412109 0.067810 0.000283
0.518555 0.061188 0.000023
0.607910 0.053986 0.000000
0.672852 0.048187 0.000000
0.720703 0.094604 0.000000
0.771973 0.165771 0.000000
0.831055 0.239258 0.000000
0.889648 0.342529 0.000133
0.944336 0.446533 0.032257
0.007336 0.066711 0.012245
0.016357 0.069336 0.011818
0.034637 0.072754 0.011040
0.064453 0.078674 0.009979
0.108337 0.087769 0.007744
0.184448 0.103394 0.004139
0.281738 0.113159 0.001705
0.418701 0.122620 0.000309
0.530762 0.123535 0.000017
0.628418 0.116577 0.000000
0.691406 0.127319 0.000000
0.741211 0.156616 0.000000
0.789062 0.206787 0.000000
0.842773 0.267334 0.000000
0.897949 0.364258 0.000086
0.948730 0.458496 0.033630
0.030151 0.123230 0.013565
0.047333 0.126587 0.012581
0.066589 0.130737 0.011734
0.094788 0.136353 0.010017
0.137817 0.146240 0.006618
0.215820 0.162598 0.003881
0.310547 0.177002 0.001580
0.442139 0.193237 0.000232
0.554688 0.200562 0.000000
0.657227 0.200562 0.000000
0.719727 0.211060 0.000000
0.770508 0.223145 0.000000
0.812988 0.252197 0.000000
0.860840 0.315674 0.000000
0.910156 0.395752 0.000000
0.956055 0.477295 0.034302
0.066223 0.200195 0.008530
0.084473 0.203857 0.007748
0.104309 0.207886 0.007080
0.136230 0.215088 0.005817
0.188232 0.226074 0.004238
0.262939 0.240845 0.002186
0.355469 0.257568 0.000269
0.480713 0.275635 0.000000
0.589844 0.285400 0.000000
0.696777 0.287354 0.000000
0.754395 0.296631 0.000000
0.806641 0.307617 0.000000
0.843262 0.335693 0.000000
0.886230 0.381348 0.000000
0.928223 0.437500 0.000000
0.966797 0.505859 0.036316
0.176392 0.315918 0.002552
0.194336 0.320312 0.002071
0.214355 0.325195 0.001602
0.245483 0.331787 0.000926
0.285889 0.341064 0.000387
0.343994 0.354736 0.000000
0.427734 0.368896 0.000000
0.529785 0.384277 0.000000
0.627930 0.395752 0.000000
0.726562 0.404541 0.000000
0.790039 0.407959 0.000000
0.845703 0.415771 0.000000
0.882324 0.430420 0.000000
0.920898 0.458496 0.000000
0.950684 0.493896 0.000000
0.981934 0.549805 0.039703
0.340576 0.444092 0.000000
0.351807 0.447510 0.000000
0.364014 0.449463 0.000000
0.382324 0.452637 0.000000
0.410156 0.458008 0.000000
0.453857 0.465088 0.000000
0.517578 0.476074 0.000000
0.600098 0.490967 0.000000
0.677734 0.499512 0.000000
0.769531 0.509766 0.000000
0.830078 0.513184 0.000000
0.889160 0.519043 0.000000
0.922363 0.527344 0.000000
0.955566 0.545898 0.000000
0.976074 0.565430 0.000000
1.002930 0.610352 0.043579
0.510742 0.564941 0.000000
0.517090 0.565918 0.000000
0.524414 0.567871 0.000000
0.535645 0.569336 0.000000
0.553223 0.573730 0.000000
0.581055 0.579590 0.000000
0.621582 0.588867 0.000000
0.670410 0.595215 0.000000
0.733398 0.602539 0.000000
0.812500 0.615723 0.000000
0.870117 0.618652 0.000000
0.925781 0.625977 0.000000
0.961426 0.632324 0.000000
0.990234 0.643066 0.000000
1.006836 0.653809 0.000000
1.027344 0.682129 0.043030
0.672363 0.673340 0.000000
0.675293 0.673340 0.000000
0.678223 0.674316 0.000000
0.683594 0.675293 0.000000
0.692871 0.676758 0.000000
0.707520 0.679688 0.000000
0.728516 0.682129 0.000000
0.761230 0.687012 0.000000
0.808105 0.694824 0.000000
0.865234 0.705566 0.000000
0.911621 0.708496 0.000000
0.964355 0.718262 0.000000
0.998535 0.723633 0.000000
1.018555 0.726562 0.000000
1.032227 0.729004 0.000000
1.045898 0.744629 0.046021
0.809082 0.756836 0.000000
0.810059 0.756836 0.000000
0.812012 0.757324 0.000000
0.816406 0.757812 0.000000
0.821289 0.759277 0.000000
0.829590 0.761230 0.000000
0.843750 0.763672 0.000000
0.864258 0.768555 0.000000
0.891602 0.773438 0.000000
0.917969 0.774902 0.000000
0.953125 0.778809 0.000000
0.994141 0.787109 0.000000
1.019531 0.790039 0.000000
1.041016 0.795410 0.000000
1.053711 0.797852 0.007320
1.065430 0.808105 0.023376
0.909180 0.815918 0.000000
0.909668 0.815918 0.000000
0.910645 0.816406 0.000000
0.911133 0.815918 0.000000
0.913086 0.816406 0.000000
0.916016 0.816895 0.000000
0.921387 0.817871 0.000000
0.929688 0.819336 0.000000
0.941895 0.821289 0.000000
0.960449 0.824707 0.000000
0.985352 0.829102 0.000000
1.012695 0.834473 0.000000
1.033203 0.837891 0.007042
1.050781 0.843262 0.024918
1.063477 0.846680 0.038300
1.072266 0.853516 0.121277
0.969727 0.866699 0.135742
0.969727 0.866699 0.135742
0.970215 0.866699 0.135620
0.970703 0.866699 0.135498
0.971680 0.866699 0.135254
0.973145 0.867188 0.134766
0.975586 0.867188 0.134155
0.979980 0.868164 0.133301
0.985352 0.868652 0.131714
0.995117 0.870117 0.128906
1.007812 0.872070 0.127686
1.020508 0.874512 0.130127
1.036133 0.877441 0.138184
1.051758 0.881836 0.160645
1.063477 0.884277 0.199829
1.074219 0.890137 0.278809
1.002930 0.913574 0.385498
1.003906 0.913574 0.385986
1.003906 0.913574 0.385986
1.003906 0.913574 0.385498
1.003906 0.913574 0.385498
1.004883 0.913574 0.385742
1.005859 0.914062 0.385742
1.006836 0.914551 0.385986
1.009766 0.914551 0.384766
1.013672 0.915039 0.385254
1.018555 0.916016 0.385010
1.027344 0.917480 0.384766
1.037109 0.919434 0.387207
1.048828 0.921875 0.393066
1.059570 0.923828 0.406494
1.070312 0.927246 0.432373
1.019531 0.952637 0.559082
1.019531 0.952637 0.559082
1.019531 0.952637 0.559082
1.019531 0.952637 0.559082
1.019531 0.952637 0.559082
1.020508 0.952637 0.559082
1.020508 0.952637 0.559082
1.021484 0.953125 0.559082
1.022461 0.953125 0.558594
1.024414 0.953613 0.558594
1.027344 0.954102 0.558594
1.032227 0.954590 0.558594
1.038086 0.955078 0.558105
1.045898 0.956055 0.561035
1.054688 0.958008 0.566895
1.064453 0.960449 0.580566
0.004581 0.005909 0.009506
0.007122 0.006695 0.009743
0.010605 0.007656 0.010109
0.029724 0.009552 0.010582
0.082886 0.013802 0.010277
0.168213 0.018478 0.008583
0.272217 0.018036 0.006748
0.398682 0.007450 0.003325
0.505371 0.000295 0.000512
0.579102 0.000000 0.000052
0.650391 0.005337 0.000000
0.698730 0.009659 0.000000
0.753906 0.096375 0.000000
0.818848 0.206421 0.000000
0.879395 0.313965 0.000814
0.938477 0.433838 0.051270
0.005867 0.010605 0.012375
0.008934 0.012070 0.012222
0.013268 0.014168 0.012123
0.035614 0.017303 0.011978
0.085022 0.024445 0.011345
0.170410 0.033569 0.009865
0.270508 0.031555 0.007526
0.404541 0.015793 0.003468
0.514160 0.001224 0.000880
0.592773 0.006584 0.000000
0.659180 0.013512 0.000000
0.707520 0.020294 0.000000
0.760742 0.122498 0.000000
0.823730 0.216064 0.000000
0.882324 0.322266 0.000359
0.940430 0.437988 0.051636
0.007591 0.017944 0.016022
0.011589 0.020111 0.015221
0.016449 0.023178 0.014603
0.043518 0.027756 0.013893
0.090942 0.037781 0.012863
0.173950 0.052185 0.011246
0.275635 0.047302 0.008575
0.413330 0.031189 0.003658
0.520020 0.018967 0.000917
0.601562 0.027466 0.000000
0.667480 0.024063 0.000000
0.715820 0.051697 0.000000
0.767578 0.141479 0.000000
0.829102 0.226196 0.000000
0.885742 0.331055 0.000235
0.942383 0.441895 0.051422
0.008110 0.037628 0.019135
0.011406 0.039948 0.018250
0.021103 0.043243 0.017548
0.050140 0.049255 0.016632
0.096313 0.059021 0.015152
0.174561 0.073547 0.012741
0.275879 0.076782 0.008987
0.415527 0.074158 0.003683
0.524902 0.067749 0.000481
0.616211 0.060028 0.000000
0.681152 0.057251 0.000000
0.729004 0.100647 0.000000
0.778809 0.169312 0.000000
0.836914 0.242676 0.000000
0.890625 0.343994 0.000188
0.944824 0.448975 0.051697
0.007187 0.074402 0.023346
0.016479 0.076538 0.022507
0.035431 0.079712 0.021744
0.065796 0.085388 0.020721
0.110596 0.094055 0.018677
0.186279 0.108765 0.014809
0.287354 0.119873 0.009636
0.424072 0.129639 0.003431
0.538086 0.130493 0.000187
0.636719 0.123657 0.000000
0.700195 0.135376 0.000000
0.749023 0.161743 0.000000
0.795898 0.210205 0.000000
0.849609 0.272461 0.000000
0.898926 0.365479 0.000118
0.949707 0.460938 0.051727
0.029053 0.129639 0.026184
0.046173 0.132812 0.025177
0.065063 0.136841 0.024216
0.093933 0.142822 0.022369
0.138428 0.152466 0.018860
0.215942 0.168701 0.014610
0.314941 0.184326 0.008194
0.446289 0.199585 0.001635
0.561523 0.206787 0.000000
0.664551 0.207764 0.000000
0.728027 0.217041 0.000000
0.778320 0.228760 0.000000
0.819824 0.257568 0.000000
0.867188 0.320801 0.000000
0.911621 0.397705 0.000000
0.956543 0.479736 0.052734
0.060059 0.209595 0.021454
0.079590 0.212769 0.020218
0.101074 0.217163 0.018738
0.134888 0.224243 0.016693
0.187500 0.235107 0.013275
0.263672 0.250244 0.007771
0.358398 0.266846 0.001179
0.483398 0.285156 0.000000
0.595215 0.294434 0.000000
0.702148 0.297363 0.000000
0.762207 0.305176 0.000000
0.813477 0.314209 0.000000
0.850586 0.341553 0.000000
0.893066 0.386230 0.000000
0.929199 0.439209 0.000000
0.967773 0.508789 0.054993
0.173584 0.325684 0.005779
0.191650 0.329590 0.004910
0.211060 0.333496 0.003979
0.242310 0.340088 0.002333
0.284912 0.349609 0.000987
0.345703 0.363770 0.000000
0.430664 0.377686 0.000000
0.532715 0.394043 0.000000
0.634277 0.405029 0.000000
0.730957 0.412842 0.000000
0.798828 0.415771 0.000000
0.853516 0.423096 0.000000
0.889648 0.436768 0.000000
0.926758 0.463379 0.000000
0.951172 0.494873 0.000000
0.982422 0.551758 0.057312
0.342041 0.453613 0.000000
0.353760 0.457031 0.000000
0.365723 0.458984 0.000000
0.385010 0.463135 0.000000
0.413574 0.468994 0.000000
0.457520 0.476562 0.000000
0.520508 0.486572 0.000000
0.603027 0.501465 0.000000
0.684082 0.509766 0.000000
0.774902 0.519043 0.000000
0.837891 0.522461 0.000000
0.896484 0.527832 0.000000
0.930176 0.534668 0.000000
0.957520 0.548340 0.000000
0.977051 0.567871 0.000000
1.002930 0.612305 0.059204
0.514648 0.575684 0.000000
0.521484 0.577148 0.000000
0.528320 0.577637 0.000000
0.540039 0.580566 0.000000
0.557617 0.583984 0.000000
0.584473 0.589844 0.000000
0.625977 0.598633 0.000000
0.676758 0.605957 0.000000
0.740234 0.613281 0.000000
0.818359 0.624023 0.000000
0.877930 0.627441 0.000000
0.933105 0.634277 0.000000
0.968262 0.639160 0.000000
0.991211 0.645508 0.000000
1.008789 0.656738 0.000000
1.027344 0.683594 0.054352
0.677246 0.681641 0.000000
0.680176 0.682129 0.000000
0.683594 0.682617 0.000000
0.688477 0.683594 0.000000
0.698242 0.684570 0.000000
0.712891 0.687988 0.000000
0.734375 0.690918 0.000000
0.766602 0.695312 0.000000
0.813477 0.703125 0.000000
0.870605 0.712891 0.000000
0.918945 0.716309 0.000000
0.969238 0.724609 0.000000
0.998535 0.726074 0.000000
1.018555 0.729492 0.000000
1.033203 0.731445 0.000000
1.045898 0.746094 0.054565
0.807617 0.759766 0.000000
0.808594 0.760254 0.000000
0.810547 0.760742 0.000000
0.813477 0.761230 0.000000
0.818848 0.762207 0.000000
0.827637 0.764160 0.000000
0.841797 0.767090 0.000000
0.862305 0.770996 0.000000
0.890137 0.775879 0.000000
0.917480 0.777832 0.000000
0.953125 0.782715 0.000000
0.994141 0.790039 0.000000
1.020508 0.793457 0.000000
1.041992 0.798340 0.000000
1.053711 0.800781 0.013229
1.064453 0.809570 0.037903
0.908203 0.819336 0.004826
0.908691 0.819336 0.004780
0.909180 0.819336 0.004780
0.910156 0.819336 0.004780
0.912598 0.819824 0.004780
0.915527 0.820312 0.004704
0.920898 0.821289 0.004704
0.928711 0.822266 0.004028
0.941406 0.824707 0.004532
0.960449 0.827637 0.005222
0.984375 0.832031 0.007168
1.011719 0.837402 0.011078
1.032227 0.840820 0.019882
1.049805 0.845703 0.035828
1.062500 0.848145 0.044434
1.072266 0.854980 0.144531
0.967773 0.869141 0.162231
0.968262 0.869141 0.162231
0.968262 0.869141 0.162231
0.969238 0.869629 0.161865
0.970215 0.869629 0.161743
0.972168 0.869629 0.160278
0.974121 0.869629 0.159668
0.978027 0.870605 0.159302
0.984375 0.871094 0.157227
0.993652 0.873047 0.156128
1.005859 0.875000 0.156250
1.019531 0.876953 0.155273
1.035156 0.879883 0.163086
1.050781 0.883789 0.184204
1.063477 0.886230 0.222046
1.074219 0.891602 0.288574
1.002930 0.915527 0.397705
1.002930 0.915527 0.397705
1.002930 0.915527 0.398193
1.002930 0.915527 0.397705
1.002930 0.915527 0.397705
1.003906 0.915527 0.397461
1.004883 0.915527 0.397461
1.005859 0.916016 0.397217
1.008789 0.916016 0.396729
1.012695 0.916992 0.396240
1.018555 0.917969 0.395752
1.026367 0.918945 0.395752
1.037109 0.920898 0.397949
1.048828 0.922852 0.402588
1.059570 0.924805 0.414307
1.070312 0.928223 0.438477
1.018555 0.953613 0.564941
1.018555 0.953613 0.564941
1.018555 0.953613 0.564941
1.018555 0.953613 0.564941
1.018555 0.953613 0.564941
1.019531 0.953613 0.564941
1.019531 0.953613 0.564453
1.020508 0.953613 0.564941
1.021484 0.953613 0.564453
1.023438 0.954102 0.564453
1.026367 0.954590 0.563965
1.031250 0.955566 0.563965
1.037109 0.956055 0.564453
1.044922 0.957031 0.565430
1.053711 0.958496 0.571777
1.063477 0.960938 0.585449
0.005287 0.007767 0.019714
0.008484 0.008629 0.019470
0.013184 0.009697 0.019485
0.036224 0.011749 0.019562
0.089111 0.015823 0.019516
0.171265 0.021210 0.016769
0.275635 0.019897 0.013695
0.402588 0.009552 0.006954
0.510742 0.000717 0.001165
0.586426 0.000000 0.000105
0.658203 0.006985 0.000000
0.706543 0.012283 0.000000
0.761230 0.099609 0.000000
0.822266 0.208984 0.003323
0.881348 0.316162 0.001036
0.939453 0.436279 0.072510
0.006683 0.014053 0.024506
0.010506 0.015526 0.023254
0.016022 0.017853 0.022537
0.041931 0.021240 0.022125
0.090942 0.027878 0.021423
0.173218 0.036835 0.019409
0.274414 0.034851 0.015343
0.408936 0.019775 0.007278
0.519531 0.002659 0.001874
0.600586 0.007416 0.000000
0.666016 0.017395 0.000000
0.715820 0.024033 0.000000
0.768555 0.126587 0.000000
0.827148 0.218750 0.003010
0.884277 0.324707 0.000411
0.941406 0.440430 0.072815
0.008514 0.023758 0.030304
0.013466 0.025955 0.028107
0.019714 0.029236 0.026627
0.049347 0.033936 0.025589
0.096680 0.043335 0.024124
0.176025 0.056213 0.022171
0.280273 0.052734 0.017273
0.417480 0.037750 0.007721
0.525391 0.023071 0.002016
0.609375 0.030746 0.000000
0.675781 0.029816 0.000000
0.723633 0.055634 0.000000
0.775391 0.145142 0.000000
0.832031 0.228760 0.002567
0.887695 0.333740 0.000306
0.943359 0.444824 0.072510
0.008957 0.047791 0.034241
0.012901 0.050018 0.032043
0.023880 0.052460 0.030640
0.054443 0.057526 0.029556
0.101318 0.066284 0.028030
0.177246 0.078857 0.024979
0.281982 0.083679 0.018188
0.421387 0.080994 0.007755
0.531738 0.073547 0.001061
0.625977 0.067139 0.000000
0.689453 0.065674 0.000000
0.737305 0.105469 0.000000
0.786621 0.173340 0.000000
0.839844 0.245361 0.001885
0.893066 0.347168 0.000243
0.945801 0.451904 0.072632
0.007015 0.084656 0.039185
0.017410 0.086731 0.037720
0.036804 0.088745 0.036499
0.067993 0.093567 0.035370
0.114136 0.101868 0.032959
0.189331 0.115967 0.028427
0.294434 0.128052 0.019287
0.430664 0.136841 0.007118
0.546875 0.137207 0.000392
0.645020 0.131592 0.000000
0.708496 0.141235 0.000000
0.756836 0.166260 0.000000
0.803711 0.214478 0.000000
0.852051 0.274658 0.001133
0.900879 0.368164 0.000149
0.950684 0.463379 0.072571
0.028427 0.137817 0.043427
0.045380 0.140991 0.041931
0.063538 0.144409 0.040802
0.093079 0.150635 0.038513
0.140137 0.160400 0.034393
0.216797 0.175903 0.027817
0.320068 0.192139 0.015793
0.452393 0.207275 0.003216
0.569336 0.213379 0.000000
0.671875 0.214722 0.000000
0.736328 0.222778 0.000000
0.786133 0.233765 0.000000
0.828125 0.264160 0.000000
0.870117 0.323975 0.000300
0.913086 0.399658 0.000000
0.957520 0.482178 0.073364
0.052612 0.220459 0.037689
0.073914 0.224487 0.035461
0.097168 0.228394 0.033356
0.134277 0.234619 0.029846
0.187866 0.245483 0.024109
0.264893 0.260742 0.014114
0.362549 0.276855 0.002142
0.488525 0.294189 0.000000
0.602051 0.304443 0.000000
0.706543 0.306396 0.000000
0.770020 0.313721 0.000000
0.821289 0.321533 0.000000
0.858398 0.347900 0.000000
0.894531 0.388428 0.000039
0.930176 0.440918 0.000000
0.968262 0.511230 0.074158
0.172974 0.336182 0.009300
0.190308 0.339844 0.007988
0.210205 0.343750 0.006470
0.240356 0.349609 0.004036
0.285400 0.359619 0.001645
0.349121 0.374023 0.000000
0.435303 0.387939 0.000000
0.537109 0.402832 0.000000
0.640137 0.414795 0.000000
0.737793 0.421631 0.000000
0.807617 0.423584 0.000000
0.861816 0.430664 0.000000
0.897949 0.443848 0.000000
0.927734 0.465820 0.000000
0.952637 0.497559 0.000000
0.983398 0.555664 0.076355
0.344238 0.464355 0.000000
0.356689 0.468018 0.000000
0.369385 0.469971 0.000000
0.388672 0.473633 0.000000
0.417236 0.479492 0.000000
0.461914 0.487305 0.000000
0.524902 0.498291 0.000000
0.607910 0.511719 0.000000
0.689941 0.520996 0.000000
0.780762 0.529785 0.000000
0.846680 0.532227 0.000000
0.904297 0.537109 0.000000
0.938477 0.542969 0.000000
0.958984 0.551270 0.000000
0.978027 0.569824 0.000000
1.003906 0.614746 0.075623
0.520996 0.586426 0.000000
0.526367 0.587891 0.000000
0.533203 0.589355 0.000000
0.544434 0.591309 0.000000
0.562988 0.594727 0.000000
0.589844 0.600586 0.000000
0.630859 0.608887 0.000000
0.683105 0.615234 0.000000
0.748535 0.623535 0.000000
0.824707 0.633301 0.000000
0.886230 0.636230 0.000000
0.940918 0.642578 0.000000
0.971191 0.644043 0.000000
0.992188 0.648926 0.000000
1.008789 0.658203 0.000000
1.027344 0.685547 0.065857
0.676270 0.687012 0.000000
0.679199 0.687988 0.000000
0.683594 0.688965 0.000000
0.688965 0.689453 0.000000
0.697754 0.690918 0.000000
0.712402 0.693359 0.000000
0.734863 0.696777 0.000000
0.769043 0.701660 0.000000
0.814941 0.708496 0.000000
0.872070 0.717773 0.000000
0.919922 0.720215 0.000000
0.968750 0.727539 0.000000
0.999023 0.729004 0.000000
1.019531 0.732422 0.000000
1.033203 0.734375 0.008568
1.045898 0.748047 0.063782
0.806152 0.763672 0.000000
0.808105 0.764160 0.000000
0.809082 0.764160 0.000000
0.812500 0.765137 0.000000
0.817383 0.765625 0.000000
0.826172 0.767578 0.000000
0.839844 0.770020 0.000000
0.860840 0.774414 0.000000
0.889160 0.779297 0.000000
0.916992 0.781738 0.000000
0.953125 0.785645 0.000000
0.994141 0.793457 0.000000
1.020508 0.796387 0.000000
1.041992 0.801270 0.000000
1.053711 0.802734 0.020355
1.064453 0.812012 0.063721
0.905762 0.822754 0.032532
0.906738 0.822266 0.032349
0.907227 0.822754 0.032410
0.908691 0.822754 0.032227
0.910645 0.823242 0.032104
0.913574 0.823730 0.031433
0.919434 0.824707 0.030991
0.927246 0.825684 0.030075
0.940430 0.828125 0.029251
0.958984 0.831055 0.028076
0.983398 0.835449 0.027664
1.010742 0.840332 0.028168
1.031250 0.843750 0.035248
1.049805 0.848145 0.048615
1.062500 0.850586 0.056915
1.071289 0.856445 0.169434
0.965820 0.872070 0.192627
0.966309 0.872070 0.192505
0.966797 0.872559 0.192505
0.967285 0.872559 0.192383
0.968262 0.872559 0.192139
0.970215 0.873047 0.191772
0.972656 0.873047 0.191406
0.976562 0.873535 0.190063
0.982910 0.874512 0.187012
0.991699 0.875977 0.186035
1.004883 0.877441 0.182861
1.018555 0.879395 0.181763
1.034180 0.882324 0.188843
1.049805 0.886230 0.207886
1.062500 0.888184 0.245728
1.073242 0.893066 0.299561
1.001953 0.917480 0.410400
1.001953 0.917480 0.410400
1.001953 0.917480 0.410400
1.001953 0.916992 0.409912
1.002930 0.917480 0.410156
1.002930 0.917480 0.409668
1.003906 0.917480 0.409668
1.005859 0.917969 0.409912
1.007812 0.918457 0.409668
1.011719 0.918457 0.408447
1.017578 0.919434 0.407959
1.025391 0.920898 0.407959
1.036133 0.922852 0.408936
1.047852 0.924316 0.412598
1.058594 0.926270 0.424072
1.069336 0.929688 0.446533
1.017578 0.954102 0.571289
1.017578 0.954102 0.570801
1.017578 0.954102 0.570801
1.017578 0.954102 0.570801
1.018555 0.954102 0.570801
1.018555 0.954102 0.570801
1.018555 0.954590 0.570801
1.019531 0.954590 0.570801
1.020508 0.954590 0.570801
1.023438 0.955078 0.569824
1.026367 0.955566 0.569824
1.030273 0.956055 0.569824
1.036133 0.957031 0.570312
1.043945 0.957520 0.571289
1.053711 0.958984 0.576660
1.063477 0.961914 0.589844
0.005951 0.009445 0.053589
0.008415 0.010063 0.049194
0.011467 0.011108 0.045807
0.041412 0.013351 0.048218
0.096375 0.017212 0.047028
0.177856 0.023346 0.040771
0.282715 0.021057 0.033142
0.410889 0.012169 0.018372
0.519531 0.001439 0.004143
0.598633 0.000000 0.000190
0.669922 0.009544 0.000000
0.719238 0.016464 0.000000
0.769531 0.103516 0.004082
0.825195 0.212036 0.010696
0.883789 0.319580 0.001435
0.941406 0.440674 0.105225
0.006462 0.016891 0.057800
0.008995 0.018143 0.053528
0.013199 0.020142 0.052429
0.045776 0.024139 0.052704
0.097534 0.031235 0.050507
0.178711 0.039551 0.045410
0.282715 0.038330 0.036194
0.416260 0.024704 0.018921
0.528809 0.005035 0.005157
0.613281 0.008667 0.000000
0.678711 0.022873 0.000000
0.728516 0.030777 0.000000
0.776855 0.131714 0.004025
0.830078 0.222290 0.009422
0.887207 0.327881 0.000521
0.942871 0.444336 0.104858
0.007187 0.028168 0.065796
0.010773 0.030167 0.062500
0.017975 0.033020 0.061096
0.051941 0.038940 0.059265
0.101746 0.048767 0.055542
0.180908 0.060486 0.050537
0.288574 0.058807 0.039612
0.424072 0.044159 0.019547
0.536133 0.028702 0.005005
0.622559 0.034821 0.000000
0.688965 0.038940 0.000000
0.736816 0.062622 0.000000
0.784180 0.150024 0.004108
0.835449 0.232788 0.007919
0.890625 0.336914 0.000431
0.944824 0.448975 0.104431
0.005642 0.054932 0.070923
0.008476 0.056915 0.068359
0.021866 0.059814 0.065918
0.055298 0.064819 0.063416
0.104614 0.073364 0.059570
0.181885 0.085388 0.053772
0.291260 0.091797 0.040771
0.430176 0.089661 0.019974
0.546387 0.082458 0.002756
0.639160 0.076721 0.000000
0.702148 0.075928 0.000000
0.750000 0.112488 0.000000
0.794922 0.178345 0.004269
0.843262 0.249634 0.005630
0.895020 0.349854 0.000353
0.947754 0.456055 0.104858
0.003126 0.092529 0.075134
0.014748 0.094666 0.072937
0.034637 0.097229 0.071045
0.066528 0.102051 0.068665
0.115479 0.110229 0.064270
0.193237 0.124146 0.057495
0.303223 0.137573 0.042267
0.441406 0.146240 0.018784
0.561035 0.146606 0.001336
0.657715 0.140869 0.000000
0.722168 0.150391 0.000000
0.769531 0.173218 0.000000
0.812500 0.219971 0.004108
0.855469 0.279785 0.003294
0.903320 0.371094 0.000212
0.952148 0.468262 0.104492
0.026108 0.147095 0.078552
0.040924 0.150513 0.076965
0.057709 0.154175 0.075073
0.087646 0.159912 0.072021
0.139526 0.170044 0.066528
0.218384 0.185059 0.057556
0.326660 0.202393 0.037872
0.460693 0.216064 0.012543
0.582031 0.222900 0.000591
0.682617 0.224365 0.000000
0.749023 0.229492 0.000000
0.797852 0.241455 0.000290
0.836426 0.271484 0.001682
0.873047 0.328857 0.000766
0.915527 0.403076 0.000000
0.958984 0.487061 0.104919
0.035095 0.233521 0.074036
0.059631 0.237061 0.071167
0.086365 0.240845 0.068359
0.128784 0.247559 0.063782
0.186768 0.258057 0.055695
0.265625 0.273193 0.041168
0.367920 0.290283 0.018997
0.494873 0.307617 0.007549
0.612305 0.317383 0.001302
0.715820 0.320068 0.000000
0.783203 0.325928 0.000000
0.833496 0.332764 0.000173
0.865723 0.354492 0.000355
0.897461 0.393066 0.000094
0.932129 0.443604 0.000000
0.969727 0.516602 0.104187
0.164551 0.347656 0.047485
0.182983 0.351318 0.044830
0.203125 0.355225 0.041962
0.235352 0.361572 0.037292
0.282715 0.371094 0.030563
0.349854 0.385986 0.022232
