looks/Cineon_Rec709_to_Filmscan_Log.cube
TITLE "Cineon_Rec709_to_Filmscan_Log"
LUT_3D_SIZE 6
0.098206 0.101807 0.100647
0.138306 0.110413 0.099854
0.314209 0.121155 0.091919
0.503906 0.075378 0.064758
0.584473 0.240967 0.027252
0.642090 0.461426 0.188477
0.099487 0.135010 0.103699
0.151245 0.149170 0.101868
0.322754 0.176392 0.091370
0.511719 0.185913 0.052063
0.591309 0.282959 0.010567
0.643066 0.468750 0.188843
0.156494 0.269287 0.101990
0.210571 0.281250 0.095886
0.376465 0.316406 0.063538
0.538574 0.346924 -0.002817
0.611328 0.392334 -0.056824
0.648926 0.495117 0.190186
0.467773 0.484619 -0.076355
0.479248 0.487305 -0.087036
0.514160 0.494385 -0.117676
0.584961 0.505859 -0.184570
0.638672 0.519043 -0.202515
0.661621 0.552734 0.206665
0.617676 0.591309 0.000086
0.618652 0.591309 -0.000486
0.621582 0.591797 -0.001878
0.632812 0.593262 0.007488
0.658203 0.600098 0.051422
0.671875 0.609375 0.324463
0.657227 0.639648 0.498291
0.657227 0.639648 0.498291
0.657715 0.639648 0.498291
0.659180 0.640137 0.498535
0.663086 0.640625 0.499268
0.668945 0.642090 0.509766
0.100159 0.103821 0.162598
0.140259 0.108154 0.150269
0.336914 0.119019 0.137695
0.513184 0.082397 0.099182
0.589355 0.246704 0.074707
0.642578 0.466553 0.254883
0.096436 0.148560 0.164917
0.144897 0.155762 0.151611
0.341797 0.188721 0.142334
0.523438 0.197266 0.095459
0.596191 0.296631 0.063477
0.644043 0.473877 0.255127
0.159790 0.302246 0.166870
0.229004 0.314453 0.160645
0.393066 0.343262 0.124695
0.549316 0.367188 0.043091
0.615723 0.401611 0.010262
0.649414 0.499512 0.254150
0.471924 0.498779 0.049133
0.484131 0.500977 0.032959
0.520020 0.507812 -0.006866
0.588867 0.517090 -0.078796
0.642090 0.528809 -0.099548
0.661621 0.556152 0.269043
0.613281 0.595215 0.231201
0.614746 0.595215 0.229858
0.618652 0.595703 0.226562
0.632324 0.598145 0.211304
0.656738 0.603027 0.233398
0.670898 0.611816 0.358154
0.656738 0.640625 0.506348
0.656738 0.640625 0.506348
0.656738 0.640625 0.506348
0.658691 0.640625 0.506348
0.662598 0.641113 0.506836
0.668945 0.642578 0.515625
0.070007 0.090515 0.350830
0.142700 0.096191 0.348877
0.359131 0.080566 0.343262
0.519531 0.065369 0.322754
0.594727 0.276855 0.322266
0.643066 0.478760 0.373779
0.047119 0.163330 0.377930
0.126465 0.172607 0.375977
0.360352 0.200439 0.367188
0.533691 0.216187 0.337158
0.601562 0.323486 0.326416
0.644531 0.485840 0.375244
-0.052887 0.346191 0.405762
0.138794 0.354980 0.403320
0.387695 0.378662 0.392822
0.554688 0.400879 0.359375
0.620117 0.430664 0.335693
0.649414 0.510742 0.382324
0.447021 0.523926 0.411865
0.460938 0.525879 0.409912
0.503418 0.532227 0.402588
0.584961 0.541504 0.378662
0.642578 0.548828 0.354980
0.660645 0.567383 0.395264
0.605957 0.607910 0.432373
0.606934 0.608398 0.431885
0.611328 0.608887 0.430908
0.625977 0.610352 0.426514
0.653809 0.614746 0.416016
0.668457 0.617676 0.443604
0.654297 0.642578 0.534180
0.654297 0.642578 0.534180
0.654785 0.642578 0.533691
0.656250 0.643066 0.533203
0.660645 0.643555 0.532715
0.667969 0.644531 0.535645
0.251709 0.061401 0.468018
0.302979 0.049072 0.471680
0.429443 -0.012352 0.474365
0.519531 -0.111694 0.468750
0.592773 0.264160 0.507812
0.641602 0.501465 0.526855
0.221558 0.080078 0.486816
0.282471 0.080994 0.490723
0.411621 0.079407 0.496826
0.533203 0.134521 0.504395
0.600586 0.334229 0.515625
0.643066 0.508301 0.527832
0.063416 0.387451 0.544922
0.229126 0.392822 0.545898
0.410400 0.406006 0.546875
0.551758 0.421387 0.542480
0.618164 0.456543 0.533691
0.646973 0.533203 0.533203
0.418945 0.556152 0.574707
0.433594 0.557617 0.574219
0.480713 0.561035 0.572754
0.569824 0.566895 0.566406
0.633789 0.572266 0.552246
0.655762 0.584473 0.542969
0.590332 0.624512 0.577637
0.591309 0.625000 0.577148
0.596191 0.625488 0.576660
0.613281 0.627441 0.575684
0.642578 0.629395 0.566406
0.662598 0.630371 0.559082
0.648438 0.649414 0.592773
0.648438 0.649414 0.592773
0.648926 0.649902 0.592773
0.650879 0.649902 0.592773
0.655762 0.650391 0.590820
0.663574 0.650879 0.589355
0.545898 -0.166260 0.531250
0.546387 -0.167725 0.530762
0.548340 -0.171509 0.530273
0.556152 -0.186646 0.529785
0.558105 -0.188843 0.520508
0.634766 0.495850 0.605469
0.532715 -0.141846 0.528809
0.535645 -0.146851 0.528809
0.542969 -0.160278 0.529297
0.549805 -0.172974 0.526855
0.556641 -0.186646 0.522949
0.636230 0.505371 0.607422
0.481689 0.273682 0.577637
0.488281 0.274902 0.578613
0.510742 0.281738 0.580078
0.561035 0.306396 0.586426
0.607910 0.412109 0.597656
0.641113 0.536621 0.611816
0.494141 0.568359 0.626953
0.500000 0.568848 0.626953
0.521484 0.569824 0.627441
0.576172 0.577148 0.628418
0.628906 0.584961 0.627441
0.649902 0.595703 0.621582
0.585938 0.634277 0.637695
0.586914 0.634277 0.637695
0.590332 0.634277 0.637695
0.604492 0.635742 0.636719
0.635742 0.639648 0.636230
0.655762 0.640137 0.630371
0.641602 0.654785 0.639648
0.641602 0.654785 0.639648
0.642090 0.654785 0.639648
0.643555 0.654785 0.639160
0.648926 0.655273 0.638184
0.658691 0.656250 0.636230
0.565430 -0.210327 0.550293
0.565430 -0.210327 0.550293
0.565430 -0.210327 0.550293
0.565430 -0.210327 0.550293
0.565430 -0.210327 0.550293
0.564941 -0.208862 0.547363
0.565430 -0.210327 0.550293
0.565430 -0.210327 0.550293
0.565430 -0.210327 0.550293
0.565430 -0.210327 0.550293
0.565430 -0.210327 0.550293
0.564941 -0.208252 0.546387
0.565430 -0.210327 0.550293
0.565430 -0.210327 0.550293
0.565430 -0.210327 0.550293
0.565430 -0.210327 0.550293
0.565430 -0.210327 0.550293
0.563965 -0.205566 0.542969
0.593750 0.492432 0.631348
0.594727 0.492920 0.631836
0.597168 0.494629 0.631836
0.607422 0.501953 0.633301
0.624512 0.522461 0.637207
0.644531 0.572754 0.644043
0.609863 0.639160 0.655762
0.610352 0.639160 0.655762
0.611816 0.639648 0.655762
0.620117 0.641602 0.656250
0.636230 0.642090 0.656250
0.653320 0.642578 0.655273
0.641602 0.658203 0.659668
0.641602 0.658203 0.659668
0.642090 0.658203 0.659668
0.643066 0.658203 0.659668
0.647461 0.658691 0.659180
0.656250 0.659180 0.658203
