looks/Cineon_Rec709_to_Kodak.cube
TITLE "Cineon_Rec709_to_Kodak"
LUT_3D_SIZE 16
0.000000 0.000000 0.000000
0.001444 0.000000 0.000000
0.003260 0.000000 0.000000
0.008026 0.000000 0.000000
0.024612 0.000000 0.000000
0.099854 0.000000 0.000000
0.168457 0.000000 0.000000
0.266113 0.000000 0.000000
0.362549 0.000000 0.000000
0.448975 0.000000 0.000000
0.507812 0.000000 0.000000
0.555176 0.000000 0.000000
0.574707 0.000000 0.000000
0.591797 0.000000 0.000000
0.606934 0.000000 0.000000
0.619629 0.000000 0.000000
0.000000 0.001061 0.000000
0.002090 0.002029 0.000025
0.004745 0.003288 0.000057
0.011406 0.005001 0.000114
0.034180 0.007271 0.000261
0.109314 0.012184 0.000000
0.183838 0.011536 0.000000
0.286377 0.012024 0.000000
0.385742 0.003519 0.000000
0.473877 0.000000 0.000000
0.531250 0.000000 0.000000
0.577148 0.000000 0.000000
0.596191 0.000000 0.000000
0.612305 0.000000 0.000000
0.626465 0.000000 0.000000
0.638672 0.000000 0.000000
0.000000 0.002338 0.000000
0.002899 0.004517 0.000055
0.006527 0.007229 0.000124
0.015572 0.011055 0.000254
0.045715 0.016022 0.000576
0.120605 0.026840 0.000000
0.202271 0.025406 0.000000
0.310547 0.026489 0.000000
0.413330 0.007771 0.000000
0.503906 0.000000 0.000000
0.559082 0.000000 0.000000
0.604004 0.000000 0.000000
0.621582 0.000000 0.000000
0.636719 0.000000 0.000000
0.649902 0.000000 0.000000
0.661621 0.000000 0.000000
0.000000 0.006329 0.000000
0.003616 0.009918 0.000201
0.008156 0.014442 0.000457
0.019791 0.020996 0.000812
0.059692 0.030243 0.001173
0.134277 0.047302 0.000107
0.224609 0.046936 0.000000
0.339844 0.050476 0.000000
0.447021 0.024475 0.000000
0.541504 0.010239 0.000000
0.594238 0.008080 0.000000
0.638184 0.002008 0.000000
0.654785 0.000377 0.000000
0.668945 0.000000 0.000000
0.680664 0.000000 0.000000
0.691406 0.000000 0.000000
0.000000 0.021133 0.000000
0.003078 0.025909 0.000864
0.006943 0.031921 0.001955
0.019623 0.041443 0.003105
0.070190 0.058380 0.002686
0.144165 0.076111 0.000700
0.240845 0.086182 0.000000
0.361816 0.100037 0.000000
0.473389 0.093140 0.000000
0.575195 0.067505 0.000000
0.630859 0.052887 0.000000
0.673828 0.013374 0.000000
0.690430 0.002575 0.000000
0.704102 0.000000 0.000000
0.715332 0.000000 0.000000
0.725586 0.000000 0.000000
0.000000 0.071899 0.002234
0.001370 0.077087 0.003281
0.003103 0.083618 0.004597
0.015427 0.093323 0.005939
0.078125 0.107666 0.005207
0.159790 0.128052 0.001912
0.267578 0.148071 0.000000
0.395752 0.170288 0.000000
0.513672 0.175415 0.000000
0.618164 0.168945 0.000000
0.675781 0.163940 0.000000
0.718262 0.148560 0.000000
0.734863 0.138428 0.000000
0.747559 0.129883 0.000000
0.757812 0.122803 0.000000
0.766602 0.116455 0.000000
0.000000 0.118469 0.004601
0.000000 0.123840 0.005260
0.000000 0.130493 0.006092
0.009056 0.142090 0.006378
0.063843 0.166870 0.002550
0.168701 0.195435 0.000000
0.296631 0.222778 0.000000
0.438721 0.251953 0.000000
0.564941 0.263428 0.000000
0.673828 0.261719 0.000000
0.729492 0.261475 0.000000
0.772949 0.247803 0.000000
0.786133 0.237061 0.000000
0.796387 0.230347 0.000000
0.805176 0.225464 0.000000
0.812988 0.221191 0.000000
0.000000 0.180176 0.007706
0.000000 0.192017 0.006405
0.000000 0.206787 0.004745
0.004684 0.228394 0.002512
0.033081 0.258789 0.000034
0.183594 0.294434 0.000000
0.329346 0.334473 0.000000
0.477295 0.364014 0.000000
0.608887 0.384766 0.000000
0.717773 0.394043 0.000000
0.778809 0.393799 0.000000
0.823730 0.388916 0.000000
0.840820 0.380371 0.000000
0.852539 0.372070 0.000000
0.861816 0.364746 0.000000
0.869629 0.358154 0.000000
0.000000 0.247314 0.000000
0.000000 0.262695 0.000000
0.000000 0.281982 0.000000
0.000000 0.309570 0.000000
0.000000 0.345459 0.000000
0.169189 0.387695 0.000000
0.345459 0.437012 0.000000
0.509277 0.468994 0.000000
0.649902 0.495361 0.000000
0.767090 0.509766 0.000000
0.828613 0.510742 0.000000
0.877441 0.508301 0.000000
0.894043 0.499756 0.000000
0.906250 0.492188 0.000000
0.915527 0.485596 0.000000
0.923828 0.479736 0.000000
0.000000 0.309082 0.000000
0.000000 0.328369 0.000000
0.000000 0.352783 0.000000
0.000000 0.386963 0.000000
0.000000 0.429199 0.000000
0.147949 0.476074 0.000000
0.351074 0.532715 0.000000
0.526855 0.567871 0.000000
0.674805 0.602051 0.000000
0.801758 0.625000 0.000000
0.869141 0.628418 0.000000
0.925781 0.636230 0.000000
0.946777 0.632812 0.000000
0.959961 0.625000 0.000000
0.968750 0.616699 0.000000
0.977051 0.609375 0.000000
0.000000 0.349609 0.000000
0.000000 0.371582 0.000000
0.000000 0.399414 0.000000
0.000000 0.437744 0.000000
0.000000 0.482422 0.000000
0.126221 0.532715 0.000000
0.353516 0.592285 0.000000
0.536133 0.632812 0.000000
0.689941 0.671387 0.000000
0.821777 0.698242 0.000000
0.895020 0.706055 0.000000
0.953613 0.716309 0.000000
0.977539 0.715332 0.000000
0.993164 0.711426 0.000000
1.004883 0.707031 0.000000
1.014648 0.703125 0.000000
0.000000 0.374023 0.000000
0.000000 0.398926 0.000000
0.000000 0.429932 0.000000
0.000000 0.471924 0.000000
0.000000 0.517090 0.000000
0.101746 0.568848 0.000000
0.349854 0.630859 0.000000
0.541016 0.676758 0.000000
0.698730 0.718262 0.000000
0.839355 0.749512 0.000000
0.914062 0.759766 0.000000
0.976562 0.772461 0.000000
1.000000 0.773926 0.000000
1.017578 0.773438 0.000000
1.031250 0.772461 0.000000
1.043945 0.770996 0.000000
0.000000 0.385742 0.000000
0.000000 0.412354 0.000000
0.000000 0.445557 0.000000
0.000000 0.490234 0.000000
0.000000 0.536133 0.000000
0.102722 0.587402 0.000000
0.346924 0.645996 0.000000
0.540527 0.696289 0.000000
0.699707 0.738770 0.000000
0.843750 0.770996 0.000000
0.921875 0.785645 0.000000
0.984375 0.796875 0.000000
1.009766 0.799805 0.000000
1.030273 0.801758 0.000000
1.045898 0.803223 0.000000
1.060547 0.804688 0.000000
0.000000 0.403809 0.000000
0.000000 0.432861 0.000000
0.000000 0.469238 0.000000
0.000000 0.517578 0.000000
0.000000 0.563965 0.000000
0.151245 0.613770 0.000000
0.371826 0.668945 0.000000
0.557617 0.717773 0.000000
0.712402 0.758789 0.000000
0.852539 0.790039 0.000000
0.932617 0.806152 0.000000
0.996094 0.819336 0.000000
1.023438 0.823730 0.000000
1.043945 0.827148 0.000000
1.061523 0.830078 0.000000
1.076172 0.832031 0.000000
0.000000 0.418457 0.000000
0.000000 0.449463 0.000000
0.000000 0.488525 0.000000
0.000000 0.539551 0.000000
0.000000 0.586426 0.000000
0.192627 0.634766 0.000000
0.393311 0.687012 0.000000
0.572266 0.734375 0.000000
0.723145 0.774414 0.000000
0.859375 0.804688 0.000000
0.940918 0.822266 0.000000
1.004883 0.835938 0.000000
1.034180 0.842285 0.000000
1.055664 0.846680 0.000000
1.073242 0.850098 0.000000
1.088867 0.853027 0.000000
0.000000 0.431396 0.000000
0.000000 0.464111 0.000000
0.000000 0.505371 0.000000
0.000000 0.559082 0.000000
0.000000 0.605957 0.000000
0.229248 0.653320 0.000000
0.412354 0.703125 0.000000
0.584961 0.749023 0.000000
0.732910 0.788086 0.000000
0.865723 0.817383 0.000000
0.948242 0.835938 0.000000
1.013672 0.851074 0.000000
1.042969 0.858887 0.000000
1.065430 0.864258 0.000000
1.083984 0.868164 0.000000
1.100586 0.871582 0.000000
0.000000 0.000000 0.001129
0.001947 0.000000 0.001801
0.004398 0.000000 0.002649
0.010353 0.000000 0.003777
0.029816 0.000000 0.004974
0.103088 0.000399 0.005322
0.171265 0.001415 0.004440
0.270508 0.000000 0.004684
0.367920 0.000000 0.003166
0.455811 0.000000 0.000828
0.515137 0.000000 0.000234
0.563477 0.000000 0.000000
0.583984 0.000000 0.000000
0.601074 0.000000 0.000000
0.615723 0.000000 0.000000
0.628906 0.000000 0.000000
0.000000 0.001957 0.002647
0.002577 0.002890 0.003149
0.005814 0.004192 0.003937
0.013771 0.006123 0.004894
0.039154 0.008430 0.006008
0.112244 0.013268 0.006073
0.186890 0.013710 0.005203
0.291016 0.013046 0.005062
0.391113 0.004650 0.003052
0.480713 0.000169 0.000691
0.538574 0.000000 0.000165
0.585938 0.000000 0.000000
0.605469 0.000000 0.000000
0.622070 0.000000 0.000000
0.635742 0.000000 0.000000
0.647949 0.000000 0.000000
0.000000 0.004307 0.004467
0.003330 0.006496 0.004910
0.007542 0.009277 0.005470
0.017731 0.013359 0.006245
0.050446 0.018570 0.007263
0.123657 0.029251 0.007065
0.205811 0.028503 0.006115
0.315430 0.028748 0.005501
0.418945 0.010284 0.002928
0.510742 0.000422 0.000515
0.567383 0.000000 0.000085
0.612793 0.000000 0.000000
0.631348 0.000000 0.000000
0.646973 0.000000 0.000000
0.659668 0.000000 0.000000
0.671387 0.000000 0.000000
0.000000 0.009972 0.006794
0.004002 0.013657 0.007164
0.009064 0.018250 0.007622
0.021667 0.024979 0.008270
0.063904 0.034363 0.009079
0.137329 0.050903 0.008453
0.228882 0.051239 0.007256
0.345459 0.053955 0.005939
0.453369 0.028564 0.002550
0.548340 0.011765 0.000298
0.604004 0.009094 0.000000
0.647461 0.003151 0.000000
0.665039 0.000900 0.000000
0.679199 0.000176 0.000000
0.691406 0.000075 0.000000
0.701660 0.000000 0.000000
0.000000 0.027954 0.009239
0.003246 0.032837 0.009972
0.007359 0.038574 0.010803
0.020660 0.048004 0.011864
0.073425 0.064026 0.012085
0.148315 0.081116 0.010780
0.247803 0.091980 0.008331
0.370361 0.104797 0.005741
0.482666 0.098145 0.001189
0.584473 0.074341 0.000000
0.641602 0.058716 0.000000
0.684082 0.020416 0.000000
0.701660 0.005291 0.000000
0.715332 0.001179 0.000000
0.726074 0.000527 0.000000
0.735840 0.000000 0.000000
0.000000 0.077515 0.013832
0.001266 0.082520 0.014587
0.002857 0.088623 0.015526
0.015175 0.097961 0.016556
0.078674 0.112244 0.016220
0.162964 0.133423 0.013016
0.273926 0.154175 0.008316
0.403320 0.174805 0.003624
0.522949 0.179810 0.000000
0.626953 0.174316 0.000000
0.686523 0.168213 0.000000
0.728516 0.153076 0.000000
0.746094 0.142944 0.000000
0.758301 0.134033 0.000000
0.768555 0.126831 0.000000
0.777344 0.120483 0.000000
0.000000 0.123291 0.017319
0.000000 0.129150 0.017639
0.000000 0.136597 0.018036
0.008896 0.149048 0.017883
0.062744 0.173584 0.014313
0.171631 0.202393 0.009850
0.301514 0.229980 0.003519
0.445557 0.258789 0.000059
0.573242 0.270264 0.000000
0.681641 0.268799 0.000000
0.739258 0.269043 0.000000
0.783203 0.254883 0.000000
0.797852 0.244385 0.000000
0.808105 0.236694 0.000000
0.816895 0.230713 0.000000
0.824219 0.225464 0.000000
0.000000 0.187134 0.022232
0.000000 0.199219 0.020523
0.000000 0.213989 0.018387
0.003382 0.235718 0.015228
0.024292 0.265625 0.010681
0.184692 0.301514 0.004925
0.334229 0.341309 0.000003
0.484131 0.371338 0.000000
0.617188 0.392090 0.000000
0.726562 0.401611 0.000000
0.790527 0.400879 0.000000
0.834961 0.396729 0.000000
0.853027 0.388428 0.000000
0.864746 0.379639 0.000000
0.873535 0.371826 0.000000
0.881348 0.364502 0.000000
0.000000 0.255859 0.014984
0.000000 0.271240 0.013313
0.000000 0.290283 0.011208
0.000000 0.317871 0.008041
0.000000 0.353760 0.003166
0.170288 0.396973 0.000000
0.350830 0.445557 0.000000
0.516602 0.479004 0.000000
0.659180 0.505371 0.000000
0.776367 0.520020 0.000000
0.840332 0.521973 0.000000
0.889648 0.519531 0.000000
0.907715 0.511719 0.000000
0.919434 0.502441 0.000000
0.927734 0.494141 0.000000
0.935547 0.487061 0.000000
0.000000 0.318359 0.013145
0.000000 0.337646 0.010338
0.000000 0.361816 0.006760
0.000000 0.395752 0.002445
0.000000 0.437500 0.000031
0.146729 0.484863 0.000000
0.357178 0.541504 0.000000
0.534668 0.578125 0.000000
0.684570 0.612305 0.000000
0.811523 0.634766 0.000000
0.881348 0.638672 0.000000
0.937500 0.646973 0.000000
0.958984 0.643066 0.000000
0.971680 0.634766 0.000000
0.979980 0.625000 0.000000
0.987793 0.617676 0.000000
0.000000 0.358398 0.012413
0.000000 0.380371 0.008987
0.000000 0.408203 0.004681
0.000000 0.446533 0.000000
0.000000 0.491211 0.000000
0.119690 0.541992 0.000000
0.359375 0.601562 0.000000
0.544434 0.644531 0.000000
0.700195 0.682617 0.000000
0.831543 0.708984 0.000000
0.906738 0.717773 0.000000
0.964844 0.727051 0.000000
0.989258 0.726562 0.000000
1.003906 0.721680 0.000000
1.015625 0.716309 0.000000
1.025391 0.711914 0.000000
0.000000 0.382324 0.012390
0.000000 0.406982 0.008934
0.000000 0.438232 0.004658
0.000000 0.480225 0.000000
0.000000 0.526367 0.000000
0.093079 0.578613 0.000000
0.356201 0.640137 0.000000
0.549805 0.687012 0.000000
0.709473 0.728516 0.000000
0.848633 0.759277 0.000000
0.924805 0.770508 0.000000
0.986328 0.782715 0.000000
1.010742 0.784180 0.000000
1.028320 0.783691 0.000000
1.041992 0.781738 0.000000
1.053711 0.780273 0.000000
0.000000 0.393799 0.015106
0.000000 0.420654 0.010941
0.000000 0.454102 0.005661
0.000000 0.499023 0.000000
0.000000 0.545410 0.000000
0.093384 0.597656 0.000000
0.353760 0.656250 0.000000
0.549316 0.707031 0.000000
0.709473 0.749023 0.000000
0.851074 0.780762 0.000000
0.932129 0.795898 0.000000
0.993652 0.807129 0.000000
1.020508 0.810059 0.000000
1.040039 0.812012 0.000000
1.055664 0.812500 0.000000
1.069336 0.813477 0.000000
0.000000 0.412354 0.021103
0.000000 0.441650 0.017349
0.000000 0.478271 0.012611
0.000000 0.527344 0.007149
0.000000 0.573730 0.003395
0.139404 0.623535 0.000000
0.375488 0.678711 0.000000
0.562988 0.727539 0.000000
0.719238 0.768555 0.000000
0.857910 0.798828 0.000000
0.939941 0.815918 0.000000
1.002930 0.828613 0.000000
1.031250 0.833496 0.000000
1.052734 0.836426 0.000000
1.069336 0.838379 0.000000
1.083984 0.840820 0.000000
0.000000 0.427490 0.026215
0.000000 0.458984 0.023132
0.000000 0.498047 0.018707
0.000000 0.548828 0.013016
0.000000 0.596191 0.006554
0.179932 0.645020 0.000000
0.394287 0.696777 0.000000
0.574707 0.743652 0.000000
0.727539 0.783203 0.000000
0.863770 0.812988 0.000000
0.945801 0.831055 0.000000
1.010742 0.844727 0.000000
1.040039 0.851074 0.000000
1.062500 0.855469 0.000000
1.080078 0.858398 0.000000
1.094727 0.861328 0.000000
0.000000 0.440674 0.030655
0.000000 0.473633 0.027679
0.000000 0.515137 0.023941
0.000000 0.568848 0.018295
0.000000 0.615723 0.009163
0.214844 0.663086 0.000000
0.410889 0.712891 0.000000
0.584961 0.757324 0.000000
0.734863 0.795898 0.000000
0.868652 0.825684 0.000000
0.951172 0.844238 0.000000
1.017578 0.858887 0.000000
1.047852 0.866699 0.000000
1.070312 0.871582 0.000000
1.088867 0.875977 0.000000
1.104492 0.879395 0.000000
0.000000 0.000000 0.002535
0.002556 0.000000 0.004021
0.005802 0.000000 0.005932
0.013229 0.000000 0.008469
0.036285 0.000000 0.011185
0.107056 0.000885 0.011955
0.174805 0.003180 0.009972
0.275635 0.000000 0.010529
0.374512 0.000000 0.007114
0.464355 0.000000 0.001837
0.523926 0.000000 0.000525
0.573730 0.000000 0.000000
0.595703 0.000000 0.000000
0.612793 0.000000 0.000000
0.627441 0.000000 0.000000
0.639648 0.000000 0.000000
0.000000 0.003075 0.005951
0.003162 0.004101 0.007175
0.007195 0.005440 0.008736
0.016373 0.007179 0.010796
0.045380 0.009880 0.013191
0.116333 0.015137 0.013741
0.190796 0.016418 0.011688
0.296631 0.014328 0.011360
0.397705 0.006088 0.006874
0.489258 0.000422 0.001518
0.548340 0.000000 0.000371
0.596680 0.000000 0.000000
0.617676 0.000000 0.000000
0.633789 0.000000 0.000000
0.647461 0.000000 0.000000
0.659668 0.000000 0.000000
0.000000 0.006767 0.010048
0.003918 0.009079 0.010948
0.008827 0.011909 0.012115
0.020309 0.016098 0.013695
0.056335 0.021713 0.015556
0.127441 0.032257 0.015869
0.210083 0.032349 0.013748
0.321533 0.031494 0.012360
0.425781 0.013367 0.006573
0.519043 0.000886 0.001147
0.577637 0.000000 0.000190
0.624023 0.000000 0.000000
0.643555 0.000000 0.000000
0.659668 0.000000 0.000000
0.671875 0.000000 0.000000
0.683594 0.000000 0.000000
0.000000 0.014542 0.015289
0.004501 0.018295 0.015839
0.010178 0.023026 0.016556
0.023972 0.029938 0.017578
0.069275 0.039795 0.018967
0.141235 0.055725 0.018890
0.234131 0.056610 0.016312
0.352783 0.058838 0.013351
0.460938 0.033691 0.005726
0.557129 0.013657 0.000642
0.615234 0.009888 0.000000
0.659180 0.004490 0.000000
0.677734 0.001385 0.000000
0.692383 0.000401 0.000000
0.704102 0.000176 0.000000
0.714355 0.000000 0.000000
0.000000 0.036469 0.020767
0.003485 0.041077 0.021255
0.007858 0.047211 0.021912
0.021957 0.056122 0.022736
0.077454 0.071106 0.023819
0.153076 0.086792 0.023285
0.256348 0.099182 0.018723
0.381104 0.110779 0.012901
0.494385 0.104431 0.002668
0.595215 0.081909 0.000023
0.654785 0.065857 0.000000
0.696289 0.029037 0.000000
0.715332 0.008568 0.000000
0.728516 0.002609 0.000000
0.739258 0.001229 0.000000
0.749023 0.000000 0.000000
0.000000 0.084473 0.028275
0.001133 0.089233 0.028671
0.002562 0.095032 0.029175
0.014854 0.104004 0.029785
0.079346 0.118164 0.029968
0.166870 0.140015 0.026871
0.281738 0.161743 0.018677
0.413086 0.180786 0.008102
0.535156 0.186035 0.000000
0.638184 0.180542 0.000000
0.699707 0.172729 0.000000
0.741211 0.159180 0.000000
0.759766 0.147583 0.000000
0.772461 0.139404 0.000000
0.782227 0.131592 0.000000
0.790527 0.125366 0.000000
0.000000 0.129272 0.033173
0.000000 0.135864 0.033081
0.000000 0.144165 0.032928
0.008774 0.157471 0.032257
0.061401 0.182007 0.028976
0.175171 0.210938 0.022125
0.307373 0.239014 0.007858
0.454102 0.267334 0.000117
0.583984 0.278320 0.000000
0.691406 0.278320 0.000000
0.751465 0.278076 0.000000
0.795410 0.263428 0.000000
0.812012 0.253174 0.000000
0.822754 0.244629 0.000000
0.831055 0.237183 0.000000
0.837891 0.230713 0.000000
0.000000 0.195801 0.040344
0.000000 0.207764 0.038147
0.000000 0.223022 0.035370
0.001822 0.244507 0.031128
0.013229 0.273926 0.023911
0.185913 0.309570 0.011154
0.340332 0.349854 0.000003
0.492676 0.380127 0.000000
0.627930 0.401123 0.000000
0.736816 0.410400 0.000000
0.804688 0.409424 0.000000
0.848633 0.406006 0.000000
0.868652 0.397705 0.000000
0.879883 0.388672 0.000000
0.888184 0.380127 0.000000
0.895508 0.372559 0.000000
0.000000 0.266357 0.033661
0.000000 0.281738 0.029968
0.000000 0.300781 0.025223
0.000000 0.328369 0.018158
0.000000 0.364746 0.007034
0.171753 0.407959 0.000000
0.357666 0.456543 0.000000
0.525879 0.491943 0.000000
0.670410 0.518555 0.000000
0.787598 0.533203 0.000000
0.855469 0.535645 0.000000
0.904785 0.533691 0.000000
0.924805 0.526367 0.000000
0.935547 0.515625 0.000000
0.943359 0.505371 0.000000
0.949707 0.496338 0.000000
0.000000 0.329834 0.029510
0.000000 0.348877 0.023285
0.000000 0.373291 0.015198
0.000000 0.406738 0.005596
0.000000 0.447998 0.000061
0.145142 0.495850 0.000000
0.364746 0.552246 0.000000
0.544922 0.591309 0.000000
0.697266 0.625488 0.000000
0.823730 0.647949 0.000000
0.895996 0.651855 0.000000
0.952148 0.659180 0.000000
0.974121 0.655762 0.000000
0.986328 0.646484 0.000000
0.994141 0.636230 0.000000
1.001953 0.627930 0.000000
0.000000 0.369385 0.027878
0.000000 0.391357 0.020340
0.000000 0.419189 0.010620
0.000000 0.457520 0.000000
0.000000 0.501953 0.000000
0.111572 0.554199 0.000000
0.366699 0.613281 0.000000
0.555176 0.658203 0.000000
0.712891 0.696289 0.000000
0.843262 0.722168 0.000000
0.921875 0.731445 0.000000
0.979004 0.740723 0.000000
1.003906 0.740234 0.000000
1.018555 0.734375 0.000000
1.029297 0.728027 0.000000
1.038086 0.722656 0.000000
0.000000 0.392578 0.027802
0.000000 0.417480 0.020233
0.000000 0.448486 0.010582
0.000000 0.490723 0.000000
0.000000 0.537109 0.000000
0.082153 0.590332 0.000000
0.364014 0.651855 0.000000
0.560547 0.700195 0.000000
0.722656 0.741699 0.000000
0.859375 0.771484 0.000000
0.937988 0.783203 0.000000
0.999023 0.794922 0.000000
1.024414 0.796875 0.000000
1.041016 0.795410 0.000000
1.054688 0.792969 0.000000
1.065430 0.791016 0.000000
0.000000 0.403809 0.033875
0.000000 0.430908 0.024704
0.000000 0.464844 0.012878
0.000000 0.510254 0.000000
0.000000 0.557129 0.000000
0.081665 0.610352 0.000000
0.362305 0.668945 0.000000
0.560547 0.720215 0.000000
0.722168 0.761719 0.000000
0.860840 0.791992 0.000000
0.944336 0.809082 0.000000
1.004883 0.819824 0.000000
1.033203 0.823242 0.000000
1.052734 0.824219 0.000000
1.067383 0.824219 0.000000
1.080078 0.824707 0.000000
0.000000 0.423096 0.047546
0.000000 0.452637 0.039276
0.000000 0.489746 0.028885
0.000000 0.538086 0.015732
0.000000 0.585449 0.007988
0.125244 0.636230 0.000000
0.380127 0.690918 0.000000
0.569824 0.739746 0.000000
0.727539 0.779785 0.000000
0.865234 0.810059 0.000000
0.948730 0.827637 0.000000
1.012695 0.839844 0.000000
1.041992 0.845215 0.000000
1.062500 0.847656 0.000000
1.079102 0.849609 0.000000
1.092773 0.851074 0.000000
0.000000 0.438721 0.058868
0.000000 0.470215 0.051514
0.000000 0.509277 0.042023
0.000000 0.561523 0.029449
0.000000 0.607910 0.014519
0.163574 0.656738 0.000000
0.395264 0.708984 0.000000
0.578125 0.754883 0.000000
0.732422 0.793945 0.000000
0.869141 0.823730 0.000000
0.951660 0.841797 0.000000
1.018555 0.854980 0.000000
1.048828 0.861816 0.000000
1.070312 0.865723 0.000000
1.086914 0.868652 0.000000
1.102539 0.871094 0.000000
0.000000 0.452393 0.068848
0.000000 0.485596 0.062286
0.000000 0.526855 0.053864
0.000000 0.581055 0.041168
0.000000 0.627930 0.020554
0.196777 0.675293 0.000000
0.408691 0.724609 0.000000
0.585449 0.768066 0.000000
0.736816 0.806152 0.000000
0.872070 0.835938 0.000000
0.954590 0.854004 0.000000
1.023438 0.868652 0.000000
1.054688 0.875977 0.000000
1.077148 0.881348 0.000000
1.094727 0.885254 0.000000
1.111328 0.888672 0.000000
0.000000 0.000000 0.006035
0.003252 0.000000 0.008713
0.007336 0.000000 0.012115
0.016602 0.000000 0.016769
0.045044 0.000000 0.022339
0.112549 0.001458 0.023895
0.180298 0.005096 0.020569
0.283203 0.000000 0.022125
0.383545 0.000000 0.016418
0.475586 0.000000 0.007446
0.536133 0.000000 0.005192
0.587402 0.000000 0.002295
0.610352 0.000000 0.001604
0.627930 0.000000 0.001479
0.641602 0.000000 0.001528
0.654297 0.000000 0.001572
0.000000 0.004551 0.012222
0.003801 0.005531 0.014328
0.008560 0.006851 0.017181
0.019501 0.008911 0.021240
0.053589 0.011765 0.026001
0.121643 0.017166 0.027283
0.196777 0.019653 0.023956
0.304443 0.015884 0.024094
0.406982 0.007835 0.016617
0.500488 0.000685 0.007607
0.561035 0.000000 0.005470
0.610352 0.000000 0.002815
0.632812 0.000000 0.002008
0.649414 0.000000 0.001774
0.662598 0.000000 0.001673
0.674316 0.000000 0.001567
0.000000 0.010010 0.019608
0.004452 0.012276 0.021255
0.010078 0.015350 0.023499
0.023102 0.019791 0.026642
0.063904 0.025909 0.030334
0.132568 0.036072 0.031433
0.216553 0.037170 0.027985
0.330078 0.035004 0.026398
0.435303 0.017227 0.016968
0.530273 0.001496 0.007736
0.591309 0.000000 0.005894
0.638184 0.000000 0.003447
0.659668 0.000000 0.002569
0.675293 0.000000 0.002117
0.687500 0.000000 0.001818
0.698730 0.000000 0.001562
0.000000 0.020554 0.029083
0.004921 0.024261 0.030106
0.011047 0.029373 0.031586
0.026154 0.036469 0.033478
0.075745 0.046570 0.036163
0.146240 0.061584 0.036987
0.241699 0.063477 0.033020
0.362305 0.064331 0.028854
0.471680 0.040100 0.016586
0.568848 0.016098 0.007851
0.630371 0.011490 0.006371
0.673828 0.006134 0.004181
0.694336 0.002100 0.003307
0.708496 0.000782 0.002661
0.720703 0.000344 0.002169
0.730957 0.000000 0.001718
0.000000 0.047546 0.038757
0.003498 0.052155 0.039246
0.007881 0.058105 0.039978
0.022659 0.066528 0.040985
0.081848 0.080261 0.043549
0.159180 0.094666 0.044220
0.267090 0.108459 0.037598
0.394775 0.118408 0.028946
0.509277 0.112549 0.012749
0.609375 0.092712 0.007439
0.671875 0.075256 0.006695
0.712402 0.040375 0.004913
0.732422 0.013885 0.004158
0.746094 0.005245 0.003641
0.756348 0.002464 0.003181
0.765137 0.000000 0.002722
0.000000 0.093689 0.049805
0.000866 0.098083 0.050049
0.001936 0.103760 0.050385
0.013954 0.112122 0.050842
0.079041 0.126221 0.052124
0.171387 0.148682 0.049591
0.291260 0.171631 0.038269
0.425293 0.188721 0.022293
0.549805 0.193237 0.009048
0.651855 0.188965 0.007275
0.717285 0.179810 0.006310
0.757324 0.166260 0.004566
0.777344 0.155151 0.003883
0.790039 0.146118 0.003395
0.799316 0.138672 0.002998
0.807617 0.132080 0.002636
0.000000 0.137817 0.056610
0.000000 0.145264 0.056152
0.000000 0.154541 0.055634
0.008072 0.168823 0.054688
0.056824 0.193237 0.052887
0.179077 0.222656 0.044312
0.314941 0.250977 0.022507
0.464355 0.278809 0.010643
0.596191 0.289551 0.008102
0.703613 0.290527 0.005203
0.767090 0.290527 0.004482
0.811523 0.275146 0.001930
0.830566 0.265625 0.001569
0.841309 0.255371 0.001377
0.848633 0.246216 0.001223
0.855469 0.238159 0.001102
0.000000 0.207764 0.067505
0.000000 0.220093 0.065186
0.000000 0.235107 0.062256
0.000000 0.256836 0.057434
0.000264 0.285156 0.048340
0.185669 0.321289 0.029297
0.346680 0.361572 0.011742
