looks/Fuji_Rec709.cube
TITLE "Generated by Foundry::LUT"
LUT_3D_SIZE 16
0.003088 0.002512 0.001685
0.005573 0.004086 0.002432
0.030838 0.006531 0.002592
0.098083 0.007721 0.002892
0.143066 0.007233 0.002281
0.198364 0.011024 0.002586
0.247070 0.008774 0.001939
0.282227 0.004959 0.001162
0.305908 0.002880 0.001057
0.323486 0.001930 0.000943
0.341797 0.001414 0.000863
0.366943 0.000726 0.000486
0.391113 0.000110 0.000066
0.405273 0.000000 0.000000
0.416260 0.000000 0.000000
0.425781 0.000000 0.000000
0.006992 0.013084 0.005886
0.016129 0.019623 0.007874
0.054260 0.029572 0.008163
0.132690 0.036957 0.008537
0.182739 0.035950 0.006657
0.243774 0.044525 0.007305
0.295898 0.037872 0.005390
0.332764 0.024689 0.003086
0.355713 0.014244 0.002731
0.373535 0.006355 0.002562
0.393311 0.003725 0.002302
0.421387 0.001937 0.001281
0.447510 0.000308 0.000199
0.463135 0.000000 0.000000
0.475342 0.000000 0.000000
0.486328 0.000000 0.000000
0.003075 0.050629 0.010872
0.015121 0.059967 0.012436
0.065796 0.073975 0.012260
0.147827 0.087585 0.011848
0.205444 0.089294 0.008575
0.269287 0.096008 0.008369
0.322510 0.092834 0.006077
0.362549 0.080566 0.002716
0.385498 0.069702 0.001959
0.405518 0.059540 0.001452
0.430664 0.056213 0.000916
0.459717 0.047394 0.000436
0.486084 0.037506 0.000069
0.502441 0.034760 0.000000
0.515625 0.033691 0.000000
0.526855 0.032654 0.000000
0.000299 0.104553 0.015144
0.007889 0.111206 0.016510
0.065247 0.123718 0.015457
0.151855 0.136597 0.014137
0.217163 0.141479 0.009911
0.280518 0.147339 0.008286
0.334961 0.147949 0.005913
0.376709 0.140137 0.002922
0.408203 0.131470 0.001149
0.438721 0.126831 0.000114
0.468506 0.126709 0.000056
0.497803 0.122864 0.000021
0.523438 0.118164 0.000004
0.540527 0.115784 0.000000
0.554199 0.114380 0.000000
0.566406 0.113464 0.000000
0.000000 0.132812 0.014481
0.001281 0.138672 0.016251
0.031281 0.152222 0.014099
0.136719 0.169922 0.013710
0.208374 0.176270 0.008469
0.271973 0.182739 0.005577
0.333740 0.188599 0.004044
0.387451 0.188843 0.001748
0.434814 0.190186 0.000000
0.472412 0.191772 0.000000
0.502441 0.192017 0.000000
0.531738 0.189575 0.000000
0.558105 0.186890 0.000000
0.575195 0.186279 0.000000
0.589355 0.185913 0.000000
0.601562 0.185547 0.000000
0.000000 0.156128 0.017380
0.000000 0.163086 0.018326
0.014694 0.176147 0.016190
0.104919 0.195312 0.014320
0.193604 0.206299 0.008965
0.261230 0.213989 0.002808
0.339111 0.230103 0.000954
0.410889 0.240356 0.000000
0.465332 0.244385 0.000000
0.503418 0.246948 0.000000
0.532715 0.248291 0.000000
0.563477 0.245972 0.000000
0.591309 0.242798 0.000000
0.608398 0.242676 0.000000
0.622070 0.243286 0.000000
0.633789 0.243652 0.000000
0.000000 0.186890 0.019730
0.000000 0.196045 0.020142
0.004299 0.212158 0.017685
0.088745 0.235107 0.013962
0.198364 0.254639 0.007236
0.279541 0.270020 0.000854
0.360840 0.285889 0.000000
0.432617 0.297607 0.000000
0.488281 0.303711 0.000000
0.528320 0.306152 0.000000
0.559570 0.306396 0.000000
0.589844 0.305664 0.000000
0.616699 0.304443 0.000000
0.634766 0.303955 0.000000
0.648926 0.303223 0.000000
0.662109 0.303223 0.000000
0.000000 0.224243 0.017609
0.000000 0.234985 0.017883
0.000000 0.253662 0.014076
0.083801 0.278564 0.009178
0.204102 0.302246 0.002401
0.291748 0.320801 0.000000
0.378174 0.335449 0.000000
0.455566 0.349121 0.000000
0.514648 0.357178 0.000000
0.554199 0.358887 0.000000
0.583984 0.357422 0.000000
0.615234 0.355713 0.000000
0.644043 0.354736 0.000000
0.661621 0.354248 0.000000
0.675293 0.353516 0.000000
0.687988 0.353516 0.000000
0.000000 0.254639 0.015915
0.000000 0.267334 0.015961
0.000000 0.288086 0.010895
0.079224 0.314941 0.004715
0.206177 0.340576 0.000296
0.299316 0.361328 0.000000
0.390625 0.376953 0.000000
0.472168 0.391602 0.000000
0.533203 0.400635 0.000000
0.573730 0.402832 0.000000
0.603027 0.400879 0.000000
0.635742 0.399414 0.000000
0.665527 0.398193 0.000000
0.683105 0.397949 0.000000
0.697266 0.397705 0.000000
0.709473 0.397705 0.000000
0.000000 0.279297 0.017395
0.000000 0.294189 0.017044
0.000000 0.316650 0.011162
0.074890 0.345459 0.003088
0.206787 0.372314 0.000075
0.305664 0.393799 0.000000
0.398926 0.411133 0.000000
0.480225 0.426270 0.000000
0.541992 0.436035 0.000000
0.584961 0.439209 0.000000
0.617188 0.438965 0.000000
0.649902 0.438477 0.000000
0.679688 0.438232 0.000000
0.698242 0.437988 0.000000
0.713379 0.438232 0.000000
0.726562 0.438232 0.000000
0.000000 0.300293 0.019165
0.000000 0.317871 0.018356
0.000000 0.341797 0.011757
0.070129 0.371582 0.002594
0.205933 0.399658 0.000000
0.310059 0.422119 0.000000
0.404785 0.441162 0.000000
0.485596 0.456543 0.000000
0.547363 0.466553 0.000000
0.592285 0.471191 0.000000
0.627441 0.472168 0.000000
0.661621 0.473633 0.000000
0.691895 0.474854 0.000000
0.711426 0.474854 0.000000
0.727539 0.475342 0.000000
0.741211 0.474854 0.000000
0.000000 0.322021 0.016342
0.000000 0.340576 0.015274
0.000000 0.366455 0.007446
0.062073 0.396729 0.000837
0.201416 0.426514 0.000000
0.309082 0.451416 0.000000
0.409180 0.468994 0.000000
0.493896 0.487061 0.000000
0.558105 0.499268 0.000000
0.603516 0.503418 0.000000
0.638672 0.503418 0.000000
0.675781 0.507324 0.000000
0.708496 0.510742 0.000000
0.728516 0.510742 0.000000
0.747070 0.509766 0.000000
0.774902 0.511230 0.000000
0.000000 0.337646 0.016418
0.000000 0.358398 0.015160
0.000000 0.385010 0.006577
0.056305 0.416260 0.000406
0.199463 0.447021 0.000000
0.310303 0.473145 0.000000
0.413330 0.490967 0.000000
0.500000 0.510254 0.000000
0.565430 0.523438 0.000000
0.611328 0.527832 0.000000
0.647461 0.528809 0.000000
0.686035 0.534180 0.000000
0.725586 0.541504 0.000000
0.752930 0.543457 0.000000
0.787598 0.548828 0.000000
0.832031 0.559082 0.000000
0.000000 0.349121 0.018829
0.000000 0.371826 0.017334
0.000000 0.399414 0.008492
0.050842 0.431885 0.000954
0.196411 0.463135 0.000000
0.309082 0.490723 0.000000
0.410645 0.509277 0.000000
0.496338 0.529785 0.000000
0.563965 0.547363 0.000000
0.613281 0.557129 0.000000
0.655273 0.563477 0.000000
0.705078 0.574707 0.000000
0.755859 0.586426 0.000000
0.796875 0.595703 0.000000
0.847168 0.609863 0.000000
0.883789 0.622559 0.000000
0.000000 0.366699 0.024719
0.000000 0.392578 0.023529
0.000000 0.421387 0.016724
0.023483 0.454346 0.005630
0.132568 0.486572 0.000331
0.267334 0.515137 0.000000
0.367188 0.538574 0.000000
0.456543 0.560059 0.000000
0.533691 0.581055 0.000000
0.602051 0.598145 0.000000
0.666016 0.613770 0.000000
0.738281 0.629883 0.000000
0.800781 0.644043 0.000000
0.856445 0.656738 0.000000
0.900391 0.667969 0.000000
0.931641 0.678223 0.000000
0.000000 0.393555 0.041992
0.000000 0.417236 0.041687
0.000000 0.447021 0.040253
0.000000 0.473633 0.034637
0.044891 0.502930 0.028580
0.150269 0.530762 0.020264
0.273438 0.555176 0.007656
0.370605 0.579102 0.000000
0.471924 0.604492 0.000000
0.577148 0.629883 0.001935
0.676270 0.653320 0.004387
0.774902 0.673828 0.004440
0.846191 0.688965 0.004757
0.905273 0.699707 0.000743
0.942383 0.709961 0.000972
0.966797 0.716309 0.002008
0.003244 0.006557 0.012123
0.009842 0.008385 0.014244
0.044525 0.011009 0.015900
0.120239 0.014839 0.017502
0.170898 0.012505 0.014267
0.228516 0.011627 0.016571
0.280518 0.007988 0.013405
0.320557 0.003403 0.009369
0.344971 0.000714 0.007286
0.364746 0.000000 0.005108
0.383545 0.000000 0.003391
0.412109 0.000000 0.002316
0.439209 0.000000 0.001122
0.454102 0.000000 0.001019
0.465576 0.000000 0.001097
0.475586 0.000000 0.001173
0.006516 0.030899 0.037445
0.023956 0.037506 0.042236
0.082520 0.045929 0.043884
0.159668 0.055847 0.043976
0.226196 0.051483 0.039001
0.291992 0.049255 0.037720
0.345215 0.039246 0.030548
0.383057 0.022873 0.020935
0.407715 0.010094 0.015381
0.426514 0.000865 0.010483
0.446777 0.000000 0.007744
0.476562 0.000000 0.005203
0.503418 0.000000 0.002373
0.519531 0.000000 0.001877
0.532715 0.000000 0.001886
0.543945 0.000000 0.001893
0.001749 0.078064 0.051636
0.016922 0.085693 0.054352
0.089172 0.095825 0.054352
0.174805 0.107056 0.052338
0.251953 0.110168 0.045227
0.319336 0.110840 0.040131
0.371582 0.103699 0.031342
0.411133 0.090027 0.019943
0.436768 0.075623 0.012474
0.458008 0.062042 0.006943
0.487549 0.056396 0.004597
0.518066 0.044617 0.003315
0.545898 0.032440 0.002270
0.562500 0.027069 0.002016
0.576172 0.023758 0.001919
0.587402 0.020874 0.001868
0.000188 0.127686 0.060394
0.009491 0.133301 0.062012
0.080627 0.146118 0.059814
0.176392 0.159058 0.054901
0.259033 0.165894 0.045044
0.329102 0.166382 0.036499
0.383057 0.161621 0.026840
0.424805 0.152344 0.015686
0.457764 0.140869 0.007328
0.491455 0.133057 0.002897
0.525879 0.129761 0.002495
0.557129 0.124084 0.002253
0.583984 0.118164 0.002104
0.601562 0.113586 0.001898
0.615723 0.109558 0.001737
0.628418 0.106079 0.001602
0.000000 0.158081 0.054291
0.001418 0.166260 0.057251
0.039581 0.180176 0.052338
0.159180 0.197754 0.049225
0.245728 0.204224 0.035248
0.317627 0.207520 0.024658
0.379883 0.207031 0.017059
0.432617 0.202637 0.008354
0.482666 0.201782 0.003008
0.524902 0.200928 0.002663
0.559570 0.197876 0.002344
0.590332 0.193604 0.002144
0.616699 0.189209 0.002068
0.634766 0.187134 0.001795
0.649902 0.185303 0.001577
0.663086 0.183716 0.001383
0.000000 0.182129 0.050934
0.000000 0.191162 0.052490
0.019135 0.204468 0.046967
0.121216 0.223633 0.041443
0.225220 0.236084 0.027176
0.304932 0.242920 0.011024
0.385254 0.255127 0.005875
0.456299 0.259766 0.003269
0.512695 0.260498 0.002886
0.554688 0.261230 0.002478
0.588379 0.260742 0.002100
0.621094 0.255859 0.001826
0.649902 0.250732 0.001597
0.667969 0.250000 0.001282
0.682617 0.249634 0.001147
0.694824 0.249390 0.001005
0.000000 0.214600 0.051910
0.000000 0.225220 0.052826
0.005318 0.242188 0.047028
0.099670 0.265381 0.037872
0.225952 0.286377 0.021729
0.321533 0.300781 0.006187
0.405518 0.312500 0.003548
0.476318 0.319580 0.003160
0.533691 0.322510 0.002750
0.578125 0.322998 0.002081
0.614746 0.321533 0.001412
0.646484 0.319580 0.001122
0.673340 0.317627 0.000961
0.692383 0.315918 0.000699
0.708984 0.314697 0.000369
0.722656 0.313232 0.000192
0.000000 0.254639 0.047272
0.000000 0.266113 0.047882
0.000000 0.285645 0.038727
0.094543 0.311523 0.026718
0.231934 0.335693 0.010498
0.332764 0.353516 0.004257
0.421387 0.364990 0.003654
0.497314 0.373291 0.003109
0.557617 0.378174 0.002516
0.602051 0.378906 0.001781
0.637207 0.376953 0.001097
0.669922 0.374023 0.000626
0.698242 0.371338 0.000357
0.717773 0.370605 0.000209
0.733887 0.370361 0.000070
0.747559 0.370117 0.000000
0.000000 0.287598 0.043457
0.000000 0.301270 0.043579
0.000000 0.323242 0.031525
0.090088 0.352051 0.016418
0.234863 0.378662 0.005547
0.341064 0.398438 0.004311
0.434082 0.411377 0.003628
0.514160 0.420654 0.002914
0.577148 0.426270 0.002161
0.622070 0.428223 0.001310
0.656738 0.427246 0.000597
0.690918 0.424316 0.000237
0.721191 0.421143 0.000000
0.740723 0.420898 0.000000
0.756836 0.422119 0.000000
0.770508 0.422607 0.000000
0.000000 0.314209 0.047302
0.000000 0.332031 0.046478
0.000000 0.356445 0.032471
0.082581 0.387939 0.012711
0.234741 0.415771 0.005123
0.348633 0.437012 0.004360
0.444580 0.452881 0.003357
0.524902 0.462646 0.002659
0.588379 0.469238 0.001763
0.636230 0.472412 0.000680
0.674316 0.473389 0.000143
0.708984 0.471436 0.000000
0.738770 0.469482 0.000000
0.759277 0.469971 0.000000
0.776367 0.470703 0.000000
0.791504 0.471436 0.000000
0.000000 0.337402 0.051788
0.000000 0.358887 0.049957
0.000000 0.386230 0.034271
0.074463 0.419678 0.011612
0.233154 0.448975 0.005051
0.354736 0.470703 0.004459
0.452881 0.488525 0.003212
0.533203 0.500000 0.002470
0.597168 0.506836 0.001551
0.647949 0.511230 0.000306
0.689941 0.514160 0.000068
0.725098 0.515137 0.000000
0.755371 0.515625 0.000000
0.776855 0.515625 0.000000
0.794922 0.515625 0.000000
0.810547 0.516113 0.000000
0.000000 0.360596 0.045349
0.000000 0.383545 0.042816
0.000000 0.413330 0.024399
0.069214 0.447021 0.008026
0.232178 0.478760 0.005432
0.356689 0.503906 0.004730
0.459229 0.519531 0.003637
0.543945 0.534180 0.002575
0.611328 0.544434 0.001456
0.661621 0.548340 0.000295
0.702637 0.549805 0.000067
0.742188 0.553711 0.000000
0.777344 0.557617 0.000000
0.797852 0.557129 0.000000
0.816895 0.554688 0.000000
0.845703 0.556641 0.000000
0.000000 0.377686 0.045898
0.000000 0.402588 0.042877
0.000000 0.434082 0.022629
0.063843 0.468506 0.007309
0.231689 0.501465 0.005768
0.359375 0.528809 0.005020
0.464600 0.543945 0.003952
0.551758 0.560547 0.002813
0.620605 0.572754 0.001564
0.671387 0.576660 0.000362
0.712891 0.578613 0.000100
0.753906 0.584473 0.000000
0.796387 0.592285 0.000000
0.822754 0.593262 0.000000
0.854004 0.595703 0.000000
0.893066 0.603516 0.000000
0.000000 0.389893 0.051483
0.000000 0.417480 0.047974
0.000000 0.449707 0.026825
0.057098 0.485840 0.008331
0.226685 0.519531 0.004997
0.358643 0.548340 0.003893
0.462646 0.565918 0.002741
0.548828 0.583008 0.001448
0.619141 0.599121 0.000484
0.671875 0.607910 0.000000
0.717773 0.614746 0.000000
0.768066 0.624023 0.000000
0.816406 0.633301 0.000000
0.853516 0.638672 0.000000
0.896484 0.646973 0.000000
0.924805 0.654785 0.000000
0.000000 0.404541 0.059082
0.000000 0.435059 0.056244
0.000000 0.467529 0.039795
0.025696 0.504395 0.013451
0.149414 0.538574 0.000792
0.305664 0.567383 0.000000
0.412354 0.590820 0.000000
0.501465 0.610352 0.000000
0.579102 0.626953 0.000000
0.647949 0.641602 0.000000
0.711426 0.654297 0.000000
0.780273 0.666016 0.000000
0.838867 0.675781 0.000000
0.887695 0.683105 0.000000
0.925293 0.688965 0.000000
0.948730 0.694336 0.000000
0.000000 0.421387 0.082886
0.000000 0.447021 0.081787
0.000000 0.479004 0.078918
0.000000 0.506836 0.067200
0.042694 0.537598 0.055054
0.154907 0.565430 0.038055
0.293213 0.589355 0.014473
0.396729 0.612305 0.000000
0.497803 0.634277 0.000000
0.601074 0.655762 0.003225
0.699707 0.676270 0.007702
0.792969 0.691406 0.006908
0.860840 0.703125 0.006245
0.915527 0.709961 0.000743
0.947754 0.715332 0.001101
0.969238 0.719727 0.002203
0.001818 0.008621 0.047485
0.008759 0.010559 0.054504
0.046661 0.013741 0.060974
0.128052 0.016632 0.065002
0.182373 0.012566 0.058929
0.240356 0.011322 0.064026
0.291016 0.007324 0.057007
0.329346 0.002935 0.045990
0.355713 0.000737 0.039124
0.376221 0.000000 0.031860
0.399658 0.000000 0.029770
0.428955 0.000000 0.026108
0.455811 0.000000 0.021317
0.471924 0.000000 0.022339
0.484619 0.000000 0.024490
0.495850 0.000000 0.026260
0.003153 0.039032 0.094788
0.019440 0.045471 0.102600
0.083923 0.054260 0.106628
0.168579 0.061859 0.108521
0.242798 0.055023 0.102600
0.310547 0.051239 0.100891
0.362305 0.038849 0.090759
0.399170 0.022934 0.076660
0.425049 0.010277 0.066284
0.446533 0.000321 0.056549
0.471191 0.000000 0.050995
0.500977 0.000000 0.046661
0.526367 0.000000 0.041565
0.543945 0.000000 0.040894
0.558594 0.000000 0.041199
0.571289 0.000000 0.041412
0.000000 0.090881 0.114197
0.010658 0.098511 0.120667
0.081848 0.108521 0.123535
0.181274 0.118652 0.124268
0.266846 0.121399 0.117310
0.336426 0.119080 0.110229
0.389893 0.110046 0.098206
0.427979 0.095398 0.083984
0.455566 0.080505 0.070679
0.480713 0.065918 0.059143
0.514160 0.058441 0.054535
0.543945 0.048309 0.050720
0.568848 0.038696 0.047119
0.587402 0.031342 0.044891
0.602539 0.025299 0.043152
0.616211 0.019974 0.041595
0.000000 0.142578 0.126343
0.005444 0.148926 0.130371
0.058807 0.162354 0.131470
0.177246 0.173340 0.128784
0.270264 0.179810 0.120789
0.344482 0.176636 0.108704
0.399902 0.168457 0.093933
0.441895 0.158813 0.079895
0.477783 0.146851 0.067078
0.517090 0.138672 0.058533
0.556641 0.133789 0.052673
0.585938 0.129517 0.049194
0.609375 0.125610 0.046722
0.628418 0.119446 0.042847
0.645508 0.113159 0.039032
0.659668 0.107727 0.035675
0.000000 0.176880 0.122192
0.000539 0.185913 0.125610
0.015564 0.200073 0.124756
0.156128 0.215088 0.121582
0.252686 0.220337 0.111755
0.331299 0.221313 0.099792
0.395996 0.216675 0.085266
0.449463 0.211670 0.073608
0.501465 0.211548 0.067139
0.550293 0.211426 0.059784
0.591309 0.208618 0.052124
0.621582 0.206177 0.048187
0.645020 0.203979 0.045746
0.664551 0.200928 0.040649
0.682129 0.197754 0.035370
0.696777 0.194946 0.030853
0.000000 0.202026 0.113647
0.000000 0.211182 0.113220
0.003662 0.224243 0.111938
0.111572 0.241211 0.106934
0.229248 0.253174 0.099792
0.317139 0.260254 0.090454
0.401123 0.270020 0.081177
0.470947 0.273438 0.072876
0.528809 0.275146 0.064758
0.577637 0.278076 0.056305
0.619141 0.279541 0.047546
0.651855 0.276611 0.040680
0.678711 0.272949 0.035034
0.698242 0.271729 0.030090
0.714355 0.270752 0.025650
0.728516 0.269775 0.021881
0.000000 0.236084 0.113708
0.000000 0.246338 0.112061
0.000253 0.263428 0.111084
0.089417 0.284668 0.105896
0.225952 0.304932 0.099915
0.333008 0.319824 0.092590
0.421143 0.328613 0.078857
0.492920 0.335693 0.070496
0.553223 0.340820 0.061401
0.606445 0.343994 0.046997
0.651367 0.344971 0.030945
0.682129 0.344482 0.024811
0.706055 0.343994 0.022232
0.726562 0.341309 0.016052
0.745117 0.339111 0.009605
0.760742 0.336670 0.004025
0.000000 0.279541 0.120972
0.000000 0.290771 0.119934
0.000000 0.310547 0.118225
0.082947 0.334717 0.112671
0.228638 0.357422 0.104736
0.341553 0.375244 0.094971
0.435547 0.385498 0.081360
0.511719 0.393555 0.069336
0.574707 0.399902 0.056305
0.627441 0.403809 0.040710
0.671875 0.405518 0.024063
0.705566 0.405762 0.014267
0.732910 0.405518 0.007423
0.753418 0.404297 0.004173
0.770508 0.402832 0.001948
0.786133 0.401611 0.000000
0.000000 0.314697 0.126709
0.000000 0.329346 0.126343
0.000000 0.351562 0.124146
0.072754 0.379395 0.117493
0.228638 0.404541 0.107971
0.348145 0.423828 0.096008
0.447510 0.437012 0.080505
0.527832 0.445312 0.065125
0.592773 0.451660 0.048065
0.645996 0.456787 0.029572
0.689941 0.460205 0.012421
0.726074 0.460693 0.004742
0.755371 0.460449 0.000711
0.776367 0.459961 0.000000
0.793945 0.460205 0.000000
0.809082 0.459717 0.000000
0.000000 0.343018 0.134155
0.000000 0.362305 0.133301
0.000000 0.387207 0.130371
0.053650 0.418701 0.120544
0.224243 0.445801 0.109863
0.355713 0.466553 0.097168
0.458984 0.482910 0.075134
0.540039 0.491943 0.059052
0.606934 0.499023 0.040436
0.663086 0.505371 0.016479
0.710449 0.510254 0.003298
0.745117 0.510742 0.000000
0.772949 0.509766 0.000000
0.795410 0.510254 0.000000
0.814453 0.510254 0.000000
0.831543 0.510742 0.000000
0.000000 0.367432 0.141968
0.000000 0.390869 0.140625
0.000000 0.418701 0.137207
0.030792 0.452637 0.124634
0.217896 0.481934 0.112915
0.361816 0.503906 0.099792
0.468262 0.522461 0.071838
0.550293 0.533203 0.055115
0.618164 0.540527 0.035278
0.677734 0.548340 0.007141
0.728027 0.554199 0.001429
0.761719 0.555176 0.000000
0.787598 0.554688 0.000000
0.811035 0.555176 0.000000
0.832520 0.555664 0.000000
0.850586 0.556641 0.000000
0.000000 0.391357 0.147217
0.000000 0.416016 0.147705
0.000000 0.446045 0.144287
0.012619 0.479980 0.133423
0.213501 0.512207 0.120972
0.361816 0.537598 0.105835
0.472656 0.553711 0.080933
0.559082 0.567383 0.058594
0.628906 0.577637 0.033020
0.687012 0.584473 0.006897
0.734863 0.587891 0.001379
0.772949 0.591309 0.000000
0.803711 0.594238 0.000000
0.826660 0.594238 0.000000
0.849121 0.592285 0.000000
0.875488 0.591797 0.000000
0.000000 0.408691 0.153076
0.000000 0.435791 0.154663
0.000000 0.467285 0.151245
0.004162 0.502441 0.140991
0.210815 0.536621 0.128296
0.363770 0.563477 0.111694
0.477539 0.580078 0.087646
0.566406 0.595215 0.063232
0.637207 0.606934 0.035217
0.694824 0.612793 0.008667
0.742188 0.615723 0.001747
0.781738 0.620605 0.000000
0.818848 0.626465 0.000000
0.850098 0.627930 0.000000
0.883789 0.629883 0.000000
0.919922 0.635742 0.000000
0.000000 0.421143 0.158569
0.000000 0.450928 0.160522
0.000000 0.483887 0.157227
0.003695 0.520996 0.146484
0.202881 0.555176 0.133301
0.361572 0.584473 0.116455
0.475586 0.603027 0.091187
0.563477 0.619141 0.068665
0.634277 0.633301 0.044495
0.692871 0.642578 0.014046
0.745605 0.650879 0.004227
0.795410 0.659668 0.000546
0.844238 0.667969 0.000000
0.887207 0.673828 0.000000
0.928223 0.680664 0.000000
0.957031 0.686523 0.000000
0.000000 0.433594 0.152832
0.000000 0.466553 0.154785
0.000000 0.500977 0.150635
0.006668 0.539062 0.137939
0.113647 0.574707 0.123047
0.302002 0.604004 0.110535
0.423584 0.628418 0.093445
0.519043 0.648438 0.075012
0.599609 0.664062 0.060455
0.671875 0.676758 0.044312
0.743164 0.690430 0.023666
0.812012 0.700684 0.013809
0.873535 0.709473 0.009056
0.922852 0.715332 0.004658
0.958984 0.718750 0.000000
0.973633 0.716797 0.000000
0.000000 0.447754 0.145264
0.000000 0.475342 0.145630
0.000000 0.509277 0.143677
0.000000 0.539551 0.132935
0.028702 0.571289 0.118225
0.139771 0.600098 0.095764
0.302490 0.625000 0.062805
0.418213 0.648438 0.034332
0.524902 0.670898 0.019684
0.631836 0.690430 0.010887
0.731445 0.707520 0.011009
0.817871 0.716309 0.010460
0.881348 0.722656 0.008972
0.929688 0.724121 0.001239
0.956055 0.724121 0.001361
0.973633 0.724121 0.002462
0.000125 0.010872 0.121948
0.003847 0.013092 0.130127
0.042328 0.016464 0.137817
0.129517 0.018356 0.143311
0.189209 0.014290 0.144409
0.249390 0.011520 0.142700
0.300049 0.007233 0.137817
0.338135 0.002863 0.126953
0.365723 0.000713 0.111694
0.388916 0.000000 0.097351
0.412354 0.000000 0.090454
0.443604 0.000000 0.087952
0.471924 0.000000 0.084045
0.488037 0.000000 0.085449
0.500488 0.000000 0.087830
0.510742 0.000000 0.089661
0.000222 0.048615 0.168823
0.009254 0.055206 0.177734
0.069946 0.062988 0.184570
0.167847 0.068176 0.188232
0.251709 0.061249 0.186401
0.322510 0.054077 0.179199
0.374512 0.040253 0.169434
0.411621 0.022583 0.154175
0.438965 0.009712 0.136353
0.460693 0.000329 0.120728
0.486328 0.000000 0.114746
0.517090 0.000000 0.111389
0.543457 0.000000 0.106934
0.561035 0.000000 0.107666
0.575195 0.000000 0.109375
0.587402 0.000000 0.110779
0.000000 0.105286 0.192871
0.004906 0.112732 0.200317
0.055023 0.122437 0.206909
0.174927 0.130127 0.208984
0.271973 0.133179 0.204834
0.346191 0.128174 0.193726
0.399658 0.118286 0.180786
0.438232 0.103210 0.163330
0.467529 0.084839 0.143921
0.492920 0.069153 0.129272
0.526855 0.061615 0.126953
0.558105 0.050934 0.124023
0.584473 0.039734 0.120483
0.603027 0.033417 0.120728
0.618164 0.028198 0.121704
0.631348 0.023743 0.122559
0.000000 0.159302 0.206665
0.000656 0.166504 0.211914
0.022583 0.180176 0.217285
0.160156 0.189209 0.216797
0.271484 0.195312 0.210693
0.350830 0.189331 0.196899
0.407227 0.180176 0.181641
0.450439 0.169800 0.164795
0.487793 0.156128 0.148438
0.528320 0.147461 0.141968
0.566895 0.142822 0.140625
0.598145 0.138428 0.138062
0.624023 0.134521 0.135376
0.643555 0.129517 0.135010
0.659668 0.124329 0.135132
0.673828 0.119446 0.135254
0.000000 0.197266 0.202759
0.000000 0.207642 0.207520
0.001348 0.221436 0.210083
0.136353 0.235107 0.209839
0.250732 0.239746 0.201904
0.335693 0.238159 0.188965
0.403076 0.232178 0.175781
0.459229 0.225586 0.163452
0.513184 0.224121 0.157227
0.560547 0.223145 0.154053
0.601074 0.219971 0.151733
0.633789 0.218018 0.149170
0.660156 0.216431 0.146729
0.679688 0.213501 0.145874
0.696777 0.210938 0.145508
0.711426 0.208740 0.145020
0.000000 0.221802 0.185547
0.000000 0.232910 0.189453
0.000000 0.246094 0.190552
0.090576 0.263672 0.191406
0.223389 0.275146 0.187012
0.321289 0.280518 0.180054
0.409180 0.290283 0.177979
0.481689 0.292725 0.171875
0.541016 0.292725 0.165771
0.589844 0.294678 0.163086
0.631348 0.296387 0.161377
0.666016 0.294189 0.157349
0.695312 0.290527 0.153076
0.714844 0.289795 0.152588
0.730957 0.289551 0.152954
0.744629 0.288818 0.153198
0.000000 0.258545 0.186401
0.000000 0.270996 0.190552
0.000000 0.288574 0.193726
0.063843 0.311523 0.196655
0.214966 0.331543 0.196167
0.334229 0.344482 0.192993
0.427002 0.353760 0.188721
0.501953 0.359375 0.183228
0.563965 0.363037 0.177856
0.616699 0.364502 0.173218
0.661133 0.365967 0.169434
0.694336 0.365967 0.166016
0.721191 0.365479 0.163086
0.742188 0.364014 0.161621
0.760254 0.362061 0.160522
0.775879 0.360840 0.159668
0.000000 0.304199 0.197998
0.000000 0.316895 0.201904
0.000000 0.337402 0.204956
0.047455 0.363281 0.207764
0.211914 0.385742 0.206177
0.339844 0.401611 0.201416
0.439941 0.412354 0.197754
