looks/Fuji_Rec709.cube
TITLE "Generated by Foundry::LUT"
LUT_3D_SIZE 6
0.003088 0.002512 0.001685
0.098083 0.007721 0.002892
0.247070 0.008774 0.001939
0.323486 0.001930 0.000943
0.391113 0.000110 0.000066
0.425781 0.000000 0.000000
0.000299 0.104553 0.015144
0.151855 0.136597 0.014137
0.334961 0.147949 0.005913
0.438721 0.126831 0.000114
0.523438 0.118164 0.000004
0.566406 0.113464 0.000000
0.000000 0.186890 0.019730
0.088745 0.235107 0.013962
0.360840 0.285889 0.000000
0.528320 0.306152 0.000000
0.616699 0.304443 0.000000
0.662109 0.303223 0.000000
0.000000 0.279297 0.017395
0.074890 0.345459 0.003088
0.398926 0.411133 0.000000
0.584961 0.439209 0.000000
0.679688 0.438232 0.000000
0.726562 0.438232 0.000000
0.000000 0.337646 0.016418
0.056305 0.416260 0.000406
0.413330 0.490967 0.000000
0.611328 0.527832 0.000000
0.725586 0.541504 0.000000
0.832031 0.559082 0.000000
0.000000 0.393555 0.041992
0.000000 0.473633 0.034637
0.273438 0.555176 0.007656
0.577148 0.629883 0.001935
0.846191 0.688965 0.004757
0.966797 0.716309 0.002008
0.000125 0.010872 0.121948
0.129517 0.018356 0.143311
0.300049 0.007233 0.137817
0.388916 0.000000 0.097351
0.471924 0.000000 0.084045
0.510742 0.000000 0.089661
0.000000 0.159302 0.206665
0.160156 0.189209 0.216797
0.407227 0.180176 0.181641
0.528320 0.147461 0.141968
0.624023 0.134521 0.135376
0.673828 0.119446 0.135254
0.000000 0.258545 0.186401
0.063843 0.311523 0.196655
0.427002 0.353760 0.188721
0.616699 0.364502 0.173218
0.721191 0.365479 0.163086
0.775879 0.360840 0.159668
0.000000 0.371094 0.218994
0.002907 0.451172 0.229248
0.459961 0.516602 0.214722
0.671875 0.535156 0.193237
0.787598 0.541016 0.176025
0.845703 0.543457 0.171387
0.000000 0.438721 0.244141
0.000000 0.536133 0.257324
0.472900 0.615723 0.238770
0.702148 0.646484 0.210815
0.834961 0.662598 0.175659
0.936523 0.668945 0.100830
0.000000 0.473389 0.233398
0.000000 0.568848 0.241333
0.282227 0.654297 0.201172
0.636719 0.713379 0.108887
0.905762 0.747070 0.021027
0.980469 0.732422 0.002916
0.000000 0.013329 0.262939
0.105286 0.014069 0.304688
0.301758 0.002584 0.307373
0.400635 0.000000 0.275391
0.490723 0.000000 0.273926
0.532227 0.000000 0.275391
0.000000 0.192871 0.391602
0.053345 0.221924 0.434814
0.398682 0.203003 0.409180
0.545898 0.172363 0.379150
0.638672 0.158691 0.375977
0.692383 0.139038 0.375732
0.000000 0.315674 0.397461
0.000000 0.376465 0.443848
0.408691 0.416016 0.459717
0.623535 0.419922 0.454834
0.729980 0.417480 0.451660
0.790527 0.410156 0.452637
0.000000 0.436035 0.443359
0.000000 0.528809 0.493164
0.416748 0.594727 0.508301
0.665527 0.607910 0.504395
0.784668 0.608887 0.500000
0.850586 0.611328 0.500488
0.000000 0.502930 0.472412
0.000000 0.613281 0.528809
0.410156 0.694336 0.543457
0.684570 0.721191 0.539062
0.822754 0.732910 0.521484
0.942871 0.745117 0.473145
0.000000 0.539551 0.454346
0.000000 0.635254 0.486816
0.064636 0.721191 0.482910
0.612793 0.785645 0.433594
0.924805 0.814941 0.313965
1.015625 0.798340 0.132324
0.000000 0.013214 0.336670
0.054718 0.009941 0.387695
0.280029 0.000098 0.399414
0.393555 0.000000 0.392090
0.493408 0.000000 0.396729
0.534180 0.000000 0.396484
0.000000 0.195679 0.480957
0.007210 0.220215 0.542969
0.372070 0.206177 0.541504
0.543945 0.184082 0.534180
0.638672 0.169189 0.533203
0.690918 0.153076 0.535645
0.000000 0.347168 0.529297
0.000000 0.410889 0.594238
0.376953 0.452881 0.627441
0.611328 0.454346 0.630859
0.722656 0.448242 0.628418
0.783203 0.441162 0.630859
0.000000 0.473145 0.578613
0.000000 0.567871 0.647949
0.356445 0.635742 0.681152
0.642090 0.649414 0.687012
0.769531 0.648438 0.686523
0.834961 0.649414 0.687500
0.000000 0.541016 0.607422
0.000000 0.654297 0.682617
0.325439 0.737305 0.715820
0.650391 0.767090 0.721680
0.805664 0.784180 0.719727
0.930176 0.804688 0.710449
0.000000 0.587402 0.627441
0.000000 0.683594 0.682617
0.000000 0.775879 0.714844
0.534668 0.855957 0.729980
0.901855 0.907715 0.717773
0.995117 0.916992 0.708008
0.000000 0.008507 0.379395
0.008232 0.006142 0.427246
0.246704 0.000000 0.450195
0.384521 0.000000 0.461182
0.489990 0.000000 0.469238
0.531738 0.000000 0.467773
0.000000 0.181519 0.522461
0.000000 0.203125 0.582520
0.345459 0.203247 0.610352
0.534668 0.187256 0.618652
0.632812 0.169067 0.621094
0.685059 0.154785 0.621094
0.000000 0.358643 0.596191
0.000000 0.423584 0.669434
0.346436 0.465088 0.710938
0.596191 0.466553 0.721191
0.712402 0.459229 0.722656
0.772949 0.453613 0.723633
0.000000 0.486572 0.645508
0.000000 0.582520 0.725098
0.307861 0.650391 0.767578
0.622559 0.665527 0.780762
0.756836 0.664062 0.785156
0.822266 0.664551 0.784668
0.000000 0.557129 0.671875
0.000000 0.670898 0.757324
0.250488 0.753418 0.798828
0.625977 0.787598 0.816406
0.795898 0.813965 0.838379
0.917969 0.841309 0.865234
0.000000 0.614746 0.731934
0.000000 0.704590 0.796875
0.000000 0.797852 0.851074
0.434326 0.890625 0.899902
0.868652 0.954102 0.932617
0.964844 0.968750 0.945801
0.000000 0.011040 0.393066
0.000000 0.007198 0.441650
0.227783 0.000000 0.477051
0.376953 0.000000 0.493896
0.482666 0.000000 0.501953
0.527832 0.000000 0.503418
0.000000 0.175537 0.543457
0.000000 0.198730 0.612793
0.332764 0.204712 0.653320
0.528320 0.188354 0.664062
0.626465 0.171387 0.667480
0.682129 0.151978 0.669434
0.000000 0.365234 0.627930
0.000000 0.431885 0.710449
0.324463 0.472412 0.757812
0.586914 0.472412 0.769531
0.704102 0.466553 0.772949
0.768066 0.459717 0.776855
0.000000 0.492432 0.676270
0.000000 0.591797 0.764648
0.270020 0.662109 0.813965
0.612305 0.677734 0.830566
0.747559 0.675293 0.835449
0.817871 0.677246 0.839844
0.000000 0.562012 0.701172
0.000000 0.677246 0.793945
0.172852 0.763184 0.845703
0.605469 0.801270 0.875488
0.785645 0.830078 0.906250
0.912598 0.860840 0.937988
0.000000 0.624512 0.767090
0.000000 0.702637 0.825684
0.000000 0.790527 0.878906
0.376709 0.894531 0.935547
0.865234 0.962891 0.973145
0.959961 0.975586 0.981934
