looks/Kodak_Rec709.cube
TITLE "Generated by Foundry::LUT"
LUT_3D_SIZE 16
0.004421 0.005466 0.005798
0.022308 0.010025 0.008003
0.071777 0.015541 0.009293
0.147339 0.022400 0.009399
0.203491 0.020340 0.008064
0.266602 0.020859 0.008110
0.322754 0.016708 0.006615
0.365234 0.011505 0.004951
0.393799 0.008446 0.004517
0.417480 0.005676 0.004017
0.441650 0.002716 0.003403
0.473633 0.001013 0.001968
0.502441 0.000127 0.000514
0.520020 0.000000 0.000263
0.533691 0.000000 0.000249
0.546875 0.000000 0.000226
0.005768 0.021439 0.011322
0.031860 0.034088 0.012680
0.093079 0.048767 0.013206
0.173096 0.064087 0.012718
0.241821 0.061096 0.010750
0.310547 0.062988 0.009789
0.368896 0.055817 0.007500
0.411865 0.041077 0.005089
0.439697 0.028107 0.004276
0.462646 0.015182 0.003584
0.487061 0.006298 0.002649
0.520508 0.002363 0.001365
0.550781 0.000338 0.000198
0.567871 0.000000 0.000013
0.581055 0.000000 0.000013
0.593262 0.000000 0.000012
0.003778 0.054962 0.016418
0.030029 0.070312 0.017944
0.101074 0.087463 0.017776
0.185181 0.105164 0.015541
0.259521 0.111572 0.012238
0.330322 0.117859 0.010048
0.389160 0.116089 0.007320
0.432861 0.105164 0.004425
0.461426 0.092712 0.002985
0.487793 0.080688 0.001932
0.520508 0.072754 0.000937
0.554688 0.064209 0.000367
0.585449 0.055328 0.000046
0.603516 0.052429 0.000000
0.617188 0.051666 0.000000
0.629883 0.049042 0.000000
0.000871 0.099792 0.020935
0.022049 0.115234 0.021942
0.100281 0.133545 0.020386
0.188721 0.153687 0.016586
0.270020 0.165527 0.012238
0.340088 0.172241 0.008980
0.399170 0.172607 0.005898
0.445557 0.165527 0.002857
0.481445 0.156006 0.001293
0.519043 0.152222 0.000341
0.557617 0.151245 0.000068
0.592773 0.145874 0.000000
0.624023 0.139404 0.000000
0.642578 0.137329 0.000000
0.657227 0.136475 0.000000
0.669922 0.134155 0.000000
0.000000 0.127808 0.022888
0.010704 0.144409 0.022934
0.077759 0.167725 0.019806
0.172241 0.189453 0.015343
0.262695 0.205566 0.010925
0.333984 0.214355 0.006500
0.398926 0.219116 0.003433
0.456787 0.219727 0.001054
0.509766 0.221802 0.000047
0.555664 0.224609 0.000000
0.594727 0.225342 0.000000
0.629883 0.223877 0.000000
0.661133 0.222046 0.000000
0.680664 0.220947 0.000000
0.695801 0.220093 0.000000
0.709473 0.219238 0.000000
0.000000 0.150146 0.025070
0.001299 0.166870 0.024551
0.047302 0.190430 0.019791
0.141602 0.213501 0.015114
0.245483 0.236450 0.010078
0.323486 0.248657 0.003176
0.405273 0.265137 0.000307
0.481934 0.275146 0.000000
0.542969 0.280762 0.000000
0.588379 0.286133 0.000000
0.627441 0.289551 0.000000
0.665527 0.287598 0.000000
0.699707 0.284912 0.000000
0.718262 0.285889 0.000000
0.731445 0.287109 0.000000
0.744141 0.287598 0.000000
0.000000 0.181885 0.026825
0.000000 0.202881 0.024765
0.027695 0.229004 0.019104
0.131348 0.259277 0.013115
0.250244 0.289307 0.005871
0.342041 0.310547 0.000169
0.427734 0.329346 0.000000
0.503906 0.341797 0.000000
0.565918 0.350830 0.000000
0.614258 0.356689 0.000000
0.654297 0.360352 0.000000
0.691406 0.361572 0.000000
0.724609 0.362793 0.000000
0.744629 0.362549 0.000000
0.760254 0.362549 0.000000
0.773926 0.362793 0.000000
0.000000 0.223022 0.024048
0.000000 0.249023 0.019638
0.008842 0.277832 0.014648
0.122498 0.310791 0.007290
0.258057 0.343506 0.001224
0.356445 0.370605 0.000000
0.445557 0.388184 0.000000
0.524902 0.403076 0.000000
0.588867 0.414062 0.000000
0.637695 0.419922 0.000000
0.679199 0.424072 0.000000
0.717285 0.427490 0.000000
0.751953 0.430664 0.000000
0.771973 0.430664 0.000000
0.787109 0.429688 0.000000
0.801270 0.429443 0.000000
0.000000 0.257080 0.020172
0.000000 0.286133 0.015114
0.000000 0.317627 0.009682
0.111084 0.353760 0.002161
0.261963 0.389893 0.000010
0.364990 0.419189 0.000000
0.458740 0.438232 0.000000
0.542480 0.453857 0.000000
0.608887 0.466797 0.000000
0.658203 0.473389 0.000000
0.699707 0.477539 0.000000
0.740234 0.481689 0.000000
0.777344 0.486572 0.000000
0.796387 0.486084 0.000000
0.811035 0.485596 0.000000
0.824219 0.485596 0.000000
0.000000 0.285645 0.018234
0.000000 0.317627 0.013107
0.000000 0.351807 0.006287
0.106262 0.390381 0.000794
0.263916 0.427979 0.000000
0.372070 0.458984 0.000000
0.468506 0.479736 0.000000
0.553223 0.496582 0.000000
0.620605 0.509766 0.000000
0.671387 0.517578 0.000000
0.714355 0.522949 0.000000
0.754883 0.527832 0.000000
0.791504 0.532715 0.000000
0.812500 0.533691 0.000000
0.828125 0.533691 0.000000
0.842285 0.534180 0.000000
0.000000 0.310303 0.018005
0.000000 0.345459 0.012085
0.000000 0.381592 0.003571
0.104919 0.421875 0.000141
0.263916 0.461182 0.000000
0.377197 0.491943 0.000000
0.475586 0.515137 0.000000
0.559570 0.533203 0.000000
0.626953 0.546387 0.000000
0.680176 0.556152 0.000000
0.725098 0.562988 0.000000
0.765137 0.568359 0.000000
0.800293 0.573242 0.000000
0.822754 0.574707 0.000000
0.840820 0.576172 0.000000
0.856445 0.576660 0.000000
0.000000 0.334473 0.015312
0.000000 0.372314 0.007927
0.000000 0.410156 0.001999
0.091187 0.452148 0.000001
0.262207 0.492432 0.000000
0.378662 0.526367 0.000000
0.480225 0.548828 0.000000
0.566895 0.568848 0.000000
0.636230 0.584473 0.000000
0.689941 0.593750 0.000000
0.735840 0.600098 0.000000
0.778320 0.607910 0.000000
0.815430 0.614746 0.000000
0.837891 0.616211 0.000000
0.858398 0.617188 0.000000
0.886719 0.621094 0.000000
0.000000 0.355957 0.012474
0.000000 0.396240 0.003616
0.000000 0.435547 0.000808
0.076660 0.479004 0.000000
0.260254 0.520020 0.000000
0.379150 0.557617 0.000000
0.483887 0.579102 0.000000
0.574219 0.601074 0.000000
0.645508 0.619141 0.000000
0.699219 0.627441 0.000000
0.745605 0.633789 0.000000
0.791504 0.644531 0.000000
0.837402 0.656738 0.000000
0.863770 0.659668 0.000000
0.897461 0.666016 0.000000
0.940918 0.679688 0.000000
0.000000 0.369873 0.011963
0.000000 0.411865 0.002300
0.000000 0.451904 0.000449
0.068176 0.496338 0.000000
0.254639 0.538574 0.000000
0.376221 0.576660 0.000000
0.480469 0.600586 0.000000
0.569336 0.623535 0.000000
0.641602 0.644531 0.000000
0.697754 0.657715 0.000000
0.750488 0.669922 0.000000
0.807129 0.686523 0.000000
0.859863 0.702148 0.000000
0.901367 0.713867 0.000000
0.950684 0.730469 0.000000
0.983398 0.742188 0.000000
0.000000 0.395508 0.010902
0.000000 0.435791 0.001957
0.000000 0.475342 0.000000
0.028946 0.518555 0.000000
0.167480 0.562012 0.000000
0.325928 0.601562 0.000000
0.432129 0.632324 0.000000
0.527832 0.658691 0.000000
0.614746 0.687012 0.000000
0.687988 0.708496 0.000000
0.758789 0.727051 0.000000
0.840332 0.751953 0.000000
0.899902 0.765137 0.000000
0.951660 0.777832 0.000000
0.994141 0.789551 0.000000
1.015625 0.794922 0.000000
0.000000 0.425537 0.011559
0.000000 0.458008 0.004955
0.000000 0.493652 0.000000
0.000000 0.529785 0.000000
0.019104 0.565918 0.000000
0.159058 0.603027 0.000000
0.312988 0.638672 0.000000
0.424316 0.669922 0.000000
0.539551 0.700684 0.000000
0.649902 0.732422 0.000000
0.751953 0.757812 0.000000
0.858398 0.783203 0.000000
0.922852 0.797363 0.000000
0.981934 0.810059 0.000000
1.012695 0.816406 0.000000
1.032227 0.820801 0.000000
0.005596 0.008957 0.022308
0.028595 0.014107 0.030045
0.083130 0.019852 0.035187
0.154785 0.026825 0.036377
0.214111 0.026093 0.032410
0.279053 0.024643 0.032379
0.335205 0.020599 0.026810
0.377197 0.015747 0.019485
0.406494 0.012306 0.015106
0.430176 0.009087 0.010185
0.454346 0.005360 0.008171
0.486816 0.002447 0.004745
0.516113 0.000338 0.001211
0.534668 0.000000 0.000625
0.549316 0.000000 0.000595
0.562500 0.000000 0.000537
0.006214 0.033264 0.039154
0.035461 0.045898 0.043396
0.101807 0.059998 0.046478
0.180664 0.072937 0.047150
0.254639 0.072510 0.041656
0.326660 0.073364 0.038391
0.383545 0.065613 0.030518
0.424561 0.050995 0.020294
0.452393 0.037689 0.013977
0.475830 0.023270 0.009003
0.501465 0.012482 0.006321
0.534668 0.005737 0.003284
0.563965 0.000760 0.000484
0.583008 0.000000 0.000036
0.598145 0.000000 0.000030
0.611328 0.000000 0.000028
0.003262 0.071350 0.050110
0.030228 0.085510 0.052551
0.106995 0.101501 0.054626
0.193726 0.117859 0.053192
0.275879 0.126465 0.045013
0.350342 0.130859 0.038330
0.408936 0.127563 0.028748
0.451172 0.116882 0.017044
0.479980 0.104004 0.008255
0.504883 0.090637 0.004814
0.538574 0.081787 0.002205
0.572754 0.074219 0.000871
0.602051 0.065796 0.000115
0.621094 0.061951 0.000000
0.636719 0.060150 0.000000
0.650391 0.057251 0.000000
0.000535 0.113159 0.057465
0.020584 0.127808 0.058197
0.099976 0.146240 0.057953
0.194336 0.166504 0.053162
0.282227 0.179565 0.042633
0.357178 0.185181 0.032196
0.416748 0.183838 0.020737
0.463135 0.176270 0.008705
0.499756 0.166260 0.003191
0.538574 0.161743 0.000835
0.577637 0.160156 0.000170
0.611816 0.156006 0.000000
0.641602 0.150635 0.000000
0.662109 0.148315 0.000000
0.678223 0.145630 0.000000
0.691895 0.142944 0.000000
0.000000 0.141235 0.056427
0.009682 0.159302 0.055328
0.073486 0.181885 0.053009
0.177612 0.203735 0.045593
0.270264 0.219604 0.032898
0.347412 0.227905 0.018875
0.414062 0.229980 0.008713
0.470947 0.229248 0.002634
0.525391 0.231323 0.000126
0.573730 0.233643 0.000000
0.613770 0.234009 0.000000
0.647949 0.233521 0.000000
0.677246 0.232422 0.000000
0.698730 0.230591 0.000000
0.715820 0.228760 0.000000
0.730469 0.226685 0.000000
0.000000 0.163940 0.053894
0.000965 0.183105 0.051300
0.041748 0.205444 0.046356
0.145142 0.228638 0.037445
0.250732 0.250488 0.024887
0.334229 0.263916 0.007671
0.418701 0.280029 0.000738
0.496094 0.289551 0.000000
0.558105 0.294189 0.000000
0.605469 0.299805 0.000000
0.645020 0.304199 0.000000
0.682129 0.303223 0.000000
0.715332 0.300293 0.000000
0.735352 0.301025 0.000000
0.750488 0.302246 0.000000
0.764648 0.302490 0.000000
0.000000 0.196045 0.054199
0.000000 0.218384 0.050415
0.017426 0.243652 0.043427
0.130737 0.273682 0.031494
0.252930 0.303223 0.014153
0.352539 0.325928 0.000403
0.441406 0.343994 0.000000
0.518066 0.356689 0.000000
0.580566 0.365234 0.000000
0.631348 0.371338 0.000000
0.673340 0.375488 0.000000
0.709473 0.376709 0.000000
0.740723 0.377686 0.000000
0.763184 0.377686 0.000000
0.780762 0.377197 0.000000
0.796387 0.376709 0.000000
0.000000 0.237915 0.051483
0.000000 0.263428 0.044556
0.000911 0.291992 0.034576
0.122742 0.324951 0.017685
0.260742 0.357178 0.003002
0.367188 0.384766 0.000000
0.459229 0.403076 0.000000
0.538574 0.418457 0.000000
0.603027 0.429443 0.000000
0.655273 0.436035 0.000000
0.697754 0.439453 0.000000
0.735840 0.443604 0.000000
0.768555 0.446533 0.000000
0.790527 0.446289 0.000000
0.808594 0.445312 0.000000
0.824219 0.444580 0.000000
0.000000 0.273438 0.046082
0.000000 0.301514 0.036133
0.000000 0.333252 0.023239
0.114197 0.369873 0.005264
0.266113 0.405273 0.000030
0.376465 0.435303 0.000000
0.472412 0.454834 0.000000
0.556152 0.471680 0.000000
0.623535 0.484619 0.000000
0.675293 0.491699 0.000000
0.718262 0.496094 0.000000
0.758301 0.500488 0.000000
0.794434 0.504883 0.000000
0.815918 0.504883 0.000000
0.832031 0.504395 0.000000
0.847168 0.504395 0.000000
0.000000 0.302979 0.043671
0.000000 0.334961 0.031494
0.000000 0.369385 0.015106
0.107178 0.409180 0.002008
0.266602 0.446533 0.000000
0.384033 0.477539 0.000000
0.483643 0.500000 0.000000
0.568359 0.517578 0.000000
0.636230 0.530762 0.000000
0.690430 0.539062 0.000000
0.735352 0.545410 0.000000
0.774902 0.550293 0.000000
0.810059 0.553711 0.000000
0.833008 0.555176 0.000000
0.851074 0.556152 0.000000
0.867188 0.556641 0.000000
0.000000 0.328125 0.043060
0.000000 0.364014 0.029037
0.000000 0.400879 0.008575
0.101807 0.442383 0.000283
0.264404 0.481934 0.000000
0.389893 0.512207 0.000000
0.492676 0.538574 0.000000
0.576172 0.556152 0.000000
0.644043 0.568848 0.000000
0.701660 0.580078 0.000000
0.749023 0.587891 0.000000
0.787109 0.592285 0.000000
0.819336 0.595215 0.000000
0.844727 0.598145 0.000000
0.865723 0.600586 0.000000
0.883789 0.602051 0.000000
0.000000 0.352783 0.036560
0.000000 0.390869 0.019012
0.000000 0.428223 0.004837
0.087708 0.470947 0.000002
0.263428 0.511719 0.000000
0.391602 0.545898 0.000000
0.497070 0.570801 0.000000
0.583496 0.590820 0.000000
0.653809 0.605957 0.000000
0.710938 0.616211 0.000000
0.758789 0.623535 0.000000
0.799316 0.629883 0.000000
0.834961 0.635742 0.000000
0.859375 0.637695 0.000000
0.882812 0.639648 0.000000
0.910645 0.642578 0.000000
0.000000 0.374512 0.029724
0.000000 0.414307 0.008736
0.000000 0.452393 0.001946
0.073303 0.496338 0.000000
0.262939 0.537598 0.000000
0.392334 0.575684 0.000000
0.500000 0.598633 0.000000
0.590332 0.621094 0.000000
0.662598 0.639160 0.000000
0.719238 0.647949 0.000000
0.766602 0.654785 0.000000
0.812012 0.665039 0.000000
0.856445 0.676758 0.000000
0.884277 0.678711 0.000000
0.918945 0.685547 0.000000
0.960449 0.697266 0.000000
0.000000 0.388428 0.028458
0.000000 0.429932 0.005539
0.000000 0.469238 0.001048
0.060669 0.514160 0.000000
0.255615 0.557129 0.000000
0.388672 0.595215 0.000000
0.496094 0.621094 0.000000
0.585449 0.644531 0.000000
0.657715 0.664551 0.000000
0.716797 0.678223 0.000000
0.770020 0.690430 0.000000
0.824707 0.705566 0.000000
0.876465 0.720215 0.000000
0.919434 0.730469 0.000000
0.966309 0.745605 0.000000
0.996582 0.755371 0.000000
0.000000 0.411133 0.024155
0.000000 0.451416 0.004471
0.000000 0.490967 0.000000
0.020889 0.535156 0.000000
0.160156 0.578125 0.000000
0.331787 0.617676 0.000000
0.444336 0.649414 0.000000
0.540527 0.675781 0.000000
0.628418 0.702637 0.000000
0.703125 0.723633 0.000000
0.772949 0.741699 0.000000
0.852051 0.764160 0.000000
0.911133 0.776855 0.000000
0.961914 0.787598 0.000000
1.001953 0.797363 0.000000
1.021484 0.801270 0.000000
0.000000 0.436035 0.021469
0.000000 0.468018 0.009140
0.000000 0.503906 0.000000
0.000000 0.540527 0.000000
0.009415 0.577148 0.000000
0.151489 0.613770 0.000000
0.316406 0.648438 0.000000
0.432373 0.680176 0.000000
0.546875 0.710449 0.000000
0.657715 0.740723 0.000000
0.759277 0.765137 0.000000
0.863281 0.789062 0.000000
0.927734 0.802734 0.000000
0.985352 0.813965 0.000000
1.014648 0.818848 0.000000
1.033203 0.822266 0.000000
0.006332 0.010971 0.062164
0.032440 0.015747 0.074402
0.090088 0.021866 0.083679
0.161377 0.027679 0.087524
0.224854 0.026062 0.083862
0.289551 0.024612 0.084656
0.344971 0.021652 0.077759
0.386230 0.017227 0.065857
0.415283 0.013527 0.057556
0.439453 0.010117 0.049957
0.464844 0.006130 0.044464
0.496826 0.002783 0.038910
0.526367 0.000367 0.032867
0.545410 0.000000 0.032654
0.560547 0.000000 0.033447
0.574219 0.000000 0.033203
0.005333 0.039062 0.085754
0.034119 0.051697 0.094788
0.103210 0.065918 0.101990
0.184814 0.076233 0.105286
0.263916 0.076843 0.101257
0.334717 0.076294 0.099304
0.391846 0.068665 0.090820
0.434326 0.054718 0.076538
0.461914 0.040405 0.066040
0.485352 0.025452 0.056366
0.512207 0.014221 0.050507
0.545410 0.006615 0.045380
0.574707 0.000912 0.039520
0.593262 0.000000 0.039124
0.608887 0.000000 0.039734
0.623047 0.000000 0.039398
0.001359 0.079773 0.098999
0.024216 0.093628 0.106689
0.101868 0.108337 0.112000
0.194092 0.123413 0.113831
0.280762 0.133057 0.108276
0.355225 0.136597 0.103455
0.414795 0.133179 0.093872
0.459473 0.122864 0.078552
0.488281 0.108887 0.065735
0.515137 0.095093 0.055511
0.549316 0.086548 0.052155
0.582520 0.078552 0.047577
0.611328 0.070435 0.042694
0.631836 0.067261 0.041901
0.647949 0.065186 0.041901
0.662109 0.061798 0.041168
0.000000 0.121765 0.105896
0.014816 0.136475 0.111877
0.087402 0.154907 0.115295
0.191895 0.174072 0.114807
0.283936 0.187500 0.108032
0.359863 0.191528 0.099243
0.420654 0.189331 0.087952
0.468506 0.182007 0.072021
0.506836 0.171997 0.059937
0.547852 0.167603 0.054199
0.587402 0.166260 0.052216
0.621582 0.162598 0.047699
0.650879 0.158325 0.042847
0.671875 0.155029 0.041687
0.688477 0.151978 0.041290
0.703125 0.149048 0.040314
0.000000 0.151611 0.099792
0.006027 0.169312 0.103088
0.053680 0.192383 0.107178
0.173218 0.213379 0.104248
0.270264 0.228027 0.097595
0.349365 0.235962 0.086975
0.415771 0.236694 0.075989
0.474609 0.236328 0.064941
0.530762 0.239136 0.058105
0.580566 0.241455 0.054901
0.622070 0.241211 0.052063
0.655762 0.241211 0.047638
0.684570 0.240967 0.043152
0.707031 0.239136 0.040985
0.725098 0.236694 0.039490
0.741211 0.234375 0.037842
0.000000 0.173950 0.090942
0.000500 0.191772 0.091553
0.022430 0.215088 0.093323
0.137939 0.239014 0.089661
0.249390 0.260498 0.084045
0.337158 0.273926 0.069641
0.422607 0.290283 0.065247
0.498535 0.299316 0.058319
0.560547 0.304688 0.050781
0.609863 0.310303 0.047821
0.651367 0.314453 0.044983
0.687988 0.313232 0.036865
0.720215 0.311035 0.027893
0.741699 0.311768 0.027084
0.758789 0.313232 0.027634
0.773438 0.312988 0.027069
0.000000 0.207520 0.092590
0.000000 0.229736 0.092651
0.004749 0.254639 0.091797
0.120667 0.284424 0.087524
0.249023 0.313232 0.080383
0.353516 0.336670 0.069519
0.443359 0.355225 0.064453
0.520020 0.367188 0.056885
0.583496 0.375732 0.048859
0.636230 0.382080 0.042908
0.679199 0.385986 0.036987
0.715820 0.387695 0.028503
0.746582 0.388428 0.020020
0.770020 0.387939 0.017105
0.789062 0.387939 0.015450
0.805664 0.387207 0.013580
0.000000 0.250488 0.096497
0.000000 0.276123 0.095337
0.000000 0.303223 0.091919
0.111206 0.335449 0.084412
0.252930 0.367676 0.076477
0.364502 0.395508 0.065979
0.458984 0.414307 0.059662
0.539062 0.429199 0.048889
0.604980 0.439941 0.036682
0.658691 0.446533 0.028519
0.703125 0.450684 0.020630
0.741211 0.454346 0.013466
0.773926 0.457031 0.007294
0.797363 0.456543 0.004864
0.816406 0.456055 0.003248
0.833008 0.455566 0.001991
0.000000 0.286377 0.096313
0.000000 0.315430 0.093567
0.000000 0.345215 0.088623
0.097778 0.380615 0.079163
0.255859 0.416260 0.072876
0.371582 0.446533 0.058685
0.470947 0.467041 0.051453
0.555664 0.483154 0.035278
0.624023 0.495605 0.017212
0.677734 0.503418 0.009285
0.722656 0.507812 0.004360
0.763672 0.512207 0.001829
0.799805 0.515625 0.000239
0.822266 0.516113 0.000000
0.839355 0.516113 0.000000
0.854980 0.516113 0.000000
0.000000 0.316650 0.098083
0.000000 0.349365 0.094238
0.000000 0.381836 0.087463
0.084229 0.421143 0.078064
0.253906 0.458984 0.070801
0.377686 0.489502 0.054565
0.481445 0.512695 0.043579
0.567383 0.530273 0.023636
0.636719 0.542480 0.004894
0.692871 0.552246 0.000000
0.739746 0.558105 0.000000
0.779785 0.562500 0.000000
0.814941 0.565918 0.000000
0.838867 0.567383 0.000000
0.857910 0.568848 0.000000
0.875000 0.570312 0.000000
0.000000 0.342285 0.100830
0.000000 0.378662 0.096252
0.000000 0.414307 0.087158
0.069336 0.455811 0.078064
0.247803 0.495850 0.068909
0.382080 0.525879 0.052246
0.489502 0.552734 0.035095
0.575195 0.570801 0.014030
0.645020 0.583496 0.000734
0.704102 0.594727 0.000000
0.753418 0.602539 0.000000
0.791504 0.606445 0.000000
0.823730 0.608398 0.000000
0.850586 0.611816 0.000000
0.873047 0.614746 0.000000
0.891602 0.616699 0.000000
0.000000 0.366211 0.097900
0.000000 0.405029 0.091187
0.000000 0.441650 0.083496
0.045135 0.484375 0.073914
0.243774 0.525391 0.062927
0.381104 0.558594 0.036591
0.492188 0.584961 0.020554
0.581543 0.605469 0.006481
0.652832 0.620117 0.000000
0.712402 0.630859 0.000000
0.761719 0.637695 0.000000
0.802246 0.643066 0.000000
0.836914 0.647461 0.000000
0.862793 0.650391 0.000000
0.888672 0.653320 0.000000
0.917480 0.656250 0.000000
0.000000 0.387451 0.094177
0.000000 0.427734 0.085327
0.000000 0.465332 0.079712
0.021408 0.508789 0.069397
0.240234 0.550293 0.056824
0.378906 0.587891 0.020142
0.493408 0.612305 0.006355
0.586426 0.635254 0.000000
0.660645 0.652832 0.000000
0.719238 0.661621 0.000000
0.768066 0.667969 0.000000
0.812500 0.676758 0.000000
0.856445 0.686523 0.000000
0.888672 0.691406 0.000000
0.925781 0.698730 0.000000
0.967773 0.709473 0.000000
0.000000 0.401611 0.095154
0.000000 0.444092 0.085327
0.000000 0.482910 0.079041
0.017838 0.527344 0.068237
0.230957 0.570801 0.053467
0.375488 0.608398 0.017548
0.489746 0.635742 0.003206
0.581543 0.659180 0.000000
0.656738 0.678711 0.000000
0.718262 0.693359 0.000000
0.773926 0.705566 0.000000
0.829102 0.719727 0.000000
0.882324 0.733398 0.000000
0.929688 0.745605 0.000000
0.977051 0.759766 0.000000
1.009766 0.769531 0.000000
0.000000 0.425049 0.080627
0.000000 0.465332 0.067383
0.000000 0.504395 0.060883
0.008591 0.548828 0.052185
0.136963 0.592285 0.039459
0.318848 0.630859 0.016312
0.440186 0.663574 0.001613
0.541992 0.690918 0.000000
0.632812 0.717285 0.000000
0.709961 0.737793 0.000000
0.782227 0.755859 0.000000
0.862305 0.778320 0.000000
0.922852 0.790527 0.000000
0.975098 0.801270 0.000000
1.012695 0.808594 0.000000
1.031250 0.810059 0.000000
0.000000 0.448242 0.049988
0.000000 0.480713 0.035400
0.000000 0.516602 0.023148
0.000000 0.552734 0.019989
0.000361 0.589844 0.015594
0.139893 0.626953 0.010788
0.317383 0.661621 0.004894
0.440430 0.693848 0.001053
0.557617 0.724121 0.000000
0.668457 0.751953 0.000000
0.769531 0.775879 0.000000
0.869629 0.796875 0.000000
0.935547 0.809570 0.000000
0.990234 0.819336 0.000000
1.018555 0.822754 0.000000
1.035156 0.824219 0.000000
0.007126 0.012093 0.127075
0.034363 0.017471 0.140869
0.091797 0.023331 0.150146
0.162231 0.025925 0.155884
0.228394 0.024796 0.158081
0.295166 0.024246 0.156616
0.350586 0.021408 0.151001
0.392578 0.017273 0.140137
0.422607 0.013885 0.126587
0.447510 0.010513 0.112793
0.474121 0.006256 0.104553
0.505859 0.002832 0.101318
0.535156 0.000371 0.097595
0.554688 0.000000 0.097412
0.569824 0.000000 0.097900
0.584473 0.000000 0.097656
0.004074 0.043671 0.153076
0.028885 0.056915 0.163330
0.097229 0.069824 0.171997
0.184082 0.077759 0.178101
0.267090 0.077881 0.180420
0.338135 0.076660 0.175659
0.395020 0.069031 0.167480
0.438232 0.054901 0.154175
0.468506 0.041107 0.138428
0.493164 0.026413 0.123901
0.521484 0.014633 0.117249
0.553711 0.006687 0.114014
0.582031 0.000929 0.110413
0.602051 0.000000 0.109985
0.618652 0.000000 0.110107
0.632812 0.000000 0.109619
0.000317 0.088379 0.169800
0.015579 0.101501 0.178833
0.086060 0.115479 0.187012
0.189819 0.128540 0.192017
0.281738 0.138550 0.191895
0.355469 0.140625 0.184692
0.414551 0.136475 0.174316
0.460449 0.126953 0.159668
0.492676 0.112549 0.142212
0.520996 0.098511 0.128906
0.557129 0.089539 0.126099
0.590332 0.082886 0.123413
0.618164 0.076782 0.120239
0.639160 0.072754 0.119324
0.656250 0.069641 0.118835
0.670898 0.065674 0.117920
0.000000 0.131958 0.178467
0.005745 0.146240 0.185669
0.057861 0.163696 0.191650
0.181519 0.181641 0.195190
0.279541 0.194458 0.192505
0.355713 0.196533 0.183228
0.416260 0.193481 0.171021
0.467285 0.187866 0.156616
0.509766 0.178345 0.142090
0.553711 0.173828 0.136475
0.594727 0.171997 0.135132
0.627441 0.169189 0.132324
0.655273 0.166260 0.129395
0.677734 0.162231 0.128296
0.695801 0.158447 0.127686
0.711426 0.154663 0.126709
0.000000 0.164307 0.170898
0.001285 0.181885 0.177612
0.019989 0.202515 0.182861
0.159058 0.222168 0.184326
0.263184 0.236572 0.180176
0.345703 0.242310 0.171143
0.411865 0.241821 0.160156
0.472168 0.241821 0.150024
0.532227 0.246582 0.146362
0.584961 0.248413 0.143921
0.627441 0.247681 0.141846
0.661133 0.248413 0.139160
0.688477 0.249146 0.136719
0.711914 0.246338 0.135010
0.731934 0.243408 0.133789
0.748535 0.241089 0.132446
0.000000 0.187134 0.153687
0.000000 0.205200 0.158203
0.001864 0.226562 0.162964
0.120728 0.249634 0.164551
0.240845 0.270752 0.164062
0.336670 0.286133 0.157593
0.421631 0.301514 0.157227
0.497314 0.310547 0.152832
0.560547 0.316650 0.147705
0.611816 0.322021 0.145630
0.654297 0.325684 0.143555
0.690918 0.324951 0.138672
0.722656 0.324219 0.133301
0.745117 0.324463 0.132690
0.763672 0.325195 0.132935
0.779785 0.325439 0.132568
0.000000 0.221802 0.153809
0.000000 0.243530 0.158203
0.000000 0.266113 0.162354
0.098328 0.295654 0.165894
0.232178 0.323730 0.166992
0.347412 0.348145 0.164795
0.437988 0.365479 0.161499
0.515625 0.377686 0.156860
0.581543 0.386475 0.151611
0.636230 0.392090 0.146606
0.681152 0.395264 0.142212
0.717285 0.397949 0.137939
0.747070 0.399658 0.134033
0.772461 0.399414 0.131836
0.793457 0.398438 0.130371
0.811523 0.398438 0.128662
0.000000 0.265381 0.162842
0.000000 0.290283 0.166870
0.000000 0.315186 0.169678
0.082153 0.347168 0.171875
0.232544 0.378662 0.171509
0.355713 0.406738 0.167236
0.451660 0.424561 0.163086
