looks/Kodak_Rec709.cube
TITLE "Generated by Foundry::LUT"
LUT_3D_SIZE 6
0.004421 0.005466 0.005798
0.147339 0.022400 0.009399
0.322754 0.016708 0.006615
0.417480 0.005676 0.004017
0.502441 0.000127 0.000514
0.546875 0.000000 0.000226
0.000871 0.099792 0.020935
0.188721 0.153687 0.016586
0.399170 0.172607 0.005898
0.519043 0.152222 0.000341
0.624023 0.139404 0.000000
0.669922 0.134155 0.000000
0.000000 0.181885 0.026825
0.131348 0.259277 0.013115
0.427734 0.329346 0.000000
0.614258 0.356689 0.000000
0.724609 0.362793 0.000000
0.773926 0.362793 0.000000
0.000000 0.285645 0.018234
0.106262 0.390381 0.000794
0.468506 0.479736 0.000000
0.671387 0.517578 0.000000
0.791504 0.532715 0.000000
0.842285 0.534180 0.000000
0.000000 0.355957 0.012474
0.076660 0.479004 0.000000
0.483887 0.579102 0.000000
0.699219 0.627441 0.000000
0.837402 0.656738 0.000000
0.940918 0.679688 0.000000
0.000000 0.425537 0.011559
0.000000 0.529785 0.000000
0.312988 0.638672 0.000000
0.649902 0.732422 0.000000
0.922852 0.797363 0.000000
1.032227 0.820801 0.000000
0.007126 0.012093 0.127075
0.162231 0.025925 0.155884
0.350586 0.021408 0.151001
0.447510 0.010513 0.112793
0.535156 0.000371 0.097595
0.584473 0.000000 0.097656
0.000000 0.131958 0.178467
0.181519 0.181641 0.195190
0.416260 0.193481 0.171021
0.553711 0.173828 0.136475
0.655273 0.166260 0.129395
0.711426 0.154663 0.126709
0.000000 0.221802 0.153809
0.098328 0.295654 0.165894
0.437988 0.365479 0.161499
0.636230 0.392090 0.146606
0.747070 0.399658 0.134033
0.811523 0.398438 0.128662
0.000000 0.333252 0.173340
0.023010 0.437256 0.178833
0.471436 0.528809 0.160767
0.690918 0.567383 0.132812
0.812988 0.580566 0.121582
0.877930 0.585938 0.116394
0.000000 0.404297 0.180054
0.000000 0.524902 0.179565
0.480957 0.628418 0.145630
0.714844 0.677246 0.124084
0.852051 0.699707 0.092163
0.967285 0.722168 0.035431
0.000000 0.461426 0.120728
0.000000 0.565430 0.098022
0.295898 0.672852 0.038788
0.667480 0.762695 0.000000
0.945801 0.820801 0.000000
1.039062 0.828125 0.000000
0.000553 0.012169 0.277588
0.149780 0.020248 0.328125
0.355225 0.015068 0.333496
0.457520 0.004524 0.302246
0.547363 0.000000 0.300781
0.597168 0.000000 0.301270
0.000000 0.155273 0.365723
0.097046 0.199951 0.406738
0.401611 0.208862 0.396240
0.555176 0.192139 0.378662
0.658203 0.186646 0.380371
0.718750 0.177979 0.382812
0.000000 0.265137 0.364014
0.000000 0.338379 0.406250
0.414062 0.405762 0.430420
0.628418 0.430664 0.436768
0.741699 0.437500 0.436279
0.808105 0.439941 0.439697
0.000000 0.383057 0.399902
0.000000 0.487793 0.440430
0.426025 0.577148 0.463623
0.670898 0.614746 0.469727
0.796387 0.626953 0.468750
0.866699 0.635254 0.471191
0.000000 0.458984 0.419678
0.000000 0.580078 0.458252
0.425293 0.682129 0.480713
0.689941 0.729492 0.486572
0.835449 0.755371 0.472900
0.958496 0.776855 0.421143
0.000000 0.515137 0.349365
0.000000 0.617188 0.365723
0.118958 0.719238 0.354248
0.631836 0.807129 0.294922
0.943359 0.858887 0.134888
1.055664 0.862793 0.000195
0.000000 0.010712 0.365723
0.122375 0.014801 0.422119
0.340332 0.008667 0.437500
0.458008 0.000000 0.430664
0.551758 0.000000 0.436035
0.600098 0.000000 0.435791
0.000000 0.157349 0.469238
0.023605 0.197754 0.523438
0.376709 0.206299 0.529297
0.550293 0.203735 0.535156
0.658691 0.195190 0.539551
0.716309 0.188354 0.540039
0.000000 0.290771 0.508301
0.000000 0.364990 0.563477
0.385986 0.429443 0.600098
0.613281 0.453613 0.612305
0.732422 0.459961 0.615234
0.796875 0.459717 0.616699
0.000000 0.414307 0.553711
0.000000 0.517578 0.608887
0.376953 0.604980 0.643066
0.646973 0.644043 0.659180
0.779297 0.657227 0.663574
0.847168 0.660645 0.662109
0.000000 0.493408 0.579102
0.000000 0.615234 0.634277
0.358887 0.711914 0.666016
0.656250 0.761719 0.682617
0.813477 0.790527 0.683105
0.940918 0.813965 0.664551
0.000000 0.565430 0.569824
0.000000 0.663086 0.606445
0.000000 0.767090 0.632324
0.556152 0.862305 0.641113
0.899902 0.922852 0.621582
1.020508 0.938965 0.598145
0.000000 0.005032 0.417725
0.061646 0.009918 0.472656
0.309570 0.004959 0.496826
0.455566 0.000000 0.509277
0.552246 0.000000 0.517578
0.601562 0.000000 0.518066
0.000000 0.145996 0.524414
0.000000 0.182495 0.581055
0.358643 0.207031 0.615234
0.548828 0.210938 0.632324
0.659668 0.204468 0.641113
0.716797 0.197876 0.640137
0.000000 0.304443 0.594238
0.000000 0.380371 0.657715
0.362549 0.444580 0.702637
0.602051 0.467529 0.717773
0.725586 0.474121 0.724121
0.790527 0.473633 0.723145
0.000000 0.431152 0.645508
0.000000 0.535645 0.709473
0.337158 0.621582 0.750000
0.627930 0.659668 0.768555
0.765625 0.672363 0.775879
0.834961 0.675293 0.772949
0.000000 0.510742 0.672363
0.000000 0.633301 0.736816
0.298340 0.729980 0.774902
0.628418 0.779297 0.796387
0.795410 0.810547 0.812988
0.925781 0.841309 0.836914
0.000000 0.599121 0.736328
0.000000 0.691406 0.785156
0.000000 0.793945 0.833008
0.466797 0.895020 0.872559
0.860840 0.962402 0.897949
0.981445 0.981445 0.908203
0.000000 0.003733 0.444580
0.016037 0.009972 0.496826
0.292969 0.007725 0.536621
0.452148 0.000000 0.556152
0.550781 0.000000 0.565430
0.602539 0.000000 0.568359
0.000000 0.141968 0.561035
0.000000 0.182495 0.626465
0.344727 0.213867 0.674316
0.543457 0.219482 0.692871
0.654785 0.215454 0.701172
0.717773 0.207275 0.704590
0.000000 0.312012 0.643555
0.000000 0.391113 0.716309
0.339355 0.453125 0.765137
0.588867 0.477051 0.781738
0.715332 0.483398 0.787109
0.786621 0.482666 0.791016
0.000000 0.438477 0.695312
0.000000 0.545898 0.768066
0.294678 0.629395 0.812012
0.607910 0.666504 0.831055
0.750488 0.678711 0.837402
0.826172 0.683105 0.839355
0.000000 0.517578 0.722656
0.000000 0.641113 0.795410
0.227417 0.737305 0.839844
0.599609 0.790527 0.872559
0.782715 0.828613 0.909180
0.916504 0.858398 0.943359
0.000000 0.617188 0.818848
0.000000 0.699219 0.865723
0.000000 0.795410 0.913574
0.375732 0.904785 0.961914
0.839355 0.975098 0.993164
0.965332 0.990723 1.000000
