looks/Linear_to_1-1_1-0_Tonemap.spi1d
Version 1
From 0.000000 1.000000
Length 4096
Components 1
{
            4.8609997799699E-4
            4.8759457656042E-4
            4.8909376829325E-4
            4.9059756729735E-4
            4.9210598771782E-4
            4.9361904374308E-4
            4.9513674960506E-4
            4.9665911957927E-4
            4.9818616798496E-4
            4.9971790918528E-4
            5.0125435758735E-4
            5.0279552764248E-4
            5.0434143384620E-4
            5.0589209073851E-4
            5.0744751290391E-4
            5.0900771497162E-4
            5.1057271161564E-4
            5.1214251755498E-4
            5.1371714755369E-4
            5.1529661642108E-4
            5.1688093901184E-4
            5.1847013022614E-4
            5.2006420500980E-4
            5.2166317835446E-4
            5.2326706529764E-4
            5.2487588092296E-4
            5.2648964036022E-4
            5.2810835878560E-4
            5.2973205142172E-4
            5.3136073353789E-4
            5.3299442045014E-4
            5.3463312752145E-4
            5.3627687016183E-4
            5.3792566382852E-4
            5.3957952402609E-4
            5.4123846630661E-4
            5.4290250626976E-4
            5.4457165956304E-4
            5.4624594188184E-4
            5.4792536896964E-4
            5.4960995661814E-4
            5.5129972066740E-4
            5.5299467700599E-4
            5.5469484157115E-4
            5.5640023034893E-4
            5.5811085937433E-4
            5.5982674473145E-4
            5.6154790255368E-4
            5.6327434902378E-4
            5.6500610037410E-4
            5.6674317288667E-4
            5.6848558289340E-4
            5.7023334677621E-4
            5.7198648096717E-4
            5.7374500194870E-4
            5.7550892625367E-4
            5.7727827046556E-4
            5.7905305121867E-4
            5.8083328519819E-4
            5.8261898914044E-4
            5.8441017983296E-4
            5.8620687411470E-4
            5.8800908887617E-4
            5.8981684105958E-4
            5.9163014765904E-4
            5.9344902572066E-4
            5.9527349234277E-4
            5.9710356467603E-4
            5.9893925992361E-4
            6.0078059534135E-4
            6.0262758823791E-4
            6.0448025597497E-4
            6.0633861596732E-4
            6.0820268568310E-4
            6.1007248264388E-4
            6.1194802442492E-4
            6.1382932865525E-4
            6.1571641301786E-4
            6.1760929524990E-4
            6.1950799314279E-4
            6.2141252454241E-4
            6.2332290734928E-4
            6.2523915951870E-4
            6.2716129906094E-4
            6.2908934404138E-4
            6.3102331258071E-4
            6.3296322285509E-4
            6.3490909309628E-4
            6.3686094159188E-4
            6.3881878668542E-4
            6.4078264677661E-4
            6.4275254032145E-4
            6.4472848583243E-4
            6.4671050187869E-4
            6.4869860708621E-4
            6.5069282013796E-4
            6.5269315977409E-4
            6.5469964479210E-4
            6.5671229404702E-4
            6.5873112645155E-4
            6.6075616097631E-4
            6.6278741664992E-4
            6.6482491255927E-4
            6.6686866784963E-4
            6.6891870172486E-4
            6.7097503344757E-4
            6.7303768233933E-4
            6.7510666778081E-4
            6.7718200921199E-4
            6.7926372613232E-4
            6.8135183810091E-4
            6.8344636473672E-4
            6.8554732571872E-4
            6.8765474078611E-4
            6.8976862973845E-4
            6.9188901243589E-4
            6.9401590879934E-4
            6.9614933881064E-4
            6.9828932251276E-4
            7.0043588001000E-4
            7.0258903146813E-4
            7.0474879711464E-4
            7.0691519723886E-4
            7.0908825219222E-4
            7.1126798238838E-4
            7.1345440830344E-4
            7.1564755047613E-4
            7.1784742950801E-4
            7.2005406606365E-4
            7.2226748087082E-4
            7.2448769472070E-4
            7.2671472846803E-4
            7.2894860303136E-4
            7.3118933939321E-4
            7.3343695860025E-4
            7.3569148176355E-4
            7.3795293005872E-4
            7.4022132472613E-4
            7.4249668707110E-4
            7.4477903846412E-4
            7.4706840034101E-4
            7.4936479420315E-4
            7.5166824161767E-4
            7.5397876421764E-4
            7.5629638370227E-4
            7.5862112183715E-4
            7.6095300045439E-4
            7.6329204145287E-4
            7.6563826679841E-4
            7.6799169852402E-4
            7.7035235873003E-4
            7.7272026958438E-4
            7.7509545332276E-4
            7.7747793224884E-4
            7.7986772873448E-4
            7.8226486521994E-4
            7.8466936421408E-4
            7.8708124829455E-4
            7.8950054010804E-4
            7.9192726237046E-4
            7.9436143786716E-4
            7.9680308945313E-4
            7.9925224005323E-4
            8.0170891266239E-4
            8.0417313034583E-4
            8.0664491623926E-4
            8.0912429354912E-4
            8.1161128555275E-4
            8.1410591559867E-4
            8.1660820710671E-4
            8.1911818356833E-4
            8.2163586854674E-4
            8.2416128567719E-4
            8.2669445866714E-4
            8.2923541129651E-4
            8.3178416741789E-4
            8.3434075095675E-4
            8.3690518591168E-4
            8.3947749635460E-4
            8.4205770643098E-4
            8.4464584036008E-4
            8.4724192243514E-4
            8.4984597702366E-4
            8.5245802856756E-4
            8.5507810158345E-4
            8.5770622066286E-4
            8.6034241047244E-4
            8.6298669575418E-4
            8.6563910132569E-4
            8.6829965208039E-4
            8.7096837298773E-4
            8.7364528909345E-4
            8.7633042551981E-4
            8.7902380746581E-4
            8.8172546020740E-4
            8.8443540909776E-4
            8.8715367956751E-4
            8.8988029712496E-4
            8.9261528735629E-4
            8.9535867592588E-4
            8.9811048857647E-4
            9.0087075112941E-4
            9.0363948948495E-4
            9.0641672962241E-4
            9.0920249760046E-4
            9.1199681955736E-4
            9.1479972171117E-4
            9.1761123036005E-4
            9.2043137188243E-4
            9.2326017273732E-4
            9.2609765946450E-4
            9.2894385868482E-4
            9.3179879710039E-4
            9.3466250149486E-4
            9.3753499873365E-4
            9.4041631576423E-4
            9.4330647961633E-4
            9.4620551740220E-4
            9.4911345631686E-4
            9.5203032363838E-4
            9.5495614672809E-4
            9.5789095303085E-4
            9.6083477007530E-4
            9.6378762547412E-4
            9.6674954692428E-4
            9.6972056220729E-4
            9.7270069918947E-4
            9.7568998582220E-4
            9.7868845014217E-4
            9.8169612027164E-4
            9.8471302441871E-4
            9.8773919087758E-4
            9.9077464802880E-4
            9.9381942433952E-4
            9.9687354836379E-4
            9.9993704874279E-4
            1.0030099542051E-3
            1.0060922935670E-3
            1.0091840957326E-3
            1.0122853896944E-3
            1.0153962045332E-3
            1.0185165694187E-3
            1.0216465136093E-3
            1.0247860664530E-3
            1.0279352573872E-3
            1.0310941159391E-3
            1.0342626717260E-3
            1.0374409544556E-3
            1.0406289939263E-3
            1.0438268200271E-3
            1.0470344627386E-3
            1.0502519521326E-3
            1.0534793183726E-3
            1.0567165917142E-3
            1.0599638025054E-3
            1.0632209811865E-3
            1.0664881582909E-3
            1.0697653644450E-3
            1.0730526303687E-3
            1.0763499868755E-3
            1.0796574648728E-3
            1.0829750953625E-3
            1.0863029094409E-3
            1.0896409382990E-3
            1.0929892132233E-3
            1.0963477655953E-3
            1.0997166268925E-3
            1.1030958286881E-3
            1.1064854026517E-3
            1.1098853805497E-3
            1.1132957942449E-3
            1.1167166756976E-3
            1.1201480569655E-3
            1.1235899702038E-3
            1.1270424476660E-3
            1.1305055217038E-3
            1.1339792247675E-3
            1.1374635894065E-3
            1.1409586482691E-3
            1.1444644341035E-3
            1.1479809797575E-3
            1.1515083181789E-3
            1.1550464824163E-3
            1.1585955056186E-3
            1.1621554210361E-3
            1.1657262620203E-3
            1.1693080620242E-3
            1.1729008546029E-3
            1.1765046734138E-3
            1.1801195522168E-3
            1.1837455248746E-3
            1.1873826253532E-3
            1.1910308877220E-3
            1.1946903461545E-3
            1.1983610349278E-3
            1.2020429884239E-3
            1.2057362411294E-3
            1.2094408276359E-3
            1.2131567826404E-3
            1.2168841409458E-3
            1.2206229374607E-3
            1.2243732072003E-3
            1.2281349852863E-3
            1.2319083069476E-3
            1.2356932075202E-3
            1.2394897224477E-3
            1.2432978872819E-3
            1.2471177376827E-3
            1.2509493094185E-3
            1.2547926383670E-3
            1.2586477605148E-3
            1.2625147119583E-3
            1.2663935289038E-3
            1.2702842476677E-3
            1.2741869046771E-3
            1.2781015364701E-3
            1.2820281796959E-3
            1.2859668711155E-3
            1.2899176476015E-3
            1.2938805461392E-3
            1.2978556038260E-3
            1.3018428578726E-3
            1.3058423456028E-3
            1.3098541044543E-3
            1.3138781719784E-3
            1.3179145858408E-3
            1.3219633838221E-3
            1.3260246038177E-3
            1.3300982838382E-3
            1.3341844620101E-3
            1.3382831765760E-3
            1.3423944658947E-3
            1.3465183684417E-3
            1.3506549228099E-3
            1.3548041677094E-3
            1.3589661419681E-3
            1.3631408845320E-3
            1.3673284344658E-3
            1.3715288309530E-3
            1.3757421132961E-3
            1.3799683209176E-3
            1.3842074933595E-3
            1.3884596702843E-3
            1.3927248914753E-3
            1.3970031968365E-3
            1.4012946263935E-3
            1.4055992202937E-3
            1.4099170188065E-3
            1.4142480623238E-3
            1.4185923913604E-3
            1.4229500465542E-3
            1.4273210686669E-3
            1.4317054985840E-3
            1.4361033773155E-3
            1.4405147459958E-3
            1.4449396458848E-3
            1.4493781183675E-3
            1.4538302049549E-3
            1.4582959472844E-3
            1.4627753871196E-3
            1.4672685663513E-3
            1.4717755269978E-3
            1.4762963112048E-3
            1.4808309612464E-3
            1.4853795195251E-3
            1.4899420285723E-3
            1.4945185310488E-3
            1.4991090697448E-3
            1.5037136875808E-3
            1.5083324276077E-3
            1.5129653330072E-3
            1.5176124470922E-3
            1.5222738133073E-3
            1.5269494752292E-3
            1.5316394765668E-3
            1.5363438611620E-3
            1.5410626729899E-3
            1.5457959561591E-3
            1.5505437549123E-3
            1.5553061136266E-3
            1.5600830768140E-3
            1.5648746891216E-3
            1.5696809953321E-3
            1.5745020403644E-3
            1.5793378692739E-3
            1.5841885272525E-3
            1.5890540596297E-3
            1.5939345118726E-3
            1.5988299295862E-3
            1.6037403585144E-3
            1.6086658445396E-3
            1.6136064336837E-3
            1.6185621721085E-3
            1.6235331061158E-3
            1.6285192821480E-3
            1.6335207467884E-3
            1.6385375467622E-3
            1.6435697289358E-3
            1.6486173403184E-3
            1.6536804280617E-3
            1.6587590394606E-3
            1.6638532219535E-3
            1.6689630231228E-3
            1.6740884906953E-3
            1.6792296725429E-3
            1.6843866166824E-3
            1.6895593712766E-3
            1.6947479846345E-3
            1.6999525052114E-3
            1.7051729816100E-3
            1.7104094625803E-3
            1.7156619970201E-3
            1.7209306339759E-3
            1.7262154226426E-3
            1.7315164123647E-3
            1.7368336526362E-3
            1.7421671931014E-3
            1.7475170835550E-3
            1.7528833739428E-3
            1.7582661143622E-3
            1.7636653550626E-3
            1.7690811464455E-3
            1.7745135390656E-3
            1.7799625836307E-3
            1.7854283310025E-3
            1.7909108321969E-3
            1.7964101383844E-3
            1.8019263008908E-3
            1.8074593711974E-3
            1.8130094009416E-3
            1.8185764419175E-3
            1.8241605460761E-3
            1.8297617655259E-3
            1.8353801525333E-3
            1.8410157595232E-3
            1.8466686390794E-3
            1.8523388439451E-3
            1.8580264270233E-3
            1.8637314413774E-3
            1.8694539402315E-3
            1.8751939769711E-3
            1.8809516051433E-3
            1.8867268784577E-3
            1.8925198507865E-3
            1.8983305761651E-3
            1.9041591087926E-3
            1.9100055030324E-3
            1.9158698134125E-3
            1.9217520946261E-3
            1.9276524015321E-3
            1.9335707891555E-3
            1.9395073126879E-3
            1.9454620274883E-3
            1.9514349890831E-3
            1.9574262531670E-3
            1.9634358756033E-3
            1.9694639124245E-3
            1.9755104198326E-3
            1.9815754542001E-3
            1.9876590720698E-3
            1.9937613301558E-3
            1.9998822853442E-3
            2.0060219946928E-3
            2.0121805154324E-3
            2.0183579049670E-3
            2.0245542208744E-3
            2.0307695209064E-3
            2.0370038629900E-3
            2.0432573052272E-3
            2.0495299058958E-3
            2.0558217234501E-3
            2.0621328165212E-3
            2.0684632439176E-3
            2.0748130646257E-3
            2.0811823378104E-3
            2.0875711228156E-3
            2.0939794791646E-3
            2.1004074665608E-3
            2.1068551448883E-3
            2.1133225742122E-3
            2.1198098147792E-3
            2.1263169270184E-3
            2.1328439715415E-3
            2.1393910091434E-3
            2.1459581008031E-3
            2.1525453076836E-3
            2.1591526911332E-3
            2.1657803126854E-3
            2.1724282340599E-3
            2.1790965171628E-3
            2.1857852240874E-3
            2.1924944171148E-3
            2.1992241587141E-3
            2.2059745115434E-3
            2.2127455384501E-3
            2.2195373024715E-3
            2.2263498668354E-3
            2.2331832949606E-3
            2.2400376504575E-3
            2.2469129971289E-3
            2.2538093989700E-3
            2.2607269201697E-3
            2.2676656251104E-3
            2.2746255783693E-3
            2.2816068447185E-3
            2.2886094891258E-3
            2.2956335767551E-3
            2.3026791729671E-3
            2.3097463433199E-3
            2.3168351535697E-3
            2.3239456696710E-3
            2.3310779577775E-3
            2.3382320842428E-3
            2.3454081156205E-3
            2.3526061186653E-3
            2.3598261603334E-3
            2.3670683077831E-3
            2.3743326283752E-3
            2.3816191896741E-3
            2.3889280594477E-3
            2.3962593056688E-3
            2.4036129965151E-3
            2.4109892003700E-3
            2.4183879858231E-3
            2.4258094216713E-3
            2.4332535769187E-3
            2.4407205207775E-3
            2.4482103226691E-3
            2.4557230522237E-3
            2.4632587792820E-3
            2.4708175738950E-3
            2.4783995063252E-3
            2.4860046470466E-3
            2.4936330667461E-3
            2.5012848363235E-3
            2.5089600268923E-3
            2.5166587097805E-3
            2.5243809565311E-3
            2.5321268389027E-3
            2.5398964288702E-3
            2.5476897986254E-3
            2.5555070205778E-3
            2.5633481673548E-3
            2.5712133118030E-3
            2.5791025269882E-3
            2.5870158861966E-3
            2.5949534629350E-3
            2.6029153309316E-3
            2.6109015641368E-3
            2.6189122367238E-3
            2.6269474230892E-3
            2.6350071978534E-3
            2.6430916358617E-3
            2.6512008121850E-3
            2.6593348021198E-3
            2.6674936811897E-3
            2.6756775251455E-3
            2.6838864099660E-3
            2.6921204118588E-3
            2.7003796072609E-3
            2.7086640728393E-3
            2.7169738854919E-3
            2.7253091223478E-3
            2.7336698607683E-3
            2.7420561783476E-3
            2.7504681529132E-3
            2.7589058625268E-3
            2.7673693854849E-3
            2.7758588003198E-3
            2.7843741857996E-3
            2.7929156209297E-3
            2.8014831849528E-3
            2.8100769573503E-3
            2.8186970178421E-3
            2.8273434463884E-3
            2.8360163231893E-3
            2.8447157286863E-3
            2.8534417435627E-3
            2.8621944487444E-3
            2.8709739254003E-3
            2.8797802549435E-3
            2.8886135190318E-3
            2.8974737995682E-3
            2.9063611787020E-3
            2.9152757388294E-3
            2.9242175625938E-3
            2.9331867328873E-3
            2.9421833328509E-3
            2.9512074458752E-3
            2.9602591556014E-3
            2.9693385459219E-3
            2.9784457009811E-3
            2.9875807051759E-3
            2.9967436431569E-3
            3.0059345998287E-3
            3.0151536603507E-3
            3.0244009101383E-3
            3.0336764348629E-3
            3.0429803204534E-3
            3.0523126530964E-3
            3.0616735192373E-3
            3.0710630055807E-3
            3.0804811990916E-3
            3.0899281869959E-3
            3.0994040567811E-3
            3.1089088961973E-3
            3.1184427932576E-3
            3.1280058362393E-3
            3.1375981136845E-3
            3.1472197144007E-3
            3.1568707274618E-3
            3.1665512422089E-3
            3.1762613482506E-3
            3.1860011354646E-3
            3.1957706939978E-3
            3.2055701142675E-3
            3.2153994869617E-3
            3.2252589030405E-3
            3.2351484537366E-3
            3.2450682305558E-3
            3.2550183252785E-3
            3.2649988299597E-3
            3.2750098369304E-3
            3.2850514387983E-3
            3.2951237284482E-3
            3.3052267990433E-3
            3.3153607440258E-3
            3.3255256571177E-3
            3.3357216323217E-3
            3.3459487639218E-3
            3.3562071464845E-3
            3.3664968748592E-3
            3.3768180441795E-3
            3.3871707498633E-3
            3.3975550876145E-3
            3.4079711534232E-3
            3.4184190435668E-3
            3.4288988546107E-3
            3.4394106834094E-3
            3.4499546271069E-3
            3.4605307831379E-3
            3.4711392492286E-3
            3.4817801233975E-3
            3.4924535039559E-3
            3.5031594895096E-3
            3.5138981789588E-3
            3.5246696714997E-3
            3.5354740666247E-3
            3.5463114641239E-3
            3.5571819640856E-3
            3.5680856668972E-3
            3.5790226732460E-3
            3.5899930841204E-3
            3.6009970008104E-3
            3.6120345249085E-3
            3.6231057583109E-3
            3.6342108032180E-3
            3.6453497621357E-3
            3.6565227378756E-3
            3.6677298335568E-3
            3.6789711526061E-3
            3.6902467987589E-3
            3.7015568760606E-3
            3.7129014888670E-3
            3.7242807418454E-3
            3.7356947399757E-3
            3.7471435885508E-3
            3.7586273931779E-3
            3.7701462597793E-3
            3.7817002945933E-3
            3.7932896041752E-3
            3.8049142953980E-3
            3.8165744754535E-3
            3.8282702518532E-3
            3.8400017324293E-3
            3.8517690253352E-3
            3.8635722390472E-3
            3.8754114823645E-3
            3.8872868644110E-3
            3.8991984946355E-3
            3.9111464828133E-3
            3.9231309390466E-3
            3.9351519737658E-3
            3.9472096977302E-3
            3.9593042220291E-3
            3.9714356580827E-3
            3.9836041176431E-3
            3.9958097127950E-3
            4.0080525559571E-3
            4.0203327598828E-3
            4.0326504376611E-3
            4.0450057027177E-3
            4.0573986688159E-3
            4.0698294500575E-3
            4.0822981608842E-3
            4.0948049160777E-3
            4.1073498307618E-3
            4.1199330204023E-3
            4.1325546008087E-3
            4.1452146881351E-3
            4.1579133988807E-3
            4.1706508498915E-3
            4.1834271583607E-3
            4.1962424418300E-3
            4.2090968181906E-3
            4.2219904056840E-3
            4.2349233229033E-3
            4.2478956887938E-3
            4.2609076226545E-3
            4.2739592441387E-3
            4.2870506732553E-3
            4.3001820303695E-3
            4.3133534362043E-3
            4.3265650118409E-3
            4.3398168787203E-3
            4.3531091586441E-3
            4.3664419737753E-3
            4.3798154466398E-3
            4.3932297001270E-3
            4.4066848574912E-3
            4.4201810423522E-3
            4.4337183786969E-3
            4.4472969908799E-3
            4.4609170036247E-3
            4.4745785420248E-3
            4.4882817315448E-3
            4.5020266980213E-3
            4.5158135676638E-3
            4.5296424670564E-3
            4.5435135231583E-3
            4.5574268633048E-3
            4.5713826152089E-3
            4.5853809069621E-3
            4.5994218670351E-3
            4.6135056242795E-3
            4.6276323079287E-3
            4.6418020475987E-3
            4.6560149732894E-3
            4.6702712153857E-3
            4.6845709046588E-3
            4.6989141722666E-3
            4.7133011497557E-3
            4.7277319690619E-3
            4.7422067625115E-3
            4.7567256628223E-3
            4.7712888031049E-3
            4.7858963168636E-3
            4.8005483379977E-3
            4.8152450008026E-3
            4.8299864399708E-3
            4.8447727905930E-3
            4.8596041881594E-3
            4.8744807685609E-3
            4.8894026680898E-3
            4.9043700234413E-3
            4.9193829717148E-3
            4.9344416504145E-3
            4.9495461974510E-3
            4.9646967511422E-3
            4.9798934502146E-3
            4.9951364338045E-3
            5.0104258414589E-3
            5.0257618131368E-3
            5.0411444892105E-3
            5.0565740104667E-3
            5.0720505181074E-3
            5.0875741537514E-3
            5.1031450594355E-3
            5.1187633776152E-3
            5.1344292511665E-3
            5.1501428233868E-3
            5.1659042379960E-3
