looks/Linear_to_0-5_1-05_Tonemap.spi1d
Version 1
From 0.000000 1.000000
Length 4096
Components 1
{
            2.5202068359368E-2
            2.5236666714546E-2
            2.5271311684863E-2
            2.5306003330638E-2
            2.5340741712258E-2
            2.5375526890183E-2
            2.5410358924944E-2
            2.5445237877142E-2
            2.5480163807450E-2
            2.5515136776614E-2
            2.5550156845448E-2
            2.5585224074841E-2
            2.5620338525751E-2
            2.5655500259208E-2
            2.5690709336315E-2
            2.5725965818245E-2
            2.5761269766245E-2
            2.5796621241631E-2
            2.5832020305794E-2
            2.5867467020193E-2
            2.5902961446364E-2
            2.5938503645911E-2
            2.5974093680513E-2
            2.6009731611918E-2
            2.6045417501950E-2
            2.6081151412502E-2
            2.6116933405543E-2
            2.6152763543111E-2
            2.6188641887318E-2
            2.6224568500349E-2
            2.6260543444462E-2
            2.6296566781986E-2
            2.6332638575324E-2
            2.6368758886952E-2
            2.6404927779419E-2
            2.6441145315347E-2
            2.6477411557429E-2
            2.6513726568434E-2
            2.6550090411204E-2
            2.6586503148651E-2
            2.6622964843764E-2
            2.6659475559603E-2
            2.6696035359304E-2
            2.6732644306073E-2
            2.6769302463193E-2
            2.6806009894017E-2
            2.6842766661976E-2
            2.6879572830572E-2
            2.6916428463380E-2
            2.6953333624051E-2
            2.6990288376309E-2
            2.7027292783952E-2
            2.7064346910853E-2
            2.7101450820957E-2
            2.7138604578286E-2
            2.7175808246933E-2
            2.7213061891069E-2
            2.7250365574936E-2
            2.7287719362852E-2
            2.7325123319210E-2
            2.7362577508477E-2
            2.7400081995194E-2
            2.7437636843977E-2
            2.7475242119519E-2
            2.7512897886584E-2
            2.7550604210013E-2
            2.7588361154722E-2
            2.7626168785702E-2
            2.7664027168019E-2
            2.7701936366813E-2
            2.7739896447301E-2
            2.7777907474774E-2
            2.7815969514598E-2
            2.7854082632216E-2
            2.7892246893146E-2
            2.7930462362980E-2
            2.7968729107387E-2
            2.8007047192112E-2
            2.8045416682973E-2
            2.8083837645868E-2
            2.8122310146767E-2
            2.8160834251718E-2
            2.8199410026845E-2
            2.8238037538346E-2
            2.8276716852498E-2
            2.8315448035651E-2
            2.8354231154235E-2
            2.8393066274752E-2
            2.8431953463783E-2
            2.8470892787984E-2
            2.8509884314090E-2
            2.8548928108910E-2
            2.8588024239330E-2
            2.8627172772314E-2
            2.8666373774899E-2
            2.8705627314204E-2
            2.8744933457422E-2
            2.8784292271822E-2
            2.8823703824751E-2
            2.8863168183634E-2
            2.8902685415971E-2
            2.8942255589342E-2
            2.8981878771401E-2
            2.9021555029881E-2
            2.9061284432592E-2
            2.9101067047421E-2
            2.9140902942334E-2
            2.9180792185372E-2
            2.9220734844656E-2
            2.9260730988383E-2
            2.9300780684829E-2
            2.9340884002345E-2
            2.9381041009363E-2
            2.9421251774393E-2
            2.9461516366019E-2
            2.9501834852907E-2
            2.9542207303799E-2
            2.9582633787517E-2
            2.9623114372959E-2
            2.9663649129102E-2
            2.9704238125001E-2
            2.9744881429791E-2
            2.9785579112684E-2
            2.9826331242970E-2
            2.9867137890019E-2
            2.9907999123279E-2
            2.9948915012275E-2
            2.9989885626615E-2
            3.0030911035981E-2
            3.0071991310136E-2
            3.0113126518922E-2
            3.0154316732261E-2
            3.0195562020152E-2
            3.0236862452673E-2
            3.0278218099984E-2
            3.0319629032321E-2
            3.0361095320001E-2
            3.0402617033419E-2
            3.0444194243052E-2
            3.0485827019454E-2
            3.0527515433259E-2
            3.0569259555181E-2
            3.0611059456013E-2
            3.0652915206630E-2
            3.0694826877983E-2
            3.0736794541106E-2
            3.0778818267111E-2
            3.0820898127192E-2
            3.0863034192620E-2
            3.0905226534748E-2
            3.0947475225009E-2
            3.0989780334916E-2
            3.1032141936063E-2
            3.1074560100122E-2
            3.1117034898848E-2
            3.1159566404075E-2
            3.1202154687718E-2
            3.1244799821773E-2
            3.1287501878314E-2
            3.1330260929499E-2
            3.1373077047565E-2
            3.1415950304831E-2
            3.1458880773694E-2
            3.1501868526635E-2
            3.1544913636215E-2
            3.1588016175076E-2
            3.1631176215940E-2
            3.1674393831611E-2
            3.1717669094975E-2
            3.1761002078998E-2
            3.1804392856728E-2
            3.1847841501294E-2
            3.1891348085907E-2
            3.1934912683858E-2
            3.1978535368521E-2
            3.2022216213352E-2
            3.2065955291887E-2
            3.2109752677746E-2
            3.2153608444627E-2
            3.2197522666315E-2
            3.2241495416672E-2
            3.2285526769645E-2
            3.2329616799261E-2
            3.2373765579632E-2
            3.2417973184949E-2
            3.2462239689487E-2
            3.2506565167603E-2
            3.2550949693736E-2
            3.2595393342406E-2
            3.2639896188219E-2
            3.2684458305859E-2
            3.2729079770097E-2
            3.2773760655784E-2
            3.2818501037853E-2
            3.2863300991322E-2
            3.2908160591289E-2
            3.2953079912939E-2
            3.2998059031535E-2
            3.3043098022426E-2
            3.3088196961043E-2
            3.3133355922901E-2
            3.3178574983597E-2
            3.3223854218811E-2
            3.3269193704307E-2
            3.3314593515933E-2
            3.3360053729619E-2
            3.3405574421378E-2
            3.3451155667308E-2
            3.3496797543590E-2
            3.3542500126488E-2
            3.3588263492350E-2
            3.3634087717607E-2
            3.3679972878775E-2
            3.3725919052453E-2
            3.3771926315325E-2
            3.3817994744156E-2
            3.3864124415798E-2
            3.3910315407187E-2
            3.3956567795340E-2
            3.4002881657360E-2
            3.4049257070436E-2
            3.4095694111839E-2
            3.4142192858924E-2
            3.4188753389132E-2
            3.4235375779987E-2
            3.4282060109098E-2
            3.4328806454160E-2
            3.4375614892949E-2
            3.4422485503328E-2
            3.4469418363246E-2
            3.4516413550734E-2
            3.4563471143909E-2
            3.4610591220973E-2
            3.4657773860213E-2
            3.4705019140000E-2
            3.4752327138791E-2
            3.4799697935128E-2
            3.4847131607637E-2
            3.4894628235031E-2
            3.4942187896107E-2
            3.4989810669747E-2
            3.5037496634920E-2
            3.5085245870678E-2
            3.5133058456160E-2
            3.5180934470590E-2
            3.5228873993278E-2
            3.5276877103620E-2
            3.5324943881096E-2
            3.5373074405274E-2
            3.5421268755805E-2
            3.5469527012428E-2
            3.5517849254967E-2
            3.5566235563332E-2
            3.5614686017520E-2
            3.5663200697611E-2
            3.5711779683776E-2
            3.5760423056267E-2
            3.5809130895425E-2
            3.5857903281678E-2
            3.5906740295537E-2
            3.5955642017603E-2
            3.6004608528561E-2
            3.6053639909184E-2
            3.6102736240330E-2
            3.6151897602944E-2
            3.6201124078059E-2
            3.6250415746793E-2
            3.6299772690350E-2
            3.6349194990024E-2
            3.6398682727193E-2
            3.6448235983322E-2
            3.6497854839964E-2
            3.6547539378760E-2
            3.6597289681434E-2
            3.6647105829801E-2
            3.6696987905762E-2
            3.6746935991305E-2
            3.6796950168505E-2
            3.6847030519523E-2
            3.6897177126611E-2
            3.6947390072104E-2
            3.6997669438428E-2
            3.7048015308094E-2
            3.7098427763702E-2
            3.7148906887939E-2
            3.7199452763580E-2
            3.7250065473487E-2
            3.7300745100611E-2
            3.7351491727988E-2
            3.7402305438744E-2
            3.7453186316094E-2
            3.7504134443339E-2
            3.7555149903867E-2
            3.7606232781157E-2
            3.7657383158774E-2
            3.7708601120372E-2
            3.7759886749691E-2
            3.7811240130563E-2
            3.7862661346905E-2
            3.7914150482724E-2
            3.7965707622115E-2
            3.8017332849261E-2
            3.8069026248434E-2
            3.8120787903994E-2
            3.8172617900389E-2
            3.8224516322157E-2
            3.8276483253925E-2
            3.8328518780406E-2
            3.8380622986404E-2
            3.8432795956811E-2
            3.8485037776609E-2
            3.8537348530866E-2
            3.8589728304743E-2
            3.8642177183486E-2
            3.8694695252432E-2
            3.8747282597008E-2
            3.8799939302728E-2
            3.8852665455195E-2
            3.8905461140104E-2
            3.8958326443238E-2
            3.9011261450466E-2
            3.9064266247752E-2
            3.9117340921145E-2
            3.9170485556785E-2
            3.9223700240902E-2
            3.9276985059814E-2
            3.9330340099930E-2
            3.9383765447748E-2
            3.9437261189856E-2
            3.9490827412931E-2
            3.9544464203740E-2
            3.9598171649140E-2
            3.9651949836078E-2
            3.9705798851590E-2
            3.9759718782804E-2
            3.9813709716934E-2
            3.9867771741289E-2
            3.9921904943264E-2
            3.9976109410345E-2
            4.0030385230111E-2
            4.0084732490226E-2
            4.0139151278450E-2
            4.0193641682628E-2
            4.0248203790698E-2
            4.0302837690689E-2
            4.0357543470719E-2
            4.0412321218996E-2
            4.0467171023820E-2
            4.0522092973581E-2
            4.0577087156758E-2
            4.0632153661924E-2
            4.0687292577738E-2
            4.0742503992954E-2
            4.0797787996414E-2
            4.0853144677052E-2
            4.0908574123892E-2
            4.0964076426051E-2
            4.1019651672732E-2
            4.1075299953235E-2
            4.1131021356947E-2
            4.1186815973346E-2
            4.1242683892004E-2
            4.1298625202581E-2
            4.1354639994829E-2
            4.1410728358591E-2
            4.1466890383803E-2
            4.1523126160490E-2
            4.1579435778769E-2
            4.1635819328849E-2
            4.1692276901029E-2
            4.1748808585701E-2
            4.1805414473346E-2
            4.1862094654540E-2
            4.1918849219947E-2
            4.1975678260324E-2
            4.2032581866521E-2
            4.2089560129477E-2
            4.2146613140225E-2
            4.2203740989887E-2
            4.2260943769679E-2
            4.2318221570908E-2
            4.2375574484973E-2
            4.2433002603365E-2
            4.2490506017666E-2
            4.2548084819551E-2
            4.2605739100786E-2
            4.2663468953229E-2
            4.2721274468831E-2
            4.2779155739633E-2
            4.2837112857772E-2
            4.2895145915472E-2
            4.2953255005054E-2
            4.3011440218927E-2
            4.3069701649596E-2
            4.3128039389655E-2
            4.3186453531792E-2
            4.3244944168787E-2
            4.3303511393513E-2
            4.3362155298934E-2
            4.3420875978108E-2
            4.3479673524184E-2
            4.3538548030404E-2
            4.3597499590104E-2
            4.3656528296709E-2
            4.3715634243740E-2
            4.3774817524810E-2
            4.3834078233623E-2
            4.3893416463977E-2
            4.3952832309763E-2
            4.4012325864964E-2
            4.4071897223655E-2
            4.4131546480006E-2
            4.4191273728278E-2
            4.4251079062826E-2
            4.4310962578097E-2
            4.4370924368631E-2
            4.4430964529062E-2
            4.4491083154116E-2
            4.4551280338612E-2
            4.4611556177463E-2
            4.4671910765674E-2
            4.4732344198343E-2
            4.4792856570662E-2
            4.4853447977916E-2
            4.4914118515484E-2
            4.4974868278835E-2
            4.5035697363535E-2
            4.5096605865242E-2
            4.5157593879706E-2
            4.5218661502772E-2
            4.5279808830378E-2
            4.5341035958555E-2
            4.5402342983427E-2
            4.5463730001213E-2
            4.5525197108224E-2
            4.5586744400864E-2
            4.5648371975633E-2
            4.5710079929122E-2
            4.5771868358017E-2
            4.5833737359098E-2
            4.5895687029236E-2
            4.5957717465399E-2
            4.6019828764647E-2
            4.6082021024133E-2
            4.6144294341105E-2
            4.6206648812905E-2
            4.6269084536967E-2
            4.6331601610820E-2
            4.6394200132087E-2
            4.6456880198485E-2
            4.6519641907824E-2
            4.6582485358007E-2
            4.6645410647035E-2
            4.6708417872997E-2
            4.6771507134081E-2
            4.6834678528567E-2
            4.6897932154828E-2
            4.6961268111332E-2
            4.7024686496643E-2
            4.7088187409415E-2
            4.7151770948399E-2
            4.7215437212440E-2
            4.7279186300475E-2
            4.7343018311538E-2
            4.7406933344755E-2
            4.7470931499346E-2
            4.7535012874629E-2
            4.7599177570010E-2
            4.7663425684995E-2
            4.7727757319181E-2
            4.7792172572260E-2
            4.7856671544018E-2
            4.7921254334336E-2
            4.7985921043190E-2
            4.8050671770649E-2
            4.8115506616875E-2
            4.8180425682129E-2
            4.8245429066761E-2
            4.8310516871220E-2
            4.8375689196046E-2
            4.8440946141875E-2
            4.8506287809438E-2
            4.8571714299559E-2
            4.8637225713157E-2
            4.8702822151247E-2
            4.8768503714937E-2
            4.8834270505429E-2
            4.8900122624021E-2
            4.8966060172105E-2
            4.9032083251167E-2
            4.9098191962788E-2
            4.9164386408645E-2
            4.9230666690507E-2
            4.9297032910240E-2
            4.9363485169803E-2
            4.9430023571250E-2
            4.9496648216730E-2
            4.9563359208488E-2
            4.9630156648860E-2
            4.9697040640281E-2
            4.9764011285278E-2
            4.9831068686473E-2
            4.9898212946584E-2
            4.9965444168423E-2
            5.0032762454896E-2
            5.0100167909004E-2
            5.0167660633845E-2
            5.0235240732608E-2
            5.0302908308580E-2
            5.0370663465142E-2
            5.0438506305768E-2
            5.0506436934029E-2
            5.0574455453590E-2
            5.0642561968211E-2
            5.0710756581747E-2
            5.0779039398146E-2
            5.0847410521455E-2
            5.0915870055811E-2
            5.0984418105449E-2
            5.1053054774698E-2
            5.1121780167981E-2
            5.1190594389818E-2
            5.1259497544823E-2
            5.1328489737703E-2
            5.1397571073262E-2
            5.1466741656399E-2
            5.1536001592106E-2
            5.1605350985472E-2
            5.1674789941680E-2
            5.1744318566007E-2
            5.1813936963827E-2
            5.1883645240607E-2
            5.1953443501910E-2
            5.2023331853394E-2
            5.2093310400811E-2
            5.2163379250009E-2
            5.2233538506929E-2
            5.2303788277610E-2
            5.2374128668183E-2
            5.2444559784875E-2
            5.2515081734009E-2
            5.2585694622001E-2
            5.2656398555364E-2
            5.2727193640704E-2
            5.2798079984723E-2
            5.2869057694218E-2
            5.2940126876079E-2
            5.3011287637294E-2
            5.3082540084944E-2
            5.3153884326206E-2
            5.3225320468349E-2
            5.3296848618741E-2
            5.3368468884842E-2
            5.3440181374209E-2
            5.3511986194492E-2
            5.3583883453436E-2
            5.3655873258882E-2
            5.3727955718765E-2
            5.3800130941116E-2
            5.3872399034060E-2
            5.3944760105816E-2
            5.4017214264699E-2
            5.4089761619120E-2
            5.4162402277581E-2
            5.4235136348683E-2
            5.4307963941119E-2
            5.4380885163679E-2
            5.4453900125246E-2
            5.4527008934798E-2
            5.4600211701409E-2
            5.4673508534246E-2
            5.4746899542572E-2
            5.4820384835745E-2
            5.4893964523216E-2
            5.4967638714533E-2
            5.5041407519337E-2
            5.5115271047365E-2
            5.5189229408447E-2
            5.5263282712509E-2
            5.5337431069572E-2
            5.5411674589750E-2
            5.5486013383252E-2
            5.5560447560384E-2
            5.5634977231543E-2
            5.5709602507224E-2
            5.5784323498014E-2
            5.5859140314595E-2
            5.5934053067745E-2
            5.6009061868335E-2
            5.6084166827331E-2
            5.6159368055794E-2
            5.6234665664879E-2
            5.6310059765835E-2
            5.6385550470007E-2
            5.6461137888832E-2
            5.6536822133843E-2
            5.6612603316668E-2
            5.6688481549028E-2
            5.6764456942738E-2
            5.6840529609709E-2
            5.6916699661946E-2
            5.6992967211547E-2
            5.7069332370704E-2
            5.7145795251706E-2
            5.7222355966934E-2
            5.7299014628863E-2
            5.7375771350064E-2
            5.7452626243199E-2
            5.7529579421028E-2
            5.7606630996402E-2
            5.7683781082268E-2
            5.7761029791666E-2
            5.7838377237730E-2
            5.7915823533689E-2
            5.7993368792865E-2
            5.8071013128674E-2
            5.8148756654627E-2
            5.8226599484327E-2
            5.8304541731473E-2
            5.8382583509856E-2
            5.8460724933361E-2
            5.8538966115970E-2
            5.8617307171753E-2
            5.8695748214879E-2
            5.8774289359608E-2
            5.8852930720294E-2
            5.8931672411385E-2
            5.9010514547423E-2
            5.9089457243042E-2
            5.9168500612972E-2
            5.9247644772033E-2
            5.9326889835143E-2
            5.9406235917310E-2
            5.9485683133636E-2
            5.9565231599317E-2
            5.9644881429643E-2
            5.9724632739996E-2
            5.9804485645852E-2
            5.9884440262779E-2
            5.9964496706440E-2
            6.0044655092591E-2
            6.0124915537079E-2
            6.0205278155847E-2
            6.0285743064929E-2
            6.0366310380453E-2
            6.0446980218639E-2
            6.0527752695802E-2
            6.0608627928347E-2
            6.0689606032775E-2
            6.0770687125676E-2
            6.0851871323737E-2
            6.0933158743736E-2
            6.1014549502541E-2
            6.1096043717117E-2
            6.1177641504520E-2
            6.1259342981898E-2
            6.1341148266491E-2
            6.1423057475633E-2
            6.1505070726749E-2
            6.1587188137359E-2
            6.1669409825072E-2
            6.1751735907592E-2
            6.1834166502713E-2
            6.1916701728323E-2
            6.1999341702401E-2
            6.2082086543020E-2
            6.2164936368343E-2
            6.2247891296625E-2
            6.2330951446215E-2
            6.2414116935552E-2
            6.2497387883169E-2
            6.2580764407687E-2
            6.2664246627824E-2
            6.2747834662384E-2
            6.2831528630269E-2
            6.2915328650467E-2
            6.2999234842060E-2
            6.3083247324223E-2
            6.3167366216220E-2
            6.3251591637407E-2
            6.3335923707232E-2
            6.3420362545234E-2
            6.3504908271044E-2
            6.3589561004384E-2
            6.3674320865064E-2
            6.3759187972991E-2
            6.3844162448158E-2
            6.3929244410652E-2
            6.4014433980648E-2
            6.4099731278416E-2
            6.4185136424313E-2
            6.4270649538788E-2
            6.4356270742382E-2
            6.4442000155724E-2
            6.4527837899537E-2
            6.4613784094632E-2
            6.4699838861911E-2
            6.4786002322366E-2
            6.4872274597081E-2
            6.4958655807228E-2
            6.5045146074072E-2
            6.5131745518964E-2
            6.5218454263350E-2
            6.5305272428761E-2
            6.5392200136823E-2
            6.5479237509249E-2
            6.5566384667841E-2
            6.5653641734493E-2
            6.5741008831187E-2
            6.5828486079996E-2
            6.5916073603081E-2
            6.6003771522695E-2
            6.6091579961177E-2
            6.6179499040957E-2
            6.6267528884556E-2
            6.6355669614582E-2
            6.6443921353732E-2
            6.6532284224794E-2
            6.6620758350642E-2
            6.6709343854243E-2
            6.6798040858648E-2
            6.6886849487001E-2
            6.6975769862533E-2
            6.7064802108562E-2
            6.7153946348499E-2
            6.7243202705838E-2
            6.7332571304166E-2
            6.7422052267155E-2
            6.7511645718567E-2
            6.7601351782252E-2
            6.7691170582147E-2
            6.7781102242280E-2
            6.7871146886763E-2
            6.7961304639798E-2
            6.8051575625675E-2
            6.8141959968770E-2
            6.8232457793549E-2
            6.8323069224564E-2
            6.8413794386454E-2
            6.8504633403946E-2
            6.8595586401855E-2
            6.8686653505083E-2
            6.8777834838618E-2
            6.8869130527535E-2
            6.8960540696998E-2
            6.9052065472255E-2
            6.9143704978644E-2
            6.9235459341586E-2
            6.9327328686592E-2
            6.9419313139257E-2
            6.9511412825263E-2
            6.9603627870381E-2
            6.9695958400464E-2
            6.9788404541453E-2
            6.9880966419376E-2
            6.9973644160347E-2
            7.0066437890563E-2
            7.0159347736309E-2
            7.0252373823957E-2
            7.0345516279962E-2
            7.0438775230866E-2
            7.0532150803295E-2
            7.0625643123962E-2
            7.0719252319664E-2
            7.0812978517284E-2
            7.0906821843790E-2
            7.1000782426233E-2
            7.1094860391752E-2
            7.1189055867567E-2
            7.1283368980987E-2
            7.1377799859401E-2
            7.1472348630286E-2
