looks/Linear_to_0-7_1-05_Tonemap.spi1d
Version 1
From 0.000000 1.000000
Length 4096
Components 1
{
            6.5546858852284E-3
            6.5674536358213E-3
            6.5802461411571E-3
            6.5930634487706E-3
            6.6059056062858E-3
            6.6187726614165E-3
            6.6316646619661E-3
            6.6445816558279E-3
            6.6575236909854E-3
            6.6704908155122E-3
            6.6834830775725E-3
            6.6965005254209E-3
            6.7095432074028E-3
            6.7226111719543E-3
            6.7357044676030E-3
            6.7488231429672E-3
            6.7619672467569E-3
            6.7751368277736E-3
            6.7883319349104E-3
            6.8015526171524E-3
            6.8147989235766E-3
            6.8280709033525E-3
            6.8413686057415E-3
            6.8546920800979E-3
            6.8680413758687E-3
            6.8814165425935E-3
            6.8948176299051E-3
            6.9082446875296E-3
            6.9216977652862E-3
            6.9351769130880E-3
            6.9486821809415E-3
            6.9622136189471E-3
            6.9757712772993E-3
            6.9893552062869E-3
            7.0029654562929E-3
            7.0166020777950E-3
            7.0302651213654E-3
            7.0439546376714E-3
            7.0576706774753E-3
            7.0714132916344E-3
            7.0851825311018E-3
            7.0989784469259E-3
            7.1128010902507E-3
            7.1266505123164E-3
            7.1405267644591E-3
            7.1544298981112E-3
            7.1683599648015E-3
            7.1823170161553E-3
            7.1963011038949E-3
            7.2103122798393E-3
            7.2243505959048E-3
            7.2384161041047E-3
            7.2525088565500E-3
            7.2666289054492E-3
            7.2807763031088E-3
            7.2949511019329E-3
            7.3091533544242E-3
            7.3233831131834E-3
            7.3376404309098E-3
            7.3519253604013E-3
            7.3662379545548E-3
            7.3805782663661E-3
            7.3949463489303E-3
            7.4093422554418E-3
            7.4237660391946E-3
            7.4382177535823E-3
            7.4526974520987E-3
            7.4672051883374E-3
            7.4817410159923E-3
            7.4963049888579E-3
            7.5108971608293E-3
            7.5255175859022E-3
            7.5401663181735E-3
            7.5548434118411E-3
            7.5695489212044E-3
            7.5842829006641E-3
            7.5990454047227E-3
            7.6138364879847E-3
            7.6286562051566E-3
            7.6435046110469E-3
            7.6583817605668E-3
            7.6732877087300E-3
            7.6882225106530E-3
            7.7031862215552E-3
            7.7181788967593E-3
            7.7332005916912E-3
            7.7482513618802E-3
            7.7633312629596E-3
            7.7784403506664E-3
            7.7935786808415E-3
            7.8087463094304E-3
            7.8239432924828E-3
            7.8391696861530E-3
            7.8544255467003E-3
            7.8697109304887E-3
            7.8850258939876E-3
            7.9003704937716E-3
            7.9157447865209E-3
            7.9311488290216E-3
            7.9465826781654E-3
            7.9620463909503E-3
            7.9775400244805E-3
            7.9930636359668E-3
            8.0086172827265E-3
            8.0242010221838E-3
            8.0398149118701E-3
            8.0554590094238E-3
            8.0711333725909E-3
            8.0868380592247E-3
            8.1025731272867E-3
            8.1183386348462E-3
            8.1341346400806E-3
            8.1499612012757E-3
            8.1658183768259E-3
            8.1817062252345E-3
            8.1976248051133E-3
            8.2135741751836E-3
            8.2295543942760E-3
            8.2455655213305E-3
            8.2616076153968E-3
            8.2776807356344E-3
            8.2937849413133E-3
            8.3099202918132E-3
            8.3260868466248E-3
            8.3422846653491E-3
            8.3585138076982E-3
            8.3747743334951E-3
            8.3910663026741E-3
            8.4073897752811E-3
            8.4237448114734E-3
            8.4401314715202E-3
            8.4565498158028E-3
            8.4729999048148E-3
            8.4894817991620E-3
            8.5059955595631E-3
            8.5225412468493E-3
            8.5391189219652E-3
            8.5557286459682E-3
            8.5723704800294E-3
            8.5890444854335E-3
            8.6057507235788E-3
            8.6224892559778E-3
            8.6392601442571E-3
            8.6560634501579E-3
            8.6728992355357E-3
            8.6897675623610E-3
            8.7066684927193E-3
            8.7236020888112E-3
            8.7405684129529E-3
            8.7575675275760E-3
            8.7745994952279E-3
            8.7916643785723E-3
            8.8087622403888E-3
            8.8258931435736E-3
            8.8430571511393E-3
            8.8602543262156E-3
            8.8774847320490E-3
            8.8947484320034E-3
            8.9120454895600E-3
            8.9293759683177E-3
            8.9467399319932E-3
            8.9641374444212E-3
            8.9815685695547E-3
            8.9990333714653E-3
            9.0165319143431E-3
            9.0340642624969E-3
            9.0516304803549E-3
            9.0692306324644E-3
            9.0868647834922E-3
            9.1045329982248E-3
            9.1222353415687E-3
            9.1399718785502E-3
            9.1577426743163E-3
            9.1755477941343E-3
            9.1933873033923E-3
            9.2112612675992E-3
            9.2291697523853E-3
            9.2471128235020E-3
            9.2650905468225E-3
            9.2831029883415E-3
            9.3011502141761E-3
            9.3192322905651E-3
            9.3373492838701E-3
            9.3555012605751E-3
            9.3736882872871E-3
            9.3919104307360E-3
            9.4101677577751E-3
            9.4284603353809E-3
            9.4467882306539E-3
            9.4651515108184E-3
            9.4835502432227E-3
            9.5019844953395E-3
            9.5204543347660E-3
            9.5389598292241E-3
            9.5575010465610E-3
            9.5760780547486E-3
            9.5946909218844E-3
            9.6133397161917E-3
            9.6320245060193E-3
            9.6507453598422E-3
            9.6695023462617E-3
            9.6882955340056E-3
            9.7071249919282E-3
            9.7259907890109E-3
            9.7448929943621E-3
            9.7638316772177E-3
            9.7828069069410E-3
            9.8018187530232E-3
            9.8208672850833E-3
            9.8399525728689E-3
            9.8590746862557E-3
            9.8782336952482E-3
            9.8974296699797E-3
            9.9166626807127E-3
            9.9359327978390E-3
            9.9552400918798E-3
            9.9745846334864E-3
            9.9939664934397E-3
            1.0013385742651E-2
            1.0032842452162E-2
            1.0052336693145E-2
            1.0071868536904E-2
            1.0091438054872E-2
            1.0111045318615E-2
            1.0130690399831E-2
            1.0150373370349E-2
            1.0170094302129E-2
            1.0189853267264E-2
            1.0209650337981E-2
            1.0229485586638E-2
            1.0249359085725E-2
            1.0269270907867E-2
            1.0289221125822E-2
            1.0309209812481E-2
            1.0329237040869E-2
            1.0349302884145E-2
            1.0369407415603E-2
            1.0389550708670E-2
            1.0409732836909E-2
            1.0429953874017E-2
            1.0450213893826E-2
            1.0470512970306E-2
            1.0490851177559E-2
            1.0511228589826E-2
            1.0531645281481E-2
            1.0552101327036E-2
            1.0572596801141E-2
            1.0593131778580E-2
            1.0613706334276E-2
            1.0634320543288E-2
            1.0654974480813E-2
            1.0675668222186E-2
            1.0696401842879E-2
            1.0717175418504E-2
            1.0737989024809E-2
            1.0758842737682E-2
            1.0779736633151E-2
            1.0800670787380E-2
            1.0821645276675E-2
            1.0842660177482E-2
            1.0863715566383E-2
            1.0884811520105E-2
            1.0905948115511E-2
            1.0927125429608E-2
            1.0948343539541E-2
            1.0969602522598E-2
            1.0990902456207E-2
            1.1012243417938E-2
            1.1033625485502E-2
            1.1055048736753E-2
            1.1076513249687E-2
            1.1098019102441E-2
            1.1119566373297E-2
            1.1141155140678E-2
            1.1162785483151E-2
            1.1184457479426E-2
            1.1206171208356E-2
            1.1227926748940E-2
            1.1249724180320E-2
            1.1271563581780E-2
            1.1293445032753E-2
            1.1315368612813E-2
            1.1337334401681E-2
            1.1359342479222E-2
            1.1381392925449E-2
            1.1403485820518E-2
            1.1425621244732E-2
            1.1447799278541E-2
            1.1470020002542E-2
            1.1492283497476E-2
            1.1514589844233E-2
            1.1536939123851E-2
            1.1559331417514E-2
            1.1581766806555E-2
            1.1604245372453E-2
            1.1626767196837E-2
            1.1649332361485E-2
            1.1671940948321E-2
            1.1694593039420E-2
            1.1717288717008E-2
            1.1740028063455E-2
            1.1762811161287E-2
            1.1785638093176E-2
            1.1808508941945E-2
            1.1831423790568E-2
            1.1854382722170E-2
            1.1877385820026E-2
            1.1900433167562E-2
            1.1923524848357E-2
            1.1946660946141E-2
            1.1969841544794E-2
            1.1993066728353E-2
            1.2016336581002E-2
            1.2039651187081E-2
            1.2063010631082E-2
            1.2086414997651E-2
            1.2109864371586E-2
            1.2133358837840E-2
            1.2156898481520E-2
            1.2180483387886E-2
            1.2204113642354E-2
            1.2227789330494E-2
            1.2251510538030E-2
            1.2275277350844E-2
            1.2299089854971E-2
            1.2322948136602E-2
            1.2346852282085E-2
            1.2370802377924E-2
            1.2394798510780E-2
            1.2418840767469E-2
            1.2442929234966E-2
            1.2467064000402E-2
            1.2491245151066E-2
            1.2515472774406E-2
            1.2539746958027E-2
            1.2564067789690E-2
            1.2588435357320E-2
            1.2612849748996E-2
            1.2637311052958E-2
            1.2661819357605E-2
            1.2686374751497E-2
            1.2710977323353E-2
            1.2735627162050E-2
            1.2760324356629E-2
            1.2785068996289E-2
            1.2809861170392E-2
            1.2834700968460E-2
            1.2859588480176E-2
            1.2884523795385E-2
            1.2909507004096E-2
            1.2934538196478E-2
            1.2959617462862E-2
            1.2984744893744E-2
            1.3009920579781E-2
            1.3035144611796E-2
            1.3060417080772E-2
            1.3085738077859E-2
            1.3111107694368E-2
            1.3136526021778E-2
            1.3161993151730E-2
            1.3187509176031E-2
            1.3213074186652E-2
            1.3238688275731E-2
            1.3264351535570E-2
            1.3290064058640E-2
            1.3315825937574E-2
            1.3341637265175E-2
            1.3367498134411E-2
            1.3393408638417E-2
            1.3419368870497E-2
            1.3445378924120E-2
            1.3471438892926E-2
            1.3497548870719E-2
            1.3523708951476E-2
            1.3549919229340E-2
            1.3576179798622E-2
            1.3602490753804E-2
            1.3628852189538E-2
            1.3655264200644E-2
            1.3681726882113E-2
            1.3708240329106E-2
            1.3734804636955E-2
            1.3761419901162E-2
            1.3788086217401E-2
            1.3814803681516E-2
            1.3841572389525E-2
            1.3868392437616E-2
            1.3895263922150E-2
            1.3922186939659E-2
            1.3949161586851E-2
            1.3976187960604E-2
            1.4003266157970E-2
            1.4030396276176E-2
            1.4057578412620E-2
            1.4084812664878E-2
            1.4112099130697E-2
            1.4139437908001E-2
            1.4166829094887E-2
            1.4194272789629E-2
            1.4221769090676E-2
            1.4249318096652E-2
            1.4276919906357E-2
            1.4304574618770E-2
            1.4332282333043E-2
            1.4360043148507E-2
            1.4387857164670E-2
            1.4415724481217E-2
            1.4443645198012E-2
            1.4471619415094E-2
            1.4499647232685E-2
            1.4527728751181E-2
            1.4555864071160E-2
            1.4584053293377E-2
            1.4612296518768E-2
            1.4640593848449E-2
            1.4668945383715E-2
            1.4697351226040E-2
            1.4725811477082E-2
            1.4754326238678E-2
            1.4782895612845E-2
            1.4811519701783E-2
            1.4840198607873E-2
            1.4868932433679E-2
            1.4897721281946E-2
            1.4926565255603E-2
            1.4955464457760E-2
            1.4984418991712E-2
            1.5013428960936E-2
            1.5042494469093E-2
            1.5071615620030E-2
            1.5100792517775E-2
            1.5130025266543E-2
            1.5159313970732E-2
            1.5188658734928E-2
            1.5218059663900E-2
            1.5247516862602E-2
            1.5277030436178E-2
            1.5306600489953E-2
            1.5336227129444E-2
            1.5365910460350E-2
            1.5395650588560E-2
            1.5425447620151E-2
            1.5455301661386E-2
            1.5485212818716E-2
            1.5515181198782E-2
            1.5545206908412E-2
            1.5575290054624E-2
            1.5605430744625E-2
            1.5635629085811E-2
            1.5665885185769E-2
            1.5696199152273E-2
            1.5726571093292E-2
            1.5757001116983E-2
            1.5787489331693E-2
            1.5818035845962E-2
            1.5848640768522E-2
            1.5879304208295E-2
            1.5910026274396E-2
            1.5940807076134E-2
            1.5971646723008E-2
            1.6002545324712E-2
            1.6033502991133E-2
            1.6064519832350E-2
            1.6095595958639E-2
            1.6126731480467E-2
            1.6157926508498E-2
            1.6189181153589E-2
            1.6220495526793E-2
            1.6251869739360E-2
            1.6283303902732E-2
            1.6314798128550E-2
            1.6346352528651E-2
            1.6377967215067E-2
            1.6409642300028E-2
            1.6441377895961E-2
            1.6473174115491E-2
            1.6505031071441E-2
            1.6536948876830E-2
            1.6568927644879E-2
            1.6600967489003E-2
            1.6633068522821E-2
            1.6665230860148E-2
            1.6697454615000E-2
            1.6729739901591E-2
            1.6762086834339E-2
            1.6794495527858E-2
            1.6826966096966E-2
            1.6859498656681E-2
            1.6892093322223E-2
            1.6924750209013E-2
            1.6957469432674E-2
            1.6990251109032E-2
            1.7023095354115E-2
            1.7056002284155E-2
            1.7088972015585E-2
            1.7122004665044E-2
            1.7155100349374E-2
            1.7188259185621E-2
            1.7221481291035E-2
            1.7254766783071E-2
            1.7288115779390E-2
            1.7321528397858E-2
            1.7355004756545E-2
            1.7388544973730E-2
            1.7422149167896E-2
            1.7455817457734E-2
            1.7489549962139E-2
            1.7523346800218E-2
            1.7557208091282E-2
            1.7591133954851E-2
            1.7625124510652E-2
            1.7659179878623E-2
            1.7693300178908E-2
            1.7727485531862E-2
            1.7761736058048E-2
            1.7796051878240E-2
            1.7830433113421E-2
            1.7864879884784E-2
            1.7899392313734E-2
            1.7933970521887E-2
            1.7968614631068E-2
            1.8003324763315E-2
            1.8038101040879E-2
            1.8072943586221E-2
            1.8107852522017E-2
            1.8142827971152E-2
            1.8177870056728E-2
            1.8212978902059E-2
            1.8248154630672E-2
            1.8283397366309E-2
            1.8318707232925E-2
            1.8354084354692E-2
            1.8389528855995E-2
            1.8425040861434E-2
            1.8460620495828E-2
            1.8496267884207E-2
            1.8531983151822E-2
            1.8567766424136E-2
            1.8603617826832E-2
            1.8639537485810E-2
            1.8675525527186E-2
            1.8711582077295E-2
            1.8747707262690E-2
            1.8783901210142E-2
            1.8820164046641E-2
            1.8856495899396E-2
            1.8892896895835E-2
            1.8929367163606E-2
            1.8965906830579E-2
            1.9002516024840E-2
            1.9039194874700E-2
            1.9075943508688E-2
            1.9112762055557E-2
            1.9149650644278E-2
            1.9186609404047E-2
            1.9223638464281E-2
            1.9260737954620E-2
            1.9297908004926E-2
            1.9335148745286E-2
            1.9372460306008E-2
            1.9409842817626E-2
            1.9447296410898E-2
            1.9484821216804E-2
            1.9522417366552E-2
            1.9560084991574E-2
            1.9597824223526E-2
            1.9635635194291E-2
            1.9673518035979E-2
            1.9711472880924E-2
            1.9749499861689E-2
            1.9787599111063E-2
            1.9825770762063E-2
            1.9864014947932E-2
            1.9902331802142E-2
            1.9940721458395E-2
            1.9979184050618E-2
            2.0017719712971E-2
            2.0056328579840E-2
            2.0095010785843E-2
            2.0133766465826E-2
            2.0172595754866E-2
            2.0211498788271E-2
            2.0250475701579E-2
            2.0289526630560E-2
            2.0328651711216E-2
            2.0367851079779E-2
            2.0407124872716E-2
            2.0446473226723E-2
            2.0485896278731E-2
            2.0525394165904E-2
            2.0564967025640E-2
            2.0604614995569E-2
            2.0644338213557E-2
            2.0684136817703E-2
            2.0724010946341E-2
            2.0763960738042E-2
            2.0803986331610E-2
            2.0844087866085E-2
            2.0884265480745E-2
            2.0924519315102E-2
            2.0964849508906E-2
            2.1005256202145E-2
            2.1045739535042E-2
            2.1086299648059E-2
            2.1126936681896E-2
            2.1167650777492E-2
            2.1208442076023E-2
            2.1249310718906E-2
            2.1290256847795E-2
            2.1331280604586E-2
            2.1372382131413E-2
            2.1413561570651E-2
            2.1454819064917E-2
            2.1496154757067E-2
            2.1537568790199E-2
            2.1579061307653E-2
            2.1620632453010E-2
            2.1662282370094E-2
            2.1704011202971E-2
            2.1745819095951E-2
            2.1787706193587E-2
            2.1829672640673E-2
            2.1871718582252E-2
            2.1913844163605E-2
            2.1956049530264E-2
            2.1998334828000E-2
            2.2040700202833E-2
            2.2083145801027E-2
            2.2125671769092E-2
            2.2168278253786E-2
            2.2210965402110E-2
            2.2253733361314E-2
            2.2296582278897E-2
            2.2339512302601E-2
            2.2382523580419E-2
            2.2425616260591E-2
            2.2468790491607E-2
            2.2512046422205E-2
            2.2555384201370E-2
            2.2598803978339E-2
            2.2642305902599E-2
            2.2685890123886E-2
            2.2729556792186E-2
            2.2773306057736E-2
            2.2817138071026E-2
            2.2861052982796E-2
            2.2905050944036E-2
            2.2949132105992E-2
            2.2993296620159E-2
            2.3037544638287E-2
            2.3081876312377E-2
            2.3126291794686E-2
            2.3170791237722E-2
            2.3215374794248E-2
            2.3260042617284E-2
            2.3304794860101E-2
            2.3349631676226E-2
            2.3394553219444E-2
            2.3439559643792E-2
            2.3484651103565E-2
            2.3529827753314E-2
            2.3575089747848E-2
            2.3620437242231E-2
            2.3665870391785E-2
            2.3711389352090E-2
            2.3756994278984E-2
            2.3802685328564E-2
            2.3848462657184E-2
            2.3894326421458E-2
            2.3940276778261E-2
            2.3986313884724E-2
            2.4032437898241E-2
            2.4078648976465E-2
            2.4124947277311E-2
            2.4171332958952E-2
            2.4217806179826E-2
            2.4264367098631E-2
            2.4311015874326E-2
            2.4357752666134E-2
            2.4404577633539E-2
            2.4451490936290E-2
            2.4498492734397E-2
            2.4545583188135E-2
            2.4592762458044E-2
            2.4640030704926E-2
            2.4687388089849E-2
            2.4734834774145E-2
            2.4782370919412E-2
            2.4829996687513E-2
            2.4877712240579E-2
            2.4925517741004E-2
            2.4973413351450E-2
            2.5021399234848E-2
            2.5069475554393E-2
            2.5117642473549E-2
            2.5165900156048E-2
            2.5214248765890E-2
            2.5262688467344E-2
            2.5311219424947E-2
            2.5359841803505E-2
            2.5408555768096E-2
            2.5457361484065E-2
            2.5506259117029E-2
            2.5555248832875E-2
            2.5604330797759E-2
            2.5653505178111E-2
            2.5702772140632E-2
            2.5752131852294E-2
            2.5801584480341E-2
            2.5851130192289E-2
            2.5900769155930E-2
            2.5950501539325E-2
            2.6000327510810E-2
            2.6050247238997E-2
            2.6100260892769E-2
            2.6150368641286E-2
            2.6200570653979E-2
            2.6250867100559E-2
            2.6301258151009E-2
            2.6351743975589E-2
            2.6402324744834E-2
            2.6453000629558E-2
            2.6503771800849E-2
            2.6554638430073E-2
            2.6605600688874E-2
            2.6656658749173E-2
            2.6707812783169E-2
            2.6759062963340E-2
            2.6810409462443E-2
            2.6861852453511E-2
            2.6913392109861E-2
            2.6965028605086E-2
            2.7016762113061E-2
            2.7068592807940E-2
            2.7120520864159E-2
            2.7172546456434E-2
            2.7224669759762E-2
            2.7276890949423E-2
            2.7329210200977E-2
            2.7381627690269E-2
            2.7434143593423E-2
            2.7486758086848E-2
            2.7539471347237E-2
            2.7592283551565E-2
            2.7645194877092E-2
            2.7698205501360E-2
            2.7751315602199E-2
            2.7804525357721E-2
            2.7857834946325E-2
            2.7911244546693E-2
            2.7964754337796E-2
            2.8018364498888E-2
            2.8072075209512E-2
            2.8125886649496E-2
            2.8179798998957E-2
            2.8233812438297E-2
            2.8287927148207E-2
            2.8342143309666E-2
            2.8396461103942E-2
            2.8450880712589E-2
            2.8505402317454E-2
            2.8560026100671E-2
            2.8614752244663E-2
            2.8669580932144E-2
            2.8724512346118E-2
            2.8779546669881E-2
            2.8834684087016E-2
            2.8889924781402E-2
            2.8945268937207E-2
            2.9000716738890E-2
            2.9056268371204E-2
            2.9111924019194E-2
