looks/Linear_to_0-6_1-05_Tonemap.spi1d
Version 1
From 0.000000 1.000000
Length 4096
Components 1
{
            1.2970727411620E-2
            1.2992282217859E-2
            1.3013872505307E-2
            1.3035498331214E-2
            1.3057159752919E-2
            1.3078856827849E-2
            1.3100589613520E-2
            1.3122358167537E-2
            1.3144162547593E-2
            1.3166002811470E-2
            1.3187879017041E-2
            1.3209791222267E-2
            1.3231739485198E-2
            1.3253723863975E-2
            1.3275744416826E-2
            1.3297801202073E-2
            1.3319894278123E-2
            1.3342023703477E-2
            1.3364189536724E-2
            1.3386391836545E-2
            1.3408630661709E-2
            1.3430906071077E-2
            1.3453218123602E-2
            1.3475566878325E-2
            1.3497952394380E-2
            1.3520374730991E-2
            1.3542833947473E-2
            1.3565330103234E-2
            1.3587863257772E-2
            1.3610433470676E-2
            1.3633040801628E-2
            1.3655685310401E-2
            1.3678367056860E-2
            1.3701086100963E-2
            1.3723842502758E-2
            1.3746636322389E-2
            1.3769467620087E-2
            1.3792336456181E-2
            1.3815242891090E-2
            1.3838186985326E-2
            1.3861168799494E-2
            1.3884188394292E-2
            1.3907245830512E-2
            1.3930341169038E-2
            1.3953474470848E-2
            1.3976645797015E-2
            1.3999855208704E-2
            1.4023102767173E-2
            1.4046388533777E-2
            1.4069712569962E-2
            1.4093074937271E-2
            1.4116475697338E-2
            1.4139914911895E-2
            1.4163392642767E-2
            1.4186908951872E-2
            1.4210463901227E-2
            1.4234057552939E-2
            1.4257689969215E-2
            1.4281361212354E-2
            1.4305071344751E-2
            1.4328820428897E-2
            1.4352608527379E-2
            1.4376435702880E-2
            1.4400302018176E-2
            1.4424207536143E-2
            1.4448152319750E-2
            1.4472136432065E-2
            1.4496159936251E-2
            1.4520222895566E-2
            1.4544325373368E-2
            1.4568467433110E-2
            1.4592649138342E-2
            1.4616870552710E-2
            1.4641131739960E-2
            1.4665432763933E-2
            1.4689773688568E-2
            1.4714154577903E-2
            1.4738575496070E-2
            1.4763036507304E-2
            1.4787537675934E-2
            1.4812079066390E-2
            1.4836660743196E-2
            1.4861282770980E-2
            1.4885945214465E-2
            1.4910648138473E-2
            1.4935391607924E-2
            1.4960175687841E-2
            1.4985000443341E-2
            1.5009865939642E-2
            1.5034772242064E-2
            1.5059719416022E-2
            1.5084707527033E-2
            1.5109736640715E-2
            1.5134806822783E-2
            1.5159918139054E-2
            1.5185070655443E-2
            1.5210264437969E-2
            1.5235499552747E-2
            1.5260776065997E-2
            1.5286094044034E-2
            1.5311453553280E-2
            1.5336854660254E-2
            1.5362297431577E-2
            1.5387781933972E-2
            1.5413308234262E-2
            1.5438876399372E-2
            1.5464486496328E-2
            1.5490138592260E-2
            1.5515832754398E-2
            1.5541569050074E-2
            1.5567347546723E-2
            1.5593168311881E-2
            1.5619031413188E-2
            1.5644936918385E-2
            1.5670884895317E-2
            1.5696875411931E-2
            1.5722908536277E-2
            1.5748984336509E-2
            1.5775102880884E-2
            1.5801264237761E-2
            1.5827468475603E-2
            1.5853715662979E-2
            1.5880005868558E-2
            1.5906339161116E-2
            1.5932715609532E-2
            1.5959135282788E-2
            1.5985598249972E-2
            1.6012104580276E-2
            1.6038654342997E-2
            1.6065247607535E-2
            1.6091884443396E-2
            1.6118564920193E-2
            1.6145289107641E-2
            1.6172057075562E-2
            1.6198868893882E-2
            1.6225724632635E-2
            1.6252624361959E-2
            1.6279568152097E-2
            1.6306556073401E-2
            1.6333588196325E-2
            1.6360664591434E-2
            1.6387785329396E-2
            1.6414950480986E-2
            1.6442160117086E-2
            1.6469414308686E-2
            1.6496713126881E-2
            1.6524056642875E-2
            1.6551444927978E-2
            1.6578878053607E-2
            1.6606356091288E-2
            1.6633879112653E-2
            1.6661447189444E-2
            1.6689060393508E-2
            1.6716718796804E-2
            1.6744422471394E-2
            1.6772171489453E-2
            1.6799965923263E-2
            1.6827805845214E-2
            1.6855691327804E-2
            1.6883622443643E-2
            1.6911599265447E-2
            1.6939621866043E-2
            1.6967690318367E-2
            1.6995804695463E-2
            1.7023965070487E-2
            1.7052171516703E-2
            1.7080424107486E-2
            1.7108722916319E-2
            1.7137068016799E-2
            1.7165459482631E-2
            1.7193897387629E-2
            1.7222381805719E-2
            1.7250912810940E-2
            1.7279490477439E-2
            1.7308114879475E-2
            1.7336786091417E-2
            1.7365504187748E-2
            1.7394269243060E-2
            1.7423081332058E-2
            1.7451940529558E-2
            1.7480846910488E-2
            1.7509800549889E-2
            1.7538801522913E-2
            1.7567849904824E-2
            1.7596945771001E-2
            1.7626089196933E-2
            1.7655280258222E-2
            1.7684519030584E-2
            1.7713805589848E-2
            1.7743140011955E-2
            1.7772522372961E-2
            1.7801952749034E-2
            1.7831431216457E-2
            1.7860957851624E-2
            1.7890532731047E-2
            1.7920155931349E-2
            1.7949827529269E-2
            1.7979547601658E-2
            1.8009316225485E-2
            1.8039133477830E-2
            1.8068999435889E-2
            1.8098914176975E-2
            1.8128877778514E-2
            1.8158890318047E-2
            1.8188951873231E-2
            1.8219062521839E-2
            1.8249222341759E-2
            1.8279431410995E-2
            1.8309689807666E-2
            1.8339997610009E-2
            1.8370354896376E-2
            1.8400761745235E-2
            1.8431218235172E-2
            1.8461724444888E-2
            1.8492280453203E-2
            1.8522886339050E-2
            1.8553542181484E-2
            1.8584248059673E-2
            1.8615004052906E-2
            1.8645810240587E-2
            1.8676666702238E-2
            1.8707573517501E-2
            1.8738530766133E-2
            1.8769538528011E-2
            1.8800596883130E-2
            1.8831705911602E-2
            1.8862865693660E-2
            1.8894076309655E-2
            1.8925337840055E-2
            1.8956650365449E-2
            1.8988013966545E-2
            1.9019428724168E-2
            1.9050894719267E-2
            1.9082412032906E-2
            1.9113980746272E-2
            1.9145600940669E-2
            1.9177272697524E-2
            1.9208996098382E-2
            1.9240771224910E-2
            1.9272598158893E-2
            1.9304476982240E-2
            1.9336407776979E-2
            1.9368390625258E-2
            1.9400425609348E-2
            1.9432512811639E-2
            1.9464652314645E-2
            1.9496844201000E-2
            1.9529088553460E-2
            1.9561385454903E-2
            1.9593734988327E-2
            1.9626137236856E-2
            1.9658592283733E-2
            1.9691100212325E-2
            1.9723661106121E-2
            1.9756275048732E-2
            1.9788942123894E-2
            1.9821662415464E-2
            1.9854436007423E-2
            1.9887262983875E-2
            1.9920143429048E-2
            1.9953077427293E-2
            1.9986065063086E-2
            2.0019106421024E-2
            2.0052201585832E-2
            2.0085350642357E-2
            2.0118553675569E-2
            2.0151810770566E-2
            2.0185122012568E-2
            2.0218487486921E-2
            2.0251907279094E-2
            2.0285381474685E-2
            2.0318910159413E-2
            2.0352493419126E-2
            2.0386131339795E-2
            2.0419824007517E-2
            2.0453571508517E-2
            2.0487373929144E-2
            2.0521231355873E-2
            2.0555143875307E-2
            2.0589111574174E-2
            2.0623134539329E-2
            2.0657212857754E-2
            2.0691346616558E-2
            2.0725535902977E-2
            2.0759780804373E-2
            2.0794081408238E-2
            2.0828437802189E-2
            2.0862850073972E-2
            2.0897318311460E-2
            2.0931842602655E-2
            2.0966423035686E-2
            2.1001059698812E-2
            2.1035752680419E-2
            2.1070502069021E-2
            2.1105307953263E-2
            2.1140170421916E-2
            2.1175089563882E-2
            2.1210065468193E-2
            2.1245098224008E-2
            2.1280187920617E-2
            2.1315334647438E-2
            2.1350538494022E-2
            2.1385799550047E-2
            2.1421117905322E-2
            2.1456493649786E-2
            2.1491926873510E-2
            2.1527417666693E-2
            2.1562966119667E-2
            2.1598572322893E-2
            2.1634236366965E-2
            2.1669958342606E-2
            2.1705738340671E-2
            2.1741576452149E-2
            2.1777472768156E-2
            2.1813427379944E-2
            2.1849440378895E-2
            2.1885511856522E-2
            2.1921641904472E-2
            2.1957830614525E-2
            2.1994078078592E-2
            2.2030384388716E-2
            2.2066749637074E-2
            2.2103173915978E-2
            2.2139657317869E-2
            2.2176199935324E-2
            2.2212801861054E-2
            2.2249463187901E-2
            2.2286184008842E-2
            2.2322964416990E-2
            2.2359804505588E-2
            2.2396704368017E-2
            2.2433664097791E-2
            2.2470683788557E-2
            2.2507763534099E-2
            2.2544903428334E-2
            2.2582103565315E-2
            2.2619364039231E-2
            2.2656684944405E-2
            2.2694066375295E-2
            2.2731508426495E-2
            2.2769011192736E-2
            2.2806574768884E-2
            2.2844199249940E-2
            2.2881884731043E-2
            2.2919631307468E-2
            2.2957439074625E-2
            2.2995308128062E-2
            2.3033238563465E-2
            2.3071230476654E-2
            2.3109283963588E-2
            2.3147399120364E-2
            2.3185576043214E-2
            2.3223814828510E-2
            2.3262115572761E-2
            2.3300478372612E-2
            2.3338903324850E-2
            2.3377390526397E-2
            2.3415940074314E-2
            2.3454552065801E-2
            2.3493226598196E-2
            2.3531963768977E-2
            2.3570763675761E-2
            2.3609626416301E-2
            2.3648552088494E-2
            2.3687540790373E-2
            2.3726592620113E-2
            2.3765707676025E-2
            2.3804886056565E-2
            2.3844127860325E-2
            2.3883433186038E-2
            2.3922802132580E-2
            2.3962234798963E-2
            2.4001731284344E-2
            2.4041291688018E-2
            2.4080916109423E-2
            2.4120604648136E-2
            2.4160357403876E-2
            2.4200174476505E-2
            2.4240055966025E-2
            2.4280001972580E-2
            2.4320012596455E-2
            2.4360087938080E-2
            2.4400228098023E-2
            2.4440433176998E-2
            2.4480703275860E-2
            2.4521038495607E-2
            2.4561438937379E-2
            2.4601904702459E-2
            2.4642435892275E-2
            2.4683032608396E-2
            2.4723694952535E-2
            2.4764423026551E-2
            2.4805216932442E-2
            2.4846076772355E-2
            2.4887002648577E-2
            2.4927994663542E-2
            2.4969052919826E-2
            2.5010177520151E-2
            2.5051368567384E-2
            2.5092626164536E-2
            2.5133950414762E-2
            2.5175341421365E-2
            2.5216799287790E-2
            2.5258324117630E-2
            2.5299916014621E-2
            2.5341575082649E-2
            2.5383301425740E-2
            2.5425095148071E-2
            2.5466956353963E-2
            2.5508885147884E-2
            2.5550881634447E-2
            2.5592945918415E-2
            2.5635078104693E-2
            2.5677278298338E-2
            2.5719546604550E-2
            2.5761883128679E-2
            2.5804287976221E-2
            2.5846761252820E-2
            2.5889303064268E-2
            2.5931913516504E-2
            2.5974592715616E-2
            2.6017340767839E-2
            2.6060157779559E-2
            2.6103043857307E-2
            2.6145999107764E-2
            2.6189023637761E-2
            2.6232117554276E-2
            2.6275280964439E-2
            2.6318513975525E-2
            2.6361816694961E-2
            2.6405189230325E-2
            2.6448631689342E-2
            2.6492144179887E-2
            2.6535726809987E-2
            2.6579379687817E-2
            2.6623102921704E-2
            2.6666896620125E-2
            2.6710760891706E-2
            2.6754695845227E-2
            2.6798701589616E-2
            2.6842778233954E-2
            2.6886925887471E-2
            2.6931144659551E-2
            2.6975434659728E-2
            2.7019795997687E-2
            2.7064228783268E-2
            2.7108733126458E-2
            2.7153309137401E-2
            2.7197956926391E-2
            2.7242676603873E-2
            2.7287468280448E-2
            2.7332332066868E-2
            2.7377268074036E-2
            2.7422276413012E-2
            2.7467357195007E-2
            2.7512510531383E-2
            2.7557736533661E-2
            2.7603035313511E-2
            2.7648406982758E-2
            2.7693851653382E-2
            2.7739369437517E-2
            2.7784960447450E-2
            2.7830624795623E-2
            2.7876362594632E-2
            2.7922173957230E-2
            2.7968058996322E-2
            2.8014017824969E-2
            2.8060050556388E-2
            2.8106157303950E-2
            2.8152338181183E-2
            2.8198593301768E-2
            2.8244922779545E-2
            2.8291326728508E-2
            2.8337805262806E-2
            2.8384358496747E-2
            2.8430986544794E-2
            2.8477689521565E-2
            2.8524467541838E-2
            2.8571320720543E-2
            2.8618249172772E-2
            2.8665253013772E-2
            2.8712332358945E-2
            2.8759487323855E-2
            2.8806718024218E-2
            2.8854024575914E-2
            2.8901407094975E-2
            2.8948865697594E-2
            2.8996400500123E-2
            2.9044011619069E-2
            2.9091699171100E-2
            2.9139463273042E-2
            2.9187304041880E-2
            2.9235221594757E-2
            2.9283216048975E-2
            2.9331287521997E-2
            2.9379436131442E-2
            2.9427661995091E-2
            2.9475965230885E-2
            2.9524345956923E-2
            2.9572804291465E-2
            2.9621340352930E-2
            2.9669954259898E-2
            2.9718646131110E-2
            2.9767416085465E-2
            2.9816264242025E-2
            2.9865190720013E-2
            2.9914195638811E-2
            2.9963279117963E-2
            3.0012441277175E-2
            3.0061682236312E-2
            3.0111002115404E-2
            3.0160401034639E-2
            3.0209879114370E-2
            3.0259436475109E-2
            3.0309073237532E-2
            3.0358789522477E-2
            3.0408585450944E-2
            3.0458461144095E-2
            3.0508416723256E-2
            3.0558452309915E-2
            3.0608568025722E-2
            3.0658763992492E-2
            3.0709040332202E-2
            3.0759397166993E-2
            3.0809834619169E-2
            3.0860352811196E-2
            3.0910951865709E-2
            3.0961631905500E-2
            3.1012393053532E-2
            3.1063235432926E-2
            3.1114159166971E-2
            3.1165164379121E-2
            3.1216251192992E-2
            3.1267419732367E-2
            3.1318670121193E-2
            3.1370002483581E-2
            3.1421416943810E-2
            3.1472913626321E-2
            3.1524492655724E-2
            3.1576154156792E-2
            3.1627898254464E-2
            3.1679725073847E-2
            3.1731634740212E-2
            3.1783627378997E-2
            3.1835703115805E-2
            3.1887862076408E-2
            3.1940104386743E-2
            3.1992430172914E-2
            3.2044839561191E-2
            3.2097332678013E-2
            3.2149909649984E-2
            3.2202570603878E-2
            3.2255315666633E-2
            3.2308144965358E-2
            3.2361058627327E-2
            3.2414056779984E-2
            3.2467139550940E-2
            3.2520307067973E-2
            3.2573559459032E-2
            3.2626896852231E-2
            3.2680319375856E-2
            3.2733827158359E-2
            3.2787420328362E-2
            3.2841099014657E-2
            3.2894863346202E-2
            3.2948713452128E-2
            3.3002649461732E-2
            3.3056671504483E-2
            3.3110779710018E-2
            3.3164974208144E-2
            3.3219255128840E-2
            3.3273622602251E-2
            3.3328076758696E-2
            3.3382617728662E-2
            3.3437245642808E-2
            3.3491960631962E-2
            3.3546762827124E-2
            3.3601652359464E-2
            3.3656629360323E-2
            3.3711693961214E-2
            3.3766846293820E-2
            3.3822086489995E-2
            3.3877414681768E-2
            3.3932831001335E-2
            3.3988335581066E-2
            3.4043928553503E-2
            3.4099610051360E-2
            3.4155380207522E-2
            3.4211239155048E-2
            3.4267187027167E-2
            3.4323223957284E-2
            3.4379350078973E-2
            3.4435565525984E-2
            3.4491870432237E-2
            3.4548264931828E-2
            3.4604749159023E-2
            3.4661323248263E-2
            3.4717987334164E-2
            3.4774741551512E-2
            3.4831586035270E-2
            3.4888520920572E-2
            3.4945546342729E-2
            3.5002662437223E-2
            3.5059869339712E-2
            3.5117167186029E-2
            3.5174556112178E-2
            3.5232036254342E-2
            3.5289607748876E-2
            3.5347270732311E-2
            3.5405025341351E-2
            3.5462871712877E-2
            3.5520809983944E-2
            3.5578840291785E-2
            3.5636962773804E-2
            3.5695177567584E-2
            3.5753484810883E-2
            3.5811884641633E-2
            3.5870377197945E-2
            3.5928962618103E-2
            3.5987641040569E-2
            3.6046412603981E-2
            3.6105277447153E-2
            3.6164235709075E-2
            3.6223287528916E-2
            3.6282433046019E-2
            3.6341672399905E-2
            3.6401005730273E-2
            3.6460433176997E-2
            3.6519954880129E-2
            3.6579570979901E-2
            3.6639281616718E-2
            3.6699086931165E-2
            3.6758987064006E-2
            3.6818982156180E-2
            3.6879072348807E-2
            3.6939257783181E-2
            3.6999538600778E-2
            3.7059914943250E-2
            3.7120386952429E-2
            3.7180954770325E-2
            3.7241618539125E-2
            3.7302378401197E-2
            3.7363234499088E-2
            3.7424186975521E-2
            3.7485235973401E-2
            3.7546381635811E-2
            3.7607624106014E-2
            3.7668963527452E-2
            3.7730400043746E-2
            3.7791933798697E-2
            3.7853564936287E-2
            3.7915293600676E-2
            3.7977119936205E-2
            3.8039044087394E-2
            3.8101066198945E-2
            3.8163186415739E-2
            3.8225404882838E-2
            3.8287721745483E-2
            3.8350137149099E-2
            3.8412651239288E-2
            3.8475264161836E-2
            3.8537976062706E-2
            3.8600787088047E-2
            3.8663697384185E-2
            3.8726707097630E-2
            3.8789816375071E-2
            3.8853025363380E-2
            3.8916334209612E-2
            3.8979743060999E-2
            3.9043252064961E-2
            3.9106861369094E-2
            3.9170571121180E-2
            3.9234381469181E-2
            3.9298292561243E-2
            3.9362304545692E-2
            3.9426417571038E-2
            3.9490631785973E-2
            3.9554947339373E-2
            3.9619364380293E-2
            3.9683883057975E-2
            3.9748503521842E-2
            3.9813225921499E-2
            3.9878050406735E-2
            3.9942977127524E-2
            4.0008006234020E-2
            4.0073137876562E-2
            4.0138372205673E-2
            4.0203709372059E-2
            4.0269149526610E-2
            4.0334692820399E-2
            4.0400339404682E-2
            4.0466089430903E-2
            4.0531943050684E-2
            4.0597900415837E-2
            4.0663961678354E-2
            4.0730126990413E-2
            4.0796396504378E-2
            4.0862770372793E-2
            4.0929248748392E-2
            4.0995831784089E-2
            4.1062519632986E-2
            4.1129312448368E-2
            4.1196210383706E-2
            4.1263213592655E-2
            4.1330322229056E-2
            4.1397536446936E-2
            4.1464856400505E-2
            4.1532282244160E-2
            4.1599814132482E-2
            4.1667452220240E-2
            4.1735196662387E-2
            4.1803047614061E-2
            4.1871005230587E-2
            4.1939069667476E-2
            4.2007241080425E-2
            4.2075519625315E-2
            4.2143905458216E-2
            4.2212398735383E-2
            4.2280999613256E-2
            4.2349708248463E-2
            4.2418524797818E-2
            4.2487449418322E-2
            4.2556482267162E-2
            4.2625623501711E-2
            4.2694873279530E-2
            4.2764231758366E-2
            4.2833699096154E-2
            4.2903275451014E-2
            4.2972960981256E-2
            4.3042755845373E-2
            4.3112660202050E-2
            4.3182674210155E-2
            4.3252798028746E-2
            4.3323031817067E-2
            4.3393375734552E-2
            4.3463829940818E-2
            4.3534394595674E-2
            4.3605069859114E-2
            4.3675855891322E-2
            4.3746752852667E-2
            4.3817760903709E-2
            4.3888880205193E-2
            4.3960110918054E-2
            4.4031453203416E-2
            4.4102907222587E-2
            4.4174473137068E-2
            4.4246151108546E-2
            4.4317941298896E-2
            4.4389843870183E-2
            4.4461858984658E-2
            4.4533986804763E-2
            4.4606227493128E-2
            4.4678581212571E-2
            4.4751048126099E-2
            4.4823628396908E-2
            4.4896322188383E-2
            4.4969129664097E-2
            4.5042050987812E-2
            4.5115086323482E-2
            4.5188235835245E-2
            4.5261499687432E-2
            4.5334878044562E-2
            4.5408371071342E-2
            4.5481978932672E-2
            4.5555701793636E-2
            4.5629539819513E-2
            4.5703493175766E-2
            4.5777562028052E-2
            4.5851746542216E-2
            4.5926046884290E-2
            4.6000463220500E-2
            4.6074995717260E-2
