looks/Linear_to_1-0_1-0_Tonemap.spi1d
Version 1
From 0.000000 1.000000
Length 4096
Components 1
{
            9.6754674984525E-4
            9.7024953181421E-4
            9.7295985656655E-4
            9.7567774511160E-4
            9.7840321851698E-4
            9.8113629790877E-4
            9.8387700447164E-4
            9.8662535944907E-4
            9.8938138414343E-4
            9.9214509991623E-4
            9.9491652818820E-4
            9.9769569043954E-4
            1.0004826082100E-3
            1.0032773030991E-3
            1.0060797967662E-3
            1.0088901109309E-3
            1.0117082673729E-3
            1.0145342879324E-3
            1.0173681945102E-3
            1.0202100090676E-3
            1.0230597536271E-3
            1.0259174502722E-3
            1.0287831211476E-3
            1.0316567884594E-3
            1.0345384744753E-3
            1.0374282015249E-3
            1.0403259919995E-3
            1.0432318683526E-3
            1.0461458530999E-3
            1.0490679688197E-3
            1.0519982381528E-3
            1.0549366838026E-3
            1.0578833285358E-3
            1.0608381951819E-3
            1.0638013066340E-3
            1.0667726858485E-3
            1.0697523558454E-3
            1.0727403397086E-3
            1.0757366605860E-3
            1.0787413416896E-3
            1.0817544062959E-3
            1.0847758777458E-3
            1.0878057794450E-3
            1.0908441348639E-3
            1.0938909675382E-3
            1.0969463010686E-3
            1.1000101591214E-3
            1.1030825654284E-3
            1.1061635437872E-3
            1.1092531180615E-3
            1.1123513121808E-3
            1.1154581501413E-3
            1.1185736560055E-3
            1.1216978539025E-3
            1.1248307680285E-3
            1.1279724226466E-3
            1.1311228420871E-3
            1.1342820507480E-3
            1.1374500730945E-3
            1.1406269336599E-3
            1.1438126570453E-3
            1.1470072679201E-3
            1.1502107910219E-3
            1.1534232511571E-3
            1.1566446732005E-3
            1.1598750820960E-3
            1.1631145028566E-3
            1.1663629605646E-3
            1.1696204803718E-3
            1.1728870874994E-3
            1.1761628072390E-3
            1.1794476649518E-3
            1.1827416860694E-3
            1.1860448960939E-3
            1.1893573205979E-3
            1.1926789852251E-3
            1.1960099156899E-3
            1.1993501377781E-3
            1.2026996773469E-3
            1.2060585603251E-3
            1.2094268127133E-3
            1.2128044605841E-3
            1.2161915300823E-3
            1.2195880474251E-3
            1.2229940389023E-3
            1.2264095308765E-3
            1.2298345497833E-3
            1.2332691221315E-3
            1.2367132745033E-3
            1.2401670335545E-3
            1.2436304260147E-3
            1.2471034786875E-3
            1.2505862184507E-3
            1.2540786722564E-3
            1.2575808671316E-3
            1.2610928301778E-3
            1.2646145885717E-3
            1.2681461695653E-3
            1.2716876004858E-3
            1.2752389087362E-3
            1.2788001217953E-3
            1.2823712672180E-3
            1.2859523726354E-3
            1.2895434657552E-3
            1.2931445743616E-3
            1.2967557263157E-3
            1.3003769495560E-3
            1.3040082720979E-3
            1.3076497220347E-3
            1.3113013275371E-3
            1.3149631168540E-3
            1.3186351183123E-3
            1.3223173603175E-3
            1.3260098713534E-3
            1.3297126799829E-3
            1.3334258148476E-3
            1.3371493046687E-3
            1.3408831782465E-3
            1.3446274644613E-3
            1.3483821922731E-3
            1.3521473907220E-3
            1.3559230889285E-3
            1.3597093160937E-3
            1.3635061014993E-3
            1.3673134745082E-3
            1.3711314645643E-3
            1.3749601011932E-3
            1.3787994140018E-3
            1.3826494326791E-3
            1.3865101869963E-3
            1.3903817068068E-3
            1.3942640220465E-3
            1.3981571627341E-3
            1.4020611589715E-3
            1.4059760409436E-3
            1.4099018389188E-3
            1.4138385832493E-3
            1.4177863043711E-3
            1.4217450328045E-3
            1.4257147991539E-3
            1.4296956341086E-3
            1.4336875684427E-3
            1.4376906330151E-3
            1.4417048587703E-3
            1.4457302767382E-3
            1.4497669180345E-3
            1.4538148138610E-3
            1.4578739955054E-3
            1.4619444943424E-3
            1.4660263418329E-3
            1.4701195695251E-3
            1.4742242090542E-3
            1.4783402921429E-3
            1.4824678506015E-3
            1.4866069163282E-3
            1.4907575213096E-3
            1.4949196976202E-3
            1.4990934774235E-3
            1.5032788929718E-3
            1.5074759766063E-3
            1.5116847607579E-3
            1.5159052779467E-3
            1.5201375607830E-3
            1.5243816419669E-3
            1.5286375542890E-3
            1.5329053306304E-3
            1.5371850039631E-3
            1.5414766073501E-3
            1.5457801739456E-3
            1.5500957369957E-3
            1.5544233298381E-3
            1.5587629859024E-3
            1.5631147387109E-3
            1.5674786218782E-3
            1.5718546691117E-3
            1.5762429142122E-3
            1.5806433910734E-3
            1.5850561336829E-3
            1.5894811761220E-3
            1.5939185525661E-3
            1.5983682972850E-3
            1.6028304446430E-3
            1.6073050290995E-3
            1.6117920852088E-3
            1.6162916476206E-3
            1.6208037510804E-3
            1.6253284304294E-3
            1.6298657206051E-3
            1.6344156566414E-3
            1.6389782736689E-3
            1.6435536069152E-3
            1.6481416917049E-3
            1.6527425634603E-3
            1.6573562577015E-3
            1.6619828100463E-3
            1.6666222562111E-3
            1.6712746320107E-3
            1.6759399733587E-3
            1.6806183162679E-3
            1.6853096968504E-3
            1.6900141513177E-3
            1.6947317159816E-3
            1.6994624272538E-3
            1.7042063216465E-3
            1.7089634357726E-3
            1.7137338063460E-3
            1.7185174701819E-3
            1.7233144641970E-3
            1.7281248254097E-3
            1.7329485909408E-3
            1.7377857980132E-3
            1.7426364839524E-3
            1.7475006861871E-3
            1.7523784422489E-3
            1.7572697897732E-3
            1.7621747664989E-3
            1.7670934102690E-3
            1.7720257590309E-3
            1.7769718508367E-3
            1.7819317238432E-3
            1.7869054163124E-3
            1.7918929666120E-3
            1.7968944132151E-3
            1.8019097947013E-3
            1.8069391497560E-3
            1.8119825171717E-3
            1.8170399358475E-3
            1.8221114447898E-3
            1.8271970831126E-3
            1.8322968900373E-3
            1.8374109048940E-3
            1.8425391671205E-3
            1.8476817162638E-3
            1.8528385919795E-3
            1.8580098340326E-3
            1.8631954822977E-3
            1.8683955767591E-3
            1.8736101575114E-3
            1.8788392647595E-3
            1.8840829388192E-3
            1.8893412201172E-3
            1.8946141491915E-3
            1.8999017666920E-3
            1.9052041133804E-3
            1.9105212301305E-3
            1.9158531579288E-3
            1.9211999378748E-3
            1.9265616111810E-3
            1.9319382191733E-3
            1.9373298032915E-3
            1.9427364050895E-3
            1.9481580662357E-3
            1.9535948285129E-3
            1.9590467338191E-3
            1.9645138241678E-3
            1.9699961416878E-3
            1.9754937286241E-3
            1.9810066273379E-3
            1.9865348803070E-3
            1.9920785301260E-3
            1.9976376195070E-3
            2.0032121912792E-3
            2.0088022883900E-3
            2.0144079539049E-3
            2.0200292310078E-3
            2.0256661630015E-3
            2.0313187933079E-3
            2.0369871654683E-3
            2.0426713231439E-3
            2.0483713101159E-3
            2.0540871702860E-3
            2.0598189476766E-3
            2.0655666864312E-3
            2.0713304308146E-3
            2.0771102252136E-3
            2.0829061141369E-3
            2.0887181422155E-3
            2.0945463542032E-3
            2.1003907949770E-3
            2.1062515095372E-3
            2.1121285430076E-3
            2.1180219406364E-3
            2.1239317477960E-3
            2.1298580099836E-3
            2.1358007728215E-3
            2.1417600820572E-3
            2.1477359835641E-3
            2.1537285233417E-3
            2.1597377475159E-3
            2.1657637023393E-3
            2.1718064341917E-3
            2.1778659895803E-3
            2.1839424151400E-3
            2.1900357576341E-3
            2.1961460639540E-3
            2.2022733811203E-3
            2.2084177562825E-3
            2.2145792367198E-3
            2.2207578698411E-3
            2.2269537031859E-3
            2.2331667844237E-3
            2.2393971613555E-3
            2.2456448819131E-3
            2.2519099941603E-3
            2.2581925462927E-3
            2.2644925866382E-3
            2.2708101636577E-3
            2.2771453259447E-3
            2.2834981222265E-3
            2.2898686013641E-3
            2.2962568123524E-3
            2.3026628043212E-3
            2.3090866265347E-3
            2.3155283283927E-3
            2.3219879594305E-3
            2.3284655693192E-3
            2.3349612078663E-3
            2.3414749250161E-3
            2.3480067708497E-3
            2.3545567955860E-3
            2.3611250495814E-3
            2.3677115833304E-3
            2.3743164474663E-3
            2.3809396927612E-3
            2.3875813701264E-3
            2.3942415306129E-3
            2.4009202254117E-3
            2.4076175058544E-3
            2.4143334234132E-3
            2.4210680297013E-3
            2.4278213764739E-3
            2.4345935156277E-3
            2.4413844992020E-3
            2.4481943793785E-3
            2.4550232084822E-3
            2.4618710389814E-3
            2.4687379234885E-3
            2.4756239147597E-3
            2.4825290656963E-3
            2.4894534293442E-3
            2.4963970588948E-3
            2.5033600076855E-3
            2.5103423291995E-3
            2.5173440770669E-3
            2.5243653050646E-3
            2.5314060671168E-3
            2.5384664172955E-3
            2.5455464098210E-3
            2.5526460990618E-3
            2.5597655395357E-3
            2.5669047859096E-3
            2.5740638930003E-3
            2.5812429157745E-3
            2.5884419093497E-3
            2.5956609289942E-3
            2.6029000301277E-3
            2.6101592683216E-3
            2.6174386992996E-3
            2.6247383789378E-3
            2.6320583632654E-3
            2.6393987084649E-3
            2.6467594708726E-3
            2.6541407069791E-3
            2.6615424734297E-3
            2.6689648270243E-3
            2.6764078247189E-3
            2.6838715236248E-3
            2.6913559810099E-3
            2.6988612542986E-3
            2.7063874010728E-3
            2.7139344790714E-3
            2.7215025461917E-3
            2.7290916604892E-3
            2.7367018801782E-3
            2.7443332636323E-3
            2.7519858693847E-3
            2.7596597561288E-3
            2.7673549827184E-3
            2.7750716081682E-3
            2.7828096916544E-3
            2.7905692925149E-3
            2.7983504702500E-3
            2.8061532845225E-3
            2.8139777951583E-3
            2.8218240621470E-3
            2.8296921456419E-3
            2.8375821059611E-3
            2.8454940035872E-3
            2.8534278991683E-3
            2.8613838535181E-3
            2.8693619276165E-3
            2.8773621826101E-3
            2.8853846798126E-3
            2.8934294807050E-3
            2.9014966469364E-3
            2.9095862403243E-3
            2.9176983228550E-3
            2.9258329566842E-3
            2.9339902041371E-3
            2.9421701277095E-3
            2.9503727900675E-3
            2.9585982540485E-3
            2.9668465826615E-3
            2.9751178390872E-3
            2.9834120866793E-3
            2.9917293889639E-3
            3.0000698096410E-3
            3.0084334125841E-3
            3.0168202618412E-3
            3.0252304216350E-3
            3.0336639563635E-3
            3.0421209306005E-3
            3.0506014090958E-3
            3.0591054567760E-3
            3.0676331387448E-3
            3.0761845202834E-3
            3.0847596668513E-3
            3.0933586440863E-3
            3.1019815178052E-3
            3.1106283540046E-3
            3.1192992188608E-3
            3.1279941787305E-3
            3.1367133001516E-3
            3.1454566498431E-3
            3.1542242947061E-3
            3.1630163018240E-3
            3.1718327384630E-3
            3.1806736720727E-3
            3.1895391702865E-3
            3.1984293009222E-3
            3.2073441319822E-3
            3.2162837316545E-3
            3.2252481683125E-3
            3.2342375105162E-3
            3.2432518270122E-3
            3.2522911867344E-3
            3.2613556588045E-3
            3.2704453125324E-3
            3.2795602174167E-3
            3.2887004431454E-3
            3.2978660595963E-3
            3.3070571368371E-3
            3.3162737451267E-3
            3.3255159549150E-3
            3.3347838368438E-3
            3.3440774617470E-3
            3.3533969006516E-3
            3.3627422247776E-3
            3.3721135055389E-3
            3.3815108145439E-3
            3.3909342235955E-3
            3.4003838046922E-3
            3.4098596300284E-3
            3.4193617719947E-3
            3.4288903031787E-3
            3.4384452963654E-3
            3.4480268245378E-3
            3.4576349608773E-3
            3.4672697787644E-3
            3.4769313517789E-3
            3.4866197537009E-3
            3.4963350585108E-3
            3.5060773403905E-3
            3.5158466737230E-3
            3.5256431330940E-3
            3.5354667932914E-3
            3.5453177293068E-3
            3.5551960163352E-3
            3.5651017297760E-3
            3.5750349452336E-3
            3.5849957385176E-3
            3.5949841856436E-3
            3.6050003628336E-3
            3.6150443465167E-3
            3.6251162133295E-3
            3.6352160401167E-3
            3.6453439039317E-3
            3.6554998820369E-3
            3.6656840519047E-3
            3.6758964912177E-3
            3.6861372778693E-3
            3.6964064899644E-3
            3.7067042058197E-3
            3.7170305039646E-3
            3.7273854631414E-3
            3.7377691623063E-3
            3.7481816806295E-3
            3.7586230974958E-3
            3.7690934925057E-3
            3.7795929454754E-3
            3.7901215364375E-3
            3.8006793456417E-3
            3.8112664535552E-3
            3.8218829408636E-3
            3.8325288884709E-3
            3.8432043775007E-3
            3.8539094892964E-3
            3.8646443054217E-3
            3.8754089076616E-3
            3.8862033780225E-3
            3.8970277987332E-3
            3.9078822522451E-3
            3.9187668212330E-3
            3.9296815885957E-3
            3.9406266374565E-3
            3.9516020511640E-3
            3.9626079132921E-3
            3.9736443076415E-3
            3.9847113182395E-3
            3.9958090293408E-3
            4.0069375254285E-3
            4.0180968912140E-3
            4.0292872116384E-3
            4.0405085718724E-3
            4.0517610573172E-3
            4.0630447536051E-3
            4.0743597466002E-3
            4.0857061223987E-3
            4.0970839673297E-3
            4.1084933679561E-3
            4.1199344110745E-3
            4.1314071837166E-3
            4.1429117731491E-3
            4.1544482668748E-3
            4.1660167526332E-3
            4.1776173184007E-3
            4.1892500523917E-3
            4.2009150430590E-3
            4.2126123790943E-3
            4.2243421494292E-3
            4.2361044432354E-3
            4.2478993499255E-3
            4.2597269591537E-3
            4.2715873608164E-3
            4.2834806450528E-3
            4.2954069022455E-3
            4.3073662230211E-3
            4.3193586982509E-3
            4.3313844190517E-3
            4.3434434767861E-3
            4.3555359630634E-3
            4.3676619697400E-3
            4.3798215889205E-3
            4.3920149129577E-3
            4.4042420344537E-3
            4.4165030462606E-3
            4.4287980414808E-3
            4.4411271134678E-3
            4.4534903558269E-3
            4.4658878624160E-3
            4.4783197273458E-3
            4.4907860449811E-3
            4.5032869099407E-3
            4.5158224170988E-3
            4.5283926615850E-3
            4.5409977387857E-3
            4.5536377443439E-3
            4.5663127741606E-3
            4.5790229243951E-3
            4.5917682914657E-3
            4.6045489720505E-3
            4.6173650630878E-3
            4.6302166617774E-3
            4.6431038655802E-3
            4.6560267722201E-3
            4.6689854796838E-3
            4.6819800862218E-3
            4.6950106903490E-3
            4.7080773908455E-3
            4.7211802867574E-3
            4.7343194773969E-3
            4.7474950623438E-3
            4.7607071414456E-3
            4.7739558148182E-3
            4.7872411828472E-3
            4.8005633461876E-3
            4.8139224057656E-3
            4.8273184627785E-3
            4.8407516186955E-3
            4.8542219752589E-3
            4.8677296344841E-3
            4.8812746986610E-3
            4.8948572703540E-3
            4.9084774524035E-3
            4.9221353479257E-3
            4.9358310603142E-3
            4.9495646932401E-3
            4.9633363506529E-3
            4.9771461367813E-3
            4.9909941561339E-3
            5.0048805134997E-3
            5.0188053139492E-3
            5.0327686628347E-3
            5.0467706657914E-3
            5.0608114287378E-3
            5.0748910578767E-3
            5.0890096596959E-3
            5.1031673409686E-3
            5.1173642087545E-3
            5.1316003704005E-3
            5.1458759335413E-3
            5.1601910061000E-3
            5.1745456962893E-3
            5.1889401126117E-3
            5.2033743638608E-3
            5.2178485591215E-3
            5.2323628077710E-3
            5.2469172194798E-3
            5.2615119042119E-3
            5.2761469722259E-3
            5.2908225340758E-3
            5.3055387006116E-3
            5.3202955829801E-3
            5.3350932926257E-3
            5.3499319412909E-3
            5.3648116410176E-3
            5.3797325041474E-3
            5.3946946433225E-3
            5.4096981714864E-3
            5.4247432018849E-3
            5.4398298480666E-3
            5.4549582238839E-3
            5.4701284434935E-3
            5.4853406213574E-3
            5.5005948722437E-3
            5.5158913112272E-3
            5.5312300536901E-3
            5.5466112153234E-3
            5.5620349121267E-3
            5.5775012604100E-3
            5.5930103767936E-3
            5.6085623782096E-3
            5.6241573819022E-3
            5.6397955054287E-3
            5.6554768666604E-3
            5.6712015837831E-3
            5.6869697752982E-3
            5.7027815600233E-3
            5.7186370570931E-3
            5.7345363859602E-3
            5.7504796663957E-3
            5.7664670184903E-3
            5.7824985626552E-3
            5.7985744196224E-3
            5.8146947104458E-3
            5.8308595565023E-3
            5.8470690794922E-3
            5.8633234014401E-3
            5.8796226446958E-3
            5.8959669319352E-3
            5.9123563861609E-3
            5.9287911307034E-3
            5.9452712892212E-3
            5.9617969857027E-3
            5.9783683444659E-3
            5.9949854901602E-3
            6.0116485477665E-3
            6.0283576425985E-3
            6.0451129003032E-3
            6.0619144468623E-3
            6.0787624085922E-3
            6.0956569121455E-3
            6.1125980845117E-3
            6.1295860530180E-3
            6.1466209453301E-3
            6.1637028894530E-3
            6.1808320137320E-3
            6.1980084468536E-3
            6.2152323178462E-3
            6.2325037560809E-3
            6.2498228912727E-3
            6.2671898534810E-3
            6.2846047731104E-3
            6.3020677809123E-3
            6.3195790079847E-3
            6.3371385857739E-3
            6.3547466460749E-3
            6.3724033210326E-3
            6.3901087431425E-3
            6.4078630452515E-3
            6.4256663605590E-3
            6.4435188226175E-3
            6.4614205653339E-3
            6.4793717229698E-3
            6.4973724301429E-3
            6.5154228218278E-3
            6.5335230333566E-3
            6.5516732004201E-3
            6.5698734590685E-3
            6.5881239457124E-3
            6.6064247971237E-3
            6.6247761504365E-3
            6.6431781431478E-3
            6.6616309131188E-3
            6.6801345985755E-3
            6.6986893381097E-3
            6.7172952706797E-3
            6.7359525356118E-3
            6.7546612726006E-3
            6.7734216217100E-3
            6.7922337233745E-3
            6.8110977183998E-3
            6.8300137479637E-3
            6.8489819536173E-3
            6.8680024772856E-3
            6.8870754612687E-3
            6.9062010482424E-3
            6.9253793812595E-3
            6.9446106037505E-3
            6.9638948595246E-3
            6.9832322927707E-3
            7.0026230480582E-3
            7.0220672703380E-3
            7.0415651049436E-3
            7.0611166975917E-3
            7.0807221943834E-3
            7.1003817418053E-3
            7.1200954867299E-3
            7.1398635764172E-3
            7.1596861585153E-3
            7.1795633810612E-3
            7.1994953924821E-3
            7.2194823415965E-3
            7.2395243776143E-3
            7.2596216501390E-3
            7.2797743091675E-3
            7.2999825050918E-3
            7.3202463887000E-3
            7.3405661111765E-3
            7.3609418241039E-3
            7.3813736794636E-3
            7.4018618296365E-3
            7.4224064274044E-3
            7.4430076259508E-3
            7.4636655788620E-3
            7.4843804401278E-3
            7.5051523641429E-3
            7.5259815057074E-3
            7.5468680200284E-3
            7.5678120627203E-3
            7.5888137898064E-3
            7.6098733577196E-3
            7.6309909233034E-3
            7.6521666438131E-3
            7.6734006769164E-3
            7.6946931806948E-3
            7.7160443136447E-3
            7.7374542346777E-3
            7.7589231031226E-3
            7.7804510787255E-3
            7.8020383216515E-3
            7.8236849924853E-3
            7.8453912522325E-3
            7.8671572623203E-3
            7.8889831845988E-3
            7.9108691813421E-3
            7.9328154152489E-3
            7.9548220494439E-3
            7.9768892474788E-3
            7.9990171733332E-3
            8.0212059914157E-3
            8.0434558665651E-3
            8.0657669640509E-3
            8.0881394495752E-3
            8.1105734892729E-3
            8.1330692497132E-3
            8.1556268979008E-3
            8.1782466012764E-3
            8.2009285277182E-3
            8.2236728455429E-3
            8.2464797235065E-3
            8.2693493308058E-3
