looks/Rec709_Kodak.cube
TITLE "Generated by Foundry::LUT"
LUT_3D_SIZE 6
0.004421 0.005466 0.005798
0.104858 0.018799 0.009323
0.277100 0.020477 0.007950
0.417480 0.005676 0.004017
0.510742 0.000000 0.000273
0.555176 0.000000 0.000186
0.002321 0.079102 0.019318
0.145020 0.121155 0.019333
0.372314 0.160400 0.007942
0.536621 0.167725 0.000000
0.641113 0.158569 0.000000
0.686035 0.152466 0.000000
0.000000 0.189819 0.026566
0.160400 0.276123 0.010925
0.446289 0.343506 0.000000
0.628906 0.369629 0.000000
0.738281 0.376221 0.000000
0.787109 0.375000 0.000000
0.000000 0.291992 0.018173
0.139038 0.406982 0.000000
0.486816 0.491943 0.000000
0.685059 0.528809 0.000000
0.804199 0.544434 0.000000
0.854980 0.544922 0.000000
0.000000 0.361328 0.012276
0.099365 0.495605 0.000000
0.502441 0.590820 0.000000
0.712891 0.637207 0.000000
0.843262 0.662598 0.000000
0.896484 0.663574 0.000000
0.000000 0.395752 0.010902
0.067688 0.540039 0.000000
0.509277 0.642578 0.000000
0.725586 0.693359 0.000000
0.859375 0.720703 0.000000
0.916504 0.726074 0.000000
0.008392 0.011681 0.091980
0.122375 0.025253 0.114563
0.305664 0.024673 0.120789
0.449707 0.010292 0.119324
0.545410 0.000000 0.114197
0.594238 0.000000 0.112610
0.000000 0.106628 0.136963
0.146729 0.148682 0.158203
0.394531 0.184082 0.161377
0.572754 0.191284 0.158325
0.673340 0.186523 0.153687
0.728027 0.175537 0.151001
0.000000 0.233765 0.171265
0.117310 0.314453 0.186523
0.454102 0.381104 0.184692
0.652344 0.407227 0.173828
0.762207 0.415039 0.167725
0.824707 0.413086 0.163208
0.000000 0.344238 0.192383
0.013618 0.459717 0.202881
0.488037 0.547363 0.191650
0.706055 0.584473 0.173218
0.825684 0.596191 0.158691
0.890625 0.601562 0.150879
0.000000 0.414062 0.200928
0.006039 0.546875 0.205933
0.498779 0.646484 0.187500
0.729980 0.693359 0.161743
0.857422 0.711426 0.138184
0.924805 0.717773 0.129028
0.000000 0.450684 0.208130
0.005085 0.596680 0.208008
0.505371 0.705078 0.185913
0.745117 0.756348 0.155396
0.873047 0.776367 0.129272
0.946289 0.788086 0.110474
0.002064 0.013535 0.233276
0.108154 0.022644 0.276123
0.315674 0.019714 0.298340
0.463379 0.003633 0.308594
0.556152 0.000000 0.311279
0.605469 0.000000 0.311768
0.000000 0.129272 0.319336
0.083984 0.172119 0.364258
0.392090 0.206299 0.387207
0.572754 0.210571 0.395508
0.675293 0.207886 0.397949
0.733398 0.199707 0.399902
0.000000 0.276123 0.378174
0.003466 0.357178 0.423584
0.429199 0.421387 0.446533
0.644531 0.446533 0.453613
0.755371 0.453125 0.453369
0.819824 0.454834 0.456055
0.000000 0.392822 0.413574
0.000607 0.508301 0.457520
0.444092 0.595215 0.481201
0.686523 0.632324 0.487305
0.809082 0.643066 0.486328
0.878418 0.650879 0.488525
0.000000 0.467773 0.433594
0.000000 0.601074 0.476318
0.444580 0.699219 0.498535
0.703125 0.744141 0.503418
0.836426 0.763672 0.502930
0.905762 0.769043 0.502441
0.000000 0.505371 0.443604
0.000000 0.654297 0.489258
0.440918 0.759277 0.510254
0.708984 0.806641 0.511719
0.843750 0.826660 0.510254
0.919922 0.838379 0.510742
0.000000 0.010887 0.341064
0.079346 0.014732 0.394287
0.317627 0.010117 0.424316
0.467041 0.000000 0.438232
0.560547 0.000000 0.443848
0.608398 0.000000 0.443848
0.000000 0.142456 0.447998
0.004677 0.186523 0.506836
0.384521 0.218994 0.539062
0.567383 0.224121 0.553223
0.674316 0.219482 0.556641
0.730957 0.211792 0.557617
0.000000 0.301758 0.520020
0.000484 0.384277 0.581055
0.403809 0.446777 0.617676
0.628906 0.469727 0.627930
0.745117 0.475586 0.630371
0.808594 0.474854 0.631836
0.000000 0.423096 0.564453
0.000000 0.538086 0.625488
0.397461 0.622070 0.658203
0.660645 0.659668 0.673828
0.790039 0.670898 0.676270
0.858398 0.676270 0.676758
0.000000 0.500488 0.588867
0.000000 0.634277 0.649902
0.381104 0.727539 0.680664
0.669922 0.773926 0.695801
0.812012 0.793457 0.699219
0.882324 0.796875 0.697754
0.000000 0.538574 0.599609
0.000000 0.686035 0.662598
0.365479 0.786621 0.694336
0.670410 0.835449 0.707031
0.816895 0.856934 0.709961
0.893555 0.865723 0.709961
0.000000 0.005447 0.409912
0.044678 0.009216 0.464111
0.311768 0.005001 0.500488
0.464600 0.000000 0.517578
0.560547 0.000000 0.525879
0.609863 0.000000 0.526367
0.000000 0.150146 0.528320
0.003359 0.195557 0.593750
0.373291 0.227661 0.633301
0.564453 0.233643 0.650879
0.675293 0.229980 0.658691
0.731445 0.222778 0.658203
0.000000 0.315186 0.605957
0.000000 0.399658 0.675781
0.379150 0.461182 0.717773
0.615234 0.484131 0.732422
0.737793 0.490479 0.737793
0.801758 0.489014 0.737793
0.000000 0.439453 0.655273
0.000000 0.555176 0.725586
0.356201 0.637207 0.763672
0.639648 0.673828 0.781250
0.776367 0.686035 0.787598
0.845703 0.689941 0.786621
0.000000 0.518066 0.682617
0.000000 0.652344 0.752441
0.322021 0.744141 0.788086
0.643555 0.789551 0.805664
0.794922 0.810059 0.812500
0.866699 0.812500 0.810547
0.000000 0.557129 0.693359
0.000000 0.703125 0.764160
0.293701 0.802246 0.800781
0.643066 0.850586 0.816406
0.799316 0.873047 0.823242
0.876465 0.880859 0.822266
0.000000 0.003496 0.448242
0.020401 0.010681 0.505371
0.304932 0.007484 0.544434
0.461426 0.000000 0.563477
0.560059 0.000000 0.573730
0.611816 0.000000 0.576660
0.000000 0.156738 0.575195
0.001655 0.203247 0.646484
0.360107 0.235352 0.691895
0.558594 0.242798 0.710449
0.670410 0.240479 0.718262
0.730957 0.233276 0.721191
0.000000 0.322510 0.654297
0.000000 0.410400 0.732910
0.356934 0.469727 0.778809
0.602539 0.493164 0.794922
0.728516 0.499023 0.800293
0.797363 0.498291 0.803223
0.000000 0.446777 0.704102
0.000000 0.564941 0.783691
0.314941 0.644531 0.824707
0.620605 0.680664 0.842773
0.762695 0.692383 0.848633
0.836426 0.697266 0.851074
0.000000 0.525391 0.731445
0.000000 0.661133 0.810059
0.266357 0.751465 0.849609
0.625000 0.795898 0.867188
0.779785 0.815430 0.875000
0.855469 0.819336 0.875977
0.000000 0.565430 0.744141
0.000000 0.713379 0.823242
0.225708 0.812012 0.863770
0.623535 0.858398 0.879395
0.783203 0.879395 0.886719
0.865234 0.889160 0.889160
