looks/Rec709_Kodak.cube
TITLE "Generated by Foundry::LUT"
LUT_3D_SIZE 16
0.004421 0.005466 0.005798
0.016754 0.009407 0.007767
0.045166 0.012833 0.009209
0.104858 0.018799 0.009323
0.165894 0.022369 0.009064
0.216187 0.020721 0.008194
0.277100 0.020477 0.007950
0.334961 0.015236 0.006065
0.380371 0.009926 0.004719
0.417480 0.005676 0.004017
0.450928 0.001730 0.003126
0.484131 0.000717 0.001434
0.510742 0.000000 0.000273
0.526367 0.000000 0.000257
0.540527 0.000000 0.000242
0.555176 0.000000 0.000186
0.005997 0.017471 0.010574
0.023483 0.027573 0.011749
0.065674 0.036987 0.012711
0.124451 0.051239 0.012314
0.194458 0.058990 0.011871
0.255371 0.055389 0.010452
0.322266 0.057190 0.009354
0.384033 0.048401 0.006577
0.432373 0.037354 0.004421
0.471436 0.028030 0.003139
0.506348 0.019394 0.001880
0.541504 0.015701 0.000756
0.569336 0.012573 0.000000
0.584473 0.012039 0.000000
0.597656 0.012032 0.000000
0.611328 0.010078 0.000000
0.004822 0.037659 0.014275
0.022400 0.051056 0.015747
0.074280 0.066162 0.016281
0.134033 0.079773 0.015511
0.210083 0.092529 0.013939
0.276123 0.097534 0.011505
0.346436 0.104614 0.009407
0.409912 0.103455 0.005947
0.460449 0.100647 0.003012
0.502441 0.098145 0.001229
0.541016 0.094055 0.000069
0.576172 0.080688 0.000023
0.604980 0.071289 0.000000
0.621094 0.069336 0.000000
0.634766 0.067871 0.000000
0.648438 0.058624 0.000000
0.002321 0.079102 0.019318
0.017670 0.092102 0.020859
0.078247 0.104736 0.021072
0.145020 0.121155 0.019333
0.226562 0.138550 0.015007
0.298828 0.149048 0.011520
0.372314 0.160400 0.007942
0.438477 0.165405 0.003431
0.492188 0.166870 0.000738
0.536621 0.167725 0.000000
0.575684 0.168091 0.000000
0.611816 0.162354 0.000000
0.641113 0.158569 0.000000
0.657715 0.157227 0.000000
0.672363 0.156494 0.000000
0.686035 0.152466 0.000000
0.000000 0.116516 0.022202
0.012276 0.132568 0.022827
0.075256 0.151123 0.021149
0.153320 0.172363 0.016815
0.244873 0.193604 0.013100
0.322998 0.208496 0.007565
0.400879 0.221924 0.003193
0.471680 0.229370 0.000624
0.527344 0.234253 0.000000
0.572266 0.236938 0.000000
0.611328 0.237793 0.000000
0.648438 0.235474 0.000000
0.677734 0.234009 0.000000
0.694824 0.233765 0.000000
0.709473 0.233154 0.000000
0.723633 0.230591 0.000000
0.000000 0.148193 0.024857
0.009041 0.169434 0.023682
0.055267 0.194702 0.018982
0.154419 0.219971 0.014435
0.258057 0.245239 0.008484
0.341309 0.262451 0.001927
0.424561 0.279297 0.000153
0.500000 0.288818 0.000000
0.558105 0.294922 0.000000
0.603516 0.300049 0.000000
0.643066 0.302979 0.000000
0.682129 0.300781 0.000000
0.713379 0.299316 0.000000
0.729492 0.300537 0.000000
0.743164 0.301514 0.000000
0.757324 0.299072 0.000000
0.000000 0.189819 0.026566
0.005135 0.219482 0.022583
0.031708 0.247437 0.016647
0.160400 0.276123 0.010925
0.270752 0.304199 0.003592
0.361328 0.325928 0.000085
0.446289 0.343506 0.000000
0.521973 0.355957 0.000000
0.581543 0.364258 0.000000
0.628906 0.369629 0.000000
0.669922 0.373535 0.000000
0.708008 0.375000 0.000000
0.738281 0.376221 0.000000
0.756836 0.375977 0.000000
0.772461 0.375977 0.000000
0.787109 0.375000 0.000000
0.000000 0.230713 0.023041
0.001301 0.265137 0.017059
0.007805 0.295898 0.011917
0.153442 0.327393 0.004063
0.279053 0.359375 0.000600
0.375000 0.384766 0.000000
0.464355 0.402100 0.000000
0.543945 0.416992 0.000000
0.605469 0.427002 0.000000
0.653320 0.432373 0.000000
0.694336 0.436035 0.000000
0.735352 0.440186 0.000000
0.767578 0.443115 0.000000
0.784668 0.442139 0.000000
0.799316 0.441406 0.000000
0.814941 0.440918 0.000000
0.000000 0.263916 0.019592
0.000000 0.302490 0.013031
0.000000 0.336182 0.007008
0.143677 0.370361 0.000445
0.283691 0.405273 0.000000
0.384277 0.432617 0.000000
0.477539 0.450928 0.000000
0.560547 0.467529 0.000000
0.623535 0.478516 0.000000
0.672363 0.484863 0.000000
0.714355 0.489258 0.000000
0.757324 0.494385 0.000000
0.790527 0.497803 0.000000
0.807129 0.497314 0.000000
0.821777 0.496826 0.000000
0.837402 0.496582 0.000000
0.000000 0.291992 0.018173
0.000000 0.334473 0.010933
0.000000 0.370361 0.003237
0.139038 0.406982 0.000000
0.286133 0.443115 0.000000
0.391602 0.471680 0.000000
0.486816 0.491943 0.000000
0.570312 0.509277 0.000000
0.634766 0.521484 0.000000
0.685059 0.528809 0.000000
0.728516 0.534668 0.000000
0.770508 0.540039 0.000000
0.804199 0.544434 0.000000
0.822754 0.544434 0.000000
0.838867 0.544922 0.000000
0.854980 0.544922 0.000000
0.000000 0.317139 0.017563
0.000000 0.363525 0.009132
0.000000 0.401611 0.000236
0.135254 0.439453 0.000000
0.287109 0.476562 0.000000
0.396973 0.506348 0.000000
0.493896 0.528320 0.000000
0.576660 0.546387 0.000000
0.641602 0.559570 0.000000
0.694824 0.568848 0.000000
0.740234 0.575684 0.000000
0.780762 0.581543 0.000000
0.813965 0.585938 0.000000
0.834961 0.587402 0.000000
0.853027 0.588379 0.000000
0.869141 0.588867 0.000000
0.000000 0.342285 0.014290
0.000000 0.391846 0.004890
0.000000 0.431396 0.000147
0.114319 0.470947 0.000000
0.285645 0.509766 0.000000
0.398438 0.541992 0.000000
0.498779 0.563477 0.000000
0.585449 0.584961 0.000000
0.652344 0.599121 0.000000
0.705078 0.607422 0.000000
0.751465 0.613770 0.000000
0.796387 0.623047 0.000000
0.832031 0.629883 0.000000
0.851074 0.628906 0.000000
0.867676 0.629395 0.000000
0.884766 0.630859 0.000000
0.000000 0.361328 0.012276
0.000000 0.413574 0.002066
0.000000 0.454590 0.000060
0.099365 0.495605 0.000000
0.284668 0.535645 0.000000
0.399658 0.569336 0.000000
0.502441 0.590820 0.000000
0.591797 0.613770 0.000000
0.659668 0.629395 0.000000
0.712891 0.637207 0.000000
0.760254 0.644043 0.000000
0.806641 0.654785 0.000000
0.843262 0.662598 0.000000
0.862305 0.661621 0.000000
0.878418 0.661621 0.000000
0.896484 0.663574 0.000000
0.000000 0.374756 0.011757
0.000000 0.428955 0.000928
0.000000 0.470947 0.000030
0.090942 0.512695 0.000000
0.283936 0.553223 0.000000
0.401611 0.587891 0.000000
0.505371 0.610840 0.000000
0.594238 0.633301 0.000000
0.663086 0.649414 0.000000
0.717285 0.658691 0.000000
0.765137 0.666016 0.000000
0.811035 0.676758 0.000000
0.847656 0.683594 0.000000
0.868164 0.684570 0.000000
0.885254 0.685059 0.000000
0.903809 0.687500 0.000000
0.000000 0.385986 0.011360
0.000000 0.441650 0.000000
0.000000 0.484619 0.000000
0.083679 0.527344 0.000000
0.283203 0.568359 0.000000
0.403076 0.602539 0.000000
0.507324 0.626953 0.000000
0.596191 0.649902 0.000000
0.665527 0.666016 0.000000
0.721191 0.676270 0.000000
0.769531 0.684570 0.000000
0.814941 0.694336 0.000000
0.851562 0.702148 0.000000
0.873047 0.703125 0.000000
0.891602 0.704590 0.000000
0.909668 0.707031 0.000000
0.000000 0.395752 0.010902
0.000000 0.453369 0.000000
0.000000 0.496826 0.000000
0.067688 0.540039 0.000000
0.281494 0.582520 0.000000
0.402832 0.617676 0.000000
0.509277 0.642578 0.000000
0.600098 0.666504 0.000000
0.669922 0.682617 0.000000
0.725586 0.693359 0.000000
0.774902 0.702148 0.000000
0.821777 0.713379 0.000000
0.859375 0.720703 0.000000
0.879883 0.722168 0.000000
0.897949 0.723145 0.000000
0.916504 0.726074 0.000000
0.005806 0.008774 0.018433
0.021545 0.012749 0.023880
0.057037 0.016693 0.028290
0.112915 0.022568 0.029541
0.173340 0.027405 0.029327
0.226440 0.025879 0.027008
0.288818 0.024109 0.026855
0.346924 0.019104 0.021973
0.393311 0.013947 0.018646
0.431885 0.009232 0.017136
0.466309 0.004456 0.015106
0.500488 0.001843 0.010284
0.527832 0.000000 0.006954
0.544922 0.000000 0.007099
0.559570 0.000000 0.007225
0.575195 0.000000 0.006496
0.006985 0.026886 0.031677
0.027145 0.037384 0.034698
0.075439 0.047546 0.037476
0.132324 0.060883 0.038239
0.202148 0.067261 0.037781
0.268311 0.066040 0.034302
0.337158 0.066895 0.031982
0.397461 0.058228 0.024963
0.446533 0.047119 0.019745
0.488525 0.037567 0.016785
0.525391 0.027298 0.013924
0.559082 0.020203 0.010338
0.586914 0.015152 0.007904
0.604492 0.014580 0.008011
0.619629 0.014107 0.008102
0.634277 0.012695 0.007473
0.005009 0.054138 0.040375
0.023895 0.066895 0.042145
0.081116 0.079956 0.044647
0.143188 0.091675 0.045563
0.221069 0.104309 0.043488
0.294189 0.111267 0.037689
0.366943 0.116882 0.032959
0.429932 0.115601 0.024521
0.481689 0.112732 0.017441
0.525879 0.110291 0.013283
0.564453 0.105957 0.010452
0.598633 0.095520 0.009308
0.625977 0.087524 0.008530
0.644531 0.083801 0.008461
0.660156 0.081238 0.008438
0.674316 0.073181 0.007904
0.001604 0.092590 0.049683
0.016342 0.104187 0.050690
0.079468 0.116699 0.052490
0.152710 0.134644 0.051697
0.236084 0.152222 0.046570
0.315918 0.163696 0.038361
0.391113 0.173096 0.030167
0.457764 0.177856 0.019257
0.513672 0.178955 0.012688
0.560059 0.179199 0.010643
0.600098 0.178833 0.010216
0.634277 0.174927 0.009071
0.662598 0.171631 0.008286
0.681641 0.168579 0.008179
0.698242 0.166626 0.008087
0.712402 0.162842 0.007523
0.000000 0.129395 0.055969
0.011528 0.145386 0.056030
0.070679 0.164062 0.055542
0.158691 0.185913 0.051483
0.251221 0.206787 0.043182
0.336914 0.223267 0.030273
0.416992 0.234863 0.020126
0.488037 0.242310 0.013405
0.545898 0.246948 0.011139
0.593262 0.249146 0.010551
0.634277 0.250488 0.009933
0.668457 0.249390 0.008705
0.696777 0.248047 0.007809
0.717285 0.246582 0.007572
0.734375 0.245239 0.007343
0.748535 0.242676 0.006763
0.000000 0.163818 0.059662
0.007282 0.187622 0.057495
0.044708 0.212280 0.054474
0.159180 0.237915 0.046448
0.264160 0.262939 0.033112
0.354248 0.281006 0.017593
0.440186 0.297607 0.013123
0.515625 0.306152 0.011185
0.575684 0.312012 0.009918
0.623535 0.317627 0.009193
0.664062 0.321777 0.008469
0.701660 0.319336 0.006443
0.731934 0.318115 0.005077
0.750977 0.319092 0.005131
0.767090 0.320312 0.005104
0.781738 0.317627 0.004395
0.000000 0.207886 0.064697
0.002111 0.237793 0.059387
0.012932 0.264648 0.052338
0.161621 0.293701 0.039551
0.274414 0.321533 0.022781
0.373779 0.343994 0.013832
0.461670 0.361572 0.012497
0.537109 0.374023 0.010818
0.598633 0.382080 0.009262
0.649414 0.388184 0.007858
0.692383 0.392578 0.006504
0.728027 0.394043 0.004528
0.757812 0.394287 0.003162
0.779785 0.393799 0.002726
0.798340 0.393555 0.002254
0.813477 0.392334 0.001817
0.000000 0.249634 0.061737
0.000000 0.283691 0.052521
0.000000 0.313721 0.042206
0.154419 0.345459 0.024445
0.282959 0.376953 0.015747
0.387451 0.402832 0.012566
0.479004 0.421143 0.011208
0.558594 0.436035 0.008530
0.622070 0.446533 0.005970
0.672852 0.452393 0.004246
0.716797 0.456543 0.002735
0.755371 0.460205 0.001681
0.787598 0.462891 0.000813
0.807617 0.462158 0.000553
0.825195 0.461182 0.000373
0.841309 0.461182 0.000215
0.000000 0.284668 0.057983
0.000000 0.322510 0.045105
0.000000 0.355957 0.031616
0.143066 0.391357 0.016129
0.287842 0.424805 0.013794
0.396973 0.453125 0.011246
0.492676 0.472900 0.009491
0.575684 0.489990 0.005417
0.640625 0.500977 0.002409
0.692383 0.508301 0.001115
0.736816 0.513184 0.000424
0.778320 0.518066 0.000159
0.811035 0.520996 0.000000
0.831055 0.520996 0.000000
0.848145 0.520996 0.000000
0.864746 0.520996 0.000000
0.000000 0.313965 0.056854
0.000000 0.356445 0.040985
0.000000 0.392578 0.023468
0.132690 0.430420 0.015129
0.288574 0.466064 0.013329
0.404541 0.495117 0.010361
0.503418 0.518066 0.007664
0.586914 0.535156 0.003181
0.653320 0.547363 0.000538
0.707520 0.556152 0.000000
0.753906 0.562500 0.000000
0.792969 0.566895 0.000000
0.825684 0.569824 0.000000
0.848145 0.571289 0.000000
0.867188 0.572754 0.000000
0.883789 0.573242 0.000000
0.000000 0.339844 0.056000
0.000000 0.386719 0.037476
0.000000 0.425049 0.017090
0.121460 0.464600 0.015076
0.287109 0.501953 0.012703
0.410645 0.531738 0.009384
0.512207 0.557617 0.005562
0.594727 0.574707 0.001532
0.662598 0.587402 0.000000
0.719727 0.598633 0.000000
0.768066 0.606445 0.000000
0.805176 0.609863 0.000000
0.836426 0.612793 0.000000
0.861816 0.615723 0.000000
0.883301 0.618164 0.000000
0.900391 0.619141 0.000000
0.000000 0.364990 0.048370
0.000000 0.414307 0.027313
0.000000 0.453125 0.016113
0.098389 0.493896 0.013916
0.286621 0.532715 0.010880
0.411377 0.565430 0.005566
0.516113 0.589355 0.002502
0.603027 0.610840 0.000589
0.671875 0.625000 0.000000
0.728516 0.634277 0.000000
0.776855 0.641113 0.000000
0.818848 0.648926 0.000000
0.853516 0.654297 0.000000
0.875977 0.655273 0.000000
0.895020 0.655762 0.000000
0.913086 0.657715 0.000000
0.000000 0.384277 0.043823
0.000000 0.435791 0.020874
0.000000 0.475586 0.015610
0.080505 0.517090 0.013229
0.285400 0.557617 0.009575
0.412598 0.592285 0.003212
0.519043 0.616211 0.000663
0.608887 0.639160 0.000000
0.679199 0.654297 0.000000
0.735352 0.663574 0.000000
0.783691 0.670410 0.000000
0.828613 0.679688 0.000000
0.864746 0.686523 0.000000
0.886230 0.686523 0.000000
0.904785 0.687012 0.000000
0.923340 0.689453 0.000000
0.000000 0.397705 0.043060
0.000000 0.451660 0.018646
0.000000 0.492676 0.015602
0.068298 0.536133 0.013046
0.283203 0.577148 0.009064
0.414062 0.611328 0.002651
0.521973 0.637207 0.000332
0.611816 0.660156 0.000000
0.682617 0.675781 0.000000
0.740234 0.685547 0.000000
0.789551 0.693848 0.000000
0.833496 0.702637 0.000000
0.869141 0.709473 0.000000
0.892578 0.710938 0.000000
0.912598 0.712402 0.000000
0.931152 0.714355 0.000000
0.000000 0.408691 0.042389
0.000000 0.464844 0.016769
0.000000 0.506836 0.015594
0.057922 0.551758 0.012917
0.281250 0.593262 0.008675
0.415283 0.627930 0.002115
0.523926 0.655273 0.000000
0.614258 0.677246 0.000000
0.686035 0.693359 0.000000
0.744141 0.704590 0.000000
0.794434 0.713379 0.000000
0.837402 0.721680 0.000000
0.873047 0.728027 0.000000
0.897949 0.730469 0.000000
0.918945 0.733398 0.000000
0.937988 0.735840 0.000000
0.000000 0.418213 0.041351
0.000000 0.475830 0.016586
0.000000 0.519043 0.015427
0.041992 0.563965 0.012573
0.279785 0.606445 0.008026
0.415283 0.642090 0.001410
0.525879 0.669434 0.000000
0.618652 0.693359 0.000000
0.690918 0.709961 0.000000
0.749023 0.721191 0.000000
0.798828 0.729492 0.000000
0.843750 0.739258 0.000000
0.880371 0.746582 0.000000
0.904297 0.749023 0.000000
0.924316 0.750977 0.000000
0.943359 0.753906 0.000000
0.004837 0.010338 0.039062
0.020477 0.014359 0.049438
0.062561 0.018768 0.060028
0.117432 0.024307 0.062683
0.179688 0.028839 0.064453
0.236084 0.026154 0.062073
0.298096 0.024261 0.064514
0.355469 0.020264 0.059296
0.401855 0.015038 0.056427
0.441406 0.010078 0.056732
0.476807 0.004868 0.056366
0.510742 0.002012 0.048309
0.538086 0.000000 0.043060
0.555176 0.000000 0.044312
0.570801 0.000000 0.045380
0.585938 0.000000 0.041321
0.005177 0.031235 0.061218
0.023514 0.041412 0.069275
0.076843 0.052277 0.076599
0.134399 0.065063 0.078552
0.208008 0.070679 0.080627
0.277100 0.069641 0.077759
0.345703 0.069397 0.078308
0.406494 0.061371 0.072083
0.456299 0.050751 0.068176
0.498535 0.040100 0.067505
0.535645 0.028931 0.066650
0.569336 0.021545 0.058807
0.597168 0.016281 0.053589
0.615234 0.015594 0.054291
0.630371 0.015015 0.054901
0.644531 0.013947 0.050781
0.002575 0.061157 0.073792
0.018188 0.073669 0.080444
0.078125 0.085754 0.085938
0.143921 0.096985 0.087830
0.224365 0.109070 0.088745
0.300049 0.116882 0.085205
0.373535 0.121948 0.084229
0.437744 0.120728 0.078369
0.490479 0.118347 0.073792
0.535156 0.115601 0.071777
0.573730 0.110657 0.069885
0.607422 0.101257 0.062744
0.634766 0.093811 0.057800
0.653809 0.089966 0.057465
0.670410 0.086609 0.057159
0.684082 0.079102 0.053619
0.000092 0.099060 0.083313
0.012093 0.110168 0.088501
0.072815 0.123352 0.093140
0.152710 0.141113 0.094238
0.238525 0.158325 0.093933
0.320068 0.170288 0.089478
0.395996 0.178955 0.086914
0.463867 0.183838 0.080139
0.520996 0.185303 0.075012
0.568359 0.185181 0.072205
0.608887 0.184448 0.069397
0.642578 0.181152 0.061676
0.670410 0.178101 0.056152
0.690430 0.175049 0.055420
0.708008 0.172485 0.054810
0.721680 0.168945 0.051056
0.000000 0.137329 0.091553
0.009460 0.152954 0.095886
0.057495 0.172607 0.100098
0.156250 0.194580 0.100037
0.252197 0.215210 0.099060
0.340088 0.231567 0.093201
0.419678 0.242554 0.089111
0.490479 0.250244 0.081787
0.549805 0.255127 0.075562
0.598633 0.257568 0.071411
0.640625 0.258301 0.067505
0.674316 0.257324 0.059235
0.703125 0.256836 0.053040
0.724121 0.254883 0.051361
0.742676 0.253662 0.049835
0.757324 0.251465 0.046143
0.000000 0.174316 0.095825
0.003561 0.197266 0.098267
0.021744 0.222778 0.102783
0.153809 0.248413 0.101440
0.263672 0.273193 0.099121
0.356934 0.291992 0.090820
0.442139 0.307617 0.086670
0.516602 0.316406 0.075684
0.577148 0.322021 0.067200
0.626953 0.327881 0.062439
0.668945 0.332031 0.057648
0.706055 0.329834 0.043915
0.736328 0.328613 0.034454
0.756836 0.329590 0.034668
0.774414 0.330322 0.034821
0.790039 0.328125 0.029877
0.000000 0.219727 0.106750
0.000132 0.248901 0.108398
0.000659 0.275146 0.109070
0.150757 0.303955 0.106323
0.269531 0.332031 0.101379
0.372803 0.354980 0.092468
0.461670 0.372070 0.084717
0.537598 0.384277 0.073303
0.600586 0.392578 0.062622
0.652832 0.398438 0.053558
0.697266 0.402588 0.044495
0.732910 0.404297 0.031082
0.762695 0.405029 0.021118
0.785645 0.404053 0.018097
0.805664 0.404053 0.015396
0.820801 0.402832 0.012161
0.000000 0.262207 0.111267
0.000000 0.296143 0.111755
0.000000 0.323975 0.110535
0.136353 0.355469 0.105286
0.274170 0.387207 0.098083
0.382568 0.413330 0.085144
0.476807 0.431641 0.076172
0.557617 0.446533 0.057281
0.622559 0.457031 0.040619
0.675293 0.463135 0.029144
0.720215 0.467041 0.018753
0.759766 0.470459 0.011086
0.791992 0.473145 0.005310
0.813477 0.472656 0.003674
0.831543 0.472168 0.002274
0.847656 0.471191 0.001465
0.000000 0.297852 0.113464
0.000000 0.335938 0.112793
0.000000 0.366699 0.110474
0.117310 0.401367 0.102844
0.276123 0.436279 0.093445
0.390137 0.464111 0.076050
0.489258 0.484619 0.064331
0.573242 0.500977 0.036835
0.640137 0.512207 0.016022
0.693848 0.519043 0.007645
0.739746 0.524414 0.002941
0.781738 0.528809 0.001193
0.815430 0.531250 0.000000
0.835938 0.531738 0.000000
0.854004 0.532227 0.000000
0.870605 0.531738 0.000000
0.000000 0.327393 0.117004
0.000000 0.370605 0.115479
0.000000 0.404541 0.111694
0.096191 0.442383 0.102478
0.274170 0.478271 0.090393
0.396484 0.507324 0.070007
0.499268 0.530762 0.051849
0.583984 0.547363 0.021561
0.652344 0.559082 0.003672
0.708496 0.568359 0.000000
0.756348 0.575195 0.000000
0.795898 0.578125 0.000000
0.829102 0.581055 0.000000
0.852539 0.583496 0.000000
0.872559 0.585449 0.000000
0.889160 0.585449 0.000000
0.000000 0.353271 0.120361
0.000000 0.401367 0.117920
0.000000 0.438232 0.112549
0.071289 0.478271 0.101929
0.269287 0.515625 0.086609
0.400391 0.544922 0.062988
0.506348 0.571289 0.037750
0.591309 0.587891 0.010368
0.661133 0.601562 0.000000
0.719727 0.612305 0.000000
0.770020 0.620117 0.000000
0.806641 0.622559 0.000000
0.838379 0.625488 0.000000
0.865234 0.628906 0.000000
0.888672 0.632324 0.000000
0.905273 0.632812 0.000000
0.000000 0.377930 0.117493
0.000000 0.427734 0.113098
0.000000 0.465576 0.107727
0.032867 0.506348 0.094238
0.264893 0.545410 0.073486
0.397705 0.577637 0.037476
0.508301 0.603027 0.017166
0.597656 0.624023 0.003653
0.668945 0.638672 0.000000
0.727051 0.647461 0.000000
0.776855 0.654297 0.000000
0.817871 0.659668 0.000000
0.852051 0.664062 0.000000
0.876953 0.666504 0.000000
0.897949 0.668457 0.000000
0.915527 0.669922 0.000000
0.000000 0.396973 0.116821
0.000000 0.449219 0.111084
0.000000 0.488037 0.105164
0.011414 0.529785 0.089539
0.260986 0.570312 0.064819
0.396729 0.604492 0.021698
0.510254 0.629395 0.004753
0.602539 0.652344 0.000000
0.674805 0.667969 0.000000
0.732910 0.676270 0.000000
0.782715 0.682617 0.000000
0.826172 0.689941 0.000000
0.861816 0.695312 0.000000
0.885742 0.697266 0.000000
0.906250 0.698730 0.000000
0.924805 0.701172 0.000000
0.000000 0.410889 0.118958
0.000000 0.465576 0.112488
0.000000 0.505859 0.105408
0.010475 0.549316 0.088379
0.257324 0.589844 0.061584
0.398193 0.624512 0.017578
0.512695 0.651367 0.002155
0.605469 0.673828 0.000000
0.678711 0.689453 0.000000
0.737793 0.699707 0.000000
0.788574 0.707031 0.000000
0.831055 0.713867 0.000000
0.866699 0.719727 0.000000
0.892578 0.722656 0.000000
0.914062 0.725098 0.000000
0.933105 0.727051 0.000000
0.000000 0.422607 0.120789
0.000000 0.479248 0.113708
0.000000 0.520508 0.105591
0.009827 0.565430 0.087402
0.254150 0.606934 0.058777
0.399414 0.641602 0.014008
0.514648 0.669922 0.000000
0.607910 0.691895 0.000000
0.681641 0.708008 0.000000
0.742188 0.719238 0.000000
0.793457 0.727051 0.000000
0.835449 0.733887 0.000000
0.871094 0.739258 0.000000
0.897949 0.743164 0.000000
0.920898 0.747070 0.000000
0.939941 0.749512 0.000000
0.000000 0.432129 0.120544
0.000000 0.490479 0.112488
0.000000 0.532715 0.104431
0.008797 0.578125 0.084900
0.251709 0.620117 0.054657
0.398926 0.655762 0.009468
0.516602 0.684082 0.000000
0.612305 0.707031 0.000000
0.687012 0.723633 0.000000
0.746582 0.734863 0.000000
0.797363 0.743652 0.000000
0.841309 0.751465 0.000000
0.877441 0.757812 0.000000
0.903809 0.761230 0.000000
0.925781 0.764648 0.000000
0.945312 0.767578 0.000000
0.008392 0.011681 0.091980
0.029419 0.015900 0.102234
0.070862 0.020477 0.109924
0.122375 0.025253 0.114563
0.184692 0.026321 0.117188
0.243530 0.025146 0.118408
0.305664 0.024673 0.120789
0.362793 0.020325 0.119324
0.409912 0.015350 0.118774
0.449707 0.010292 0.119324
0.485840 0.004833 0.119507
0.518555 0.001978 0.116333
0.545410 0.000000 0.114197
0.563477 0.000000 0.114319
0.579102 0.000000 0.114624
0.594238 0.000000 0.112610
0.007336 0.035034 0.111450
0.028305 0.045746 0.119263
0.078125 0.056610 0.126221
0.136230 0.067871 0.131958
0.211426 0.070984 0.135620
0.282715 0.070862 0.136841
0.350098 0.070190 0.138306
0.411621 0.061890 0.136719
0.462891 0.051605 0.135864
0.505859 0.041656 0.136230
0.543945 0.029846 0.135986
0.575684 0.022079 0.132935
0.602539 0.017548 0.130981
0.622070 0.016617 0.130737
0.638672 0.015884 0.130493
0.652344 0.014847 0.128662
0.002279 0.067810 0.123901
0.016907 0.079712 0.131592
0.073669 0.090698 0.138550
0.143799 0.101074 0.144897
0.225952 0.111938 0.148438
0.303711 0.120667 0.149292
0.375732 0.125244 0.150024
0.440430 0.124756 0.149048
0.494873 0.122925 0.148071
0.540527 0.119446 0.147339
0.580566 0.114380 0.146606
0.612305 0.107178 0.144409
0.639160 0.101074 0.142700
0.659668 0.096008 0.141846
0.677734 0.091675 0.140991
0.691406 0.085388 0.139526
0.000000 0.106628 0.136963
0.008781 0.117981 0.145264
0.053955 0.131348 0.151367
0.146729 0.148682 0.158203
0.235596 0.164795 0.161133
0.320312 0.176880 0.161621
0.394531 0.184082 0.161377
0.463623 0.190186 0.160400
0.523438 0.192139 0.159424
0.572754 0.191284 0.158325
0.614258 0.190063 0.157227
0.645996 0.188599 0.155273
0.673340 0.186523 0.153687
0.695312 0.182129 0.153076
0.713867 0.178223 0.152466
0.728027 0.175537 0.151001
0.000000 0.146851 0.148438
0.004108 0.163208 0.156128
0.025818 0.181152 0.162231
0.145996 0.202881 0.168823
0.246582 0.222534 0.171875
0.338135 0.238647 0.171631
0.416260 0.248047 0.170776
0.488525 0.256836 0.169434
0.550781 0.262451 0.167847
0.602051 0.264404 0.166260
0.645508 0.264648 0.164673
0.677734 0.264893 0.162720
0.705566 0.265137 0.161255
0.728516 0.261963 0.160278
0.748047 0.260010 0.159424
0.762695 0.258301 0.158325
0.000000 0.187622 0.157959
0.000000 0.210938 0.165405
0.000000 0.234375 0.172729
0.137085 0.260010 0.177734
0.254395 0.283936 0.180298
0.353516 0.302979 0.179810
0.438477 0.317627 0.179199
0.514160 0.327148 0.176025
0.576172 0.333252 0.172974
0.627441 0.338135 0.171021
0.671387 0.341797 0.169189
0.707031 0.341064 0.166138
0.736816 0.340820 0.163940
0.759277 0.341064 0.163696
0.778809 0.341553 0.163452
0.793945 0.339600 0.162109
0.000000 0.233765 0.171265
0.000000 0.261963 0.177612
0.000000 0.285400 0.182373
0.117310 0.314453 0.186523
0.251221 0.341797 0.187744
0.364502 0.364990 0.187256
0.454102 0.381104 0.184692
0.531738 0.393799 0.181885
0.597656 0.402100 0.177979
0.652344 0.407227 0.173828
0.698242 0.410645 0.170410
0.732422 0.413330 0.169067
0.762207 0.415039 0.167725
0.787598 0.414307 0.165894
0.809082 0.413574 0.164307
0.824707 0.413086 0.163208
0.000000 0.276855 0.180176
0.000000 0.309326 0.186279
0.000000 0.335449 0.190063
0.093750 0.367188 0.193237
0.254395 0.398193 0.193237
0.373291 0.424072 0.191162
0.468506 0.441406 0.188599
