looks/Rec709_Fuji.cube
TITLE "Generated by Foundry::LUT"
LUT_3D_SIZE 6
0.003088 0.002512 0.001685
0.048523 0.007549 0.002771
0.182617 0.011147 0.002701
0.305908 0.002880 0.001057
0.379883 0.000418 0.000287
0.421875 0.000000 0.000000
0.002111 0.066040 0.012329
0.093079 0.093201 0.013817
0.272705 0.118042 0.008911
0.422119 0.122681 0.000564
0.509277 0.115784 0.000018
0.558594 0.108765 0.000000
0.000000 0.175171 0.019241
0.082703 0.219849 0.014671
0.332520 0.266113 0.000000
0.505859 0.288818 0.000000
0.596191 0.288574 0.000000
0.648438 0.287109 0.000000
0.000000 0.269775 0.016098
0.069153 0.331543 0.003511
0.370605 0.392822 0.000000
0.565918 0.424072 0.000000
0.660645 0.421875 0.000000
0.713867 0.421143 0.000000
0.000000 0.331543 0.015144
0.052795 0.406006 0.000138
0.384033 0.475830 0.000000
0.590332 0.516602 0.000000
0.699707 0.524414 0.000000
0.756836 0.524414 0.000000
0.000000 0.360352 0.022064
0.043060 0.447998 0.002253
0.394775 0.522949 0.000000
0.604980 0.566406 0.000000
0.719727 0.580078 0.000000
0.782227 0.584473 0.000000
0.001592 0.009193 0.060547
0.066711 0.015656 0.078186
0.226685 0.012169 0.084167
0.364990 0.000513 0.081421
0.458252 0.000000 0.081421
0.505371 0.000000 0.084412
0.000000 0.107910 0.135742
0.103210 0.131958 0.151001
0.344971 0.150879 0.149292
0.507324 0.144775 0.137329
0.609375 0.130005 0.130981
0.664062 0.114868 0.129761
0.000000 0.243164 0.177124
0.065674 0.293213 0.188110
0.398682 0.333008 0.182251
0.588379 0.343506 0.166504
0.700684 0.344971 0.156250
0.759766 0.340576 0.152466
0.000000 0.358154 0.208740
0.004414 0.430908 0.218750
0.428711 0.491455 0.206909
0.643555 0.510254 0.184448
0.766602 0.518066 0.167603
0.829590 0.519531 0.162354
0.000000 0.430664 0.234619
0.000000 0.522949 0.246582
0.442139 0.597656 0.230225
0.675781 0.630371 0.201416
0.807129 0.642090 0.179932
0.872559 0.642578 0.172607
0.000000 0.461426 0.256592
0.000000 0.570801 0.272949
0.447754 0.655762 0.255859
0.690430 0.692383 0.224976
0.824219 0.707520 0.202637
0.894043 0.711914 0.191895
0.000000 0.014000 0.201904
0.048401 0.018463 0.230957
0.239380 0.010223 0.250000
0.380859 0.000000 0.255859
0.478271 0.000000 0.258789
0.526367 0.000000 0.260010
0.000000 0.139404 0.310791
0.031143 0.163696 0.350830
0.349365 0.177246 0.362793
0.523438 0.168091 0.357422
0.624512 0.151367 0.354980
0.681641 0.134033 0.354492
0.000000 0.296143 0.374756
0.000000 0.352539 0.416748
0.388428 0.393066 0.435791
0.595215 0.394775 0.426270
0.711426 0.392578 0.423828
0.773926 0.385742 0.423828
0.000000 0.419434 0.420410
0.000000 0.501465 0.463379
0.388428 0.562500 0.478027
0.636719 0.576660 0.473389
0.767090 0.580566 0.469971
0.834473 0.581055 0.469238
0.000000 0.492432 0.450684
0.000000 0.595703 0.501465
0.380859 0.671387 0.514648
0.659180 0.700684 0.509766
0.797852 0.708984 0.503906
0.869629 0.709961 0.502930
0.000000 0.523438 0.472656
0.000000 0.644043 0.530273
0.370850 0.730957 0.545410
0.666992 0.767090 0.539551
0.812012 0.780762 0.534180
0.888184 0.786621 0.532227
0.000000 0.013481 0.302246
0.020660 0.012802 0.340820
0.233521 0.002621 0.368652
0.377686 0.000000 0.380615
0.480469 0.000000 0.384033
0.528809 0.000000 0.384277
0.000000 0.158081 0.435303
0.001109 0.183716 0.490479
0.341553 0.193604 0.513672
0.524902 0.180542 0.515625
0.625977 0.162720 0.514160
0.682129 0.147339 0.515137
0.000000 0.329102 0.511719
0.000000 0.388184 0.570312
0.352295 0.426514 0.600098
0.586914 0.429199 0.604492
0.705078 0.423584 0.603027
0.768555 0.416504 0.602539
0.000000 0.459961 0.563477
0.000000 0.544434 0.624512
0.328125 0.606445 0.654785
0.617188 0.622559 0.662109
0.752930 0.621582 0.661621
0.821777 0.619629 0.660645
0.000000 0.533203 0.593750
0.000000 0.639648 0.662109
0.289062 0.716797 0.691895
0.626465 0.749512 0.699707
0.776855 0.757812 0.700195
0.851562 0.756348 0.698730
0.000000 0.562012 0.609375
0.000000 0.685059 0.684570
0.263428 0.773926 0.717285
0.628906 0.812988 0.725586
0.786621 0.826660 0.726562
0.866211 0.831055 0.726074
0.000000 0.011429 0.358398
0.002512 0.009102 0.401855
0.223022 0.000000 0.434082
0.369141 0.000000 0.450439
0.475586 0.000000 0.457031
0.527344 0.000000 0.458252
0.000000 0.165283 0.500977
0.000000 0.188965 0.563477
0.322754 0.197144 0.597168
0.515137 0.182983 0.604980
0.618652 0.163940 0.606445
0.676758 0.146851 0.608398
0.000000 0.340576 0.581055
0.000000 0.402100 0.652832
0.318359 0.441162 0.692871
0.571289 0.441650 0.702148
0.694336 0.435791 0.704102
0.760254 0.428711 0.705078
0.000000 0.472656 0.631836
0.000000 0.561523 0.708984
0.275635 0.625488 0.749023
0.596191 0.639648 0.762207
0.737793 0.638672 0.765625
0.810059 0.637695 0.766113
0.000000 0.547363 0.659180
0.000000 0.657227 0.742676
0.209595 0.735352 0.782227
0.602539 0.767578 0.796875
0.761230 0.777832 0.803711
0.838379 0.777344 0.804688
0.000000 0.577148 0.674316
0.000000 0.703125 0.763184
0.155029 0.792480 0.806152
0.603027 0.831055 0.819824
0.769043 0.846680 0.827148
0.852051 0.852051 0.828613
0.000000 0.010254 0.388916
0.000000 0.007107 0.436523
0.210205 0.000000 0.470947
0.360107 0.000000 0.489502
0.469727 0.000000 0.497314
0.523438 0.000000 0.500000
0.000000 0.170288 0.537598
0.000000 0.192993 0.604004
0.307861 0.199463 0.642578
0.507324 0.184570 0.654785
0.613281 0.164673 0.658691
0.672852 0.146118 0.660156
0.000000 0.348145 0.618652
0.000000 0.409912 0.696289
0.294189 0.447754 0.741211
0.560059 0.448242 0.754395
0.686035 0.442383 0.758789
0.753906 0.435547 0.760742
0.000000 0.480225 0.669434
0.000000 0.570312 0.752441
0.233887 0.635254 0.798828
0.582520 0.651367 0.816895
0.728516 0.649902 0.822266
0.802734 0.648438 0.824219
0.000000 0.555664 0.695801
0.000000 0.665527 0.784668
0.133911 0.744629 0.830566
0.587402 0.778809 0.850586
0.751465 0.790039 0.859863
0.830078 0.789062 0.861816
0.000000 0.584961 0.708984
0.000000 0.710449 0.802734
0.054993 0.800293 0.849609
0.586914 0.841309 0.870117
0.758301 0.857910 0.879395
0.842773 0.862793 0.882812
