looks/Rec709_Fuji.cube
TITLE "Generated by Foundry::LUT"
LUT_3D_SIZE 16
0.003088 0.002512 0.001685
0.004543 0.003716 0.002407
0.007896 0.004787 0.002411
0.048523 0.007549 0.002771
0.098328 0.007687 0.002893
0.134399 0.006638 0.002268
0.182617 0.011147 0.002701
0.231689 0.010338 0.002272
0.274902 0.005646 0.001206
0.305908 0.002880 0.001057
0.330811 0.001695 0.000907
0.354736 0.001079 0.000729
0.379883 0.000418 0.000287
0.399170 0.000000 0.000000
0.411133 0.000000 0.000000
0.421875 0.000000 0.000000
0.007973 0.008324 0.004868
0.012184 0.011940 0.006805
0.022278 0.015472 0.006832
0.072449 0.023514 0.007778
0.129272 0.025009 0.007732
0.168335 0.022385 0.006268
0.221680 0.034119 0.007320
0.276855 0.032288 0.006172
0.323975 0.020187 0.003216
0.358154 0.013206 0.002693
0.387451 0.010246 0.002321
0.413574 0.008286 0.001795
0.441406 0.005527 0.000695
0.463135 0.004009 0.000000
0.476318 0.003654 0.000000
0.488037 0.003536 0.000000
0.005283 0.021652 0.007710
0.012009 0.028259 0.009567
0.028793 0.036926 0.009407
0.082092 0.051514 0.010361
0.143311 0.060516 0.009933
0.189087 0.061798 0.007595
0.246826 0.070618 0.008255
0.305176 0.072510 0.006550
0.354736 0.064575 0.002789
0.390381 0.061890 0.001823
0.420654 0.059998 0.001101
0.447754 0.056061 0.000555
0.475586 0.044708 0.000214
0.497559 0.037659 0.000000
0.511230 0.036316 0.000000
0.523926 0.035278 0.000000
0.002111 0.066040 0.012329
0.005524 0.072693 0.013779
0.033875 0.080627 0.013550
0.093079 0.093201 0.013817
0.157349 0.103455 0.012634
0.210693 0.108154 0.009674
0.272705 0.118042 0.008911
0.332764 0.124512 0.006199
0.384521 0.123596 0.002094
0.422119 0.122681 0.000564
0.453857 0.122559 0.000142
0.481445 0.121033 0.000050
0.509277 0.115784 0.000018
0.530762 0.111877 0.000000
0.545898 0.110107 0.000000
0.558594 0.108765 0.000000
0.000053 0.110596 0.015564
0.000141 0.115601 0.017059
0.034302 0.124390 0.016296
0.097656 0.137329 0.015762
0.168701 0.149048 0.013512
0.228882 0.157837 0.009102
0.295166 0.169678 0.007236
0.359375 0.178345 0.003805
0.414062 0.182129 0.000078
0.453125 0.183960 0.000019
0.485352 0.184082 0.000000
0.513184 0.182983 0.000000
0.540527 0.180542 0.000000
0.562500 0.178711 0.000000
0.577637 0.177979 0.000000
0.591309 0.177490 0.000000
0.000000 0.139160 0.014877
0.000000 0.145386 0.016479
0.016907 0.156616 0.014893
0.086487 0.174561 0.013947
0.173950 0.188843 0.010345
0.239014 0.197510 0.003941
0.312012 0.214111 0.002050
0.383545 0.225952 0.000000
0.444336 0.229614 0.000000
0.483154 0.232422 0.000000
0.514648 0.234619 0.000000
0.542480 0.234375 0.000000
0.572266 0.229858 0.000000
0.595215 0.227783 0.000000
0.609863 0.228882 0.000000
0.622070 0.229980 0.000000
0.000000 0.175171 0.019241
0.000000 0.185303 0.019897
0.008102 0.199951 0.017532
0.082703 0.219849 0.014671
0.182861 0.237793 0.009338
0.256836 0.250244 0.002375
0.332520 0.266113 0.000000
0.403809 0.278809 0.000000
0.464355 0.285889 0.000000
0.505859 0.288818 0.000000
0.539062 0.290039 0.000000
0.567871 0.290283 0.000000
0.596191 0.288574 0.000000
0.619141 0.287598 0.000000
0.634766 0.287109 0.000000
0.648438 0.287109 0.000000
0.000000 0.212402 0.019104
0.000000 0.224731 0.019409
0.000000 0.242188 0.015808
0.076843 0.263428 0.011574
0.188599 0.284180 0.005375
0.270508 0.301758 0.000304
0.349854 0.315674 0.000000
0.424316 0.328857 0.000000
0.487793 0.338867 0.000000
0.529785 0.341797 0.000000
0.562988 0.341553 0.000000
0.591797 0.340576 0.000000
0.621094 0.339844 0.000000
0.644043 0.338867 0.000000
0.659668 0.338623 0.000000
0.673340 0.337646 0.000000
0.000000 0.244141 0.016006
0.000000 0.258057 0.016251
0.000000 0.277100 0.011223
0.072998 0.300781 0.006157
0.189453 0.323730 0.001253
0.277100 0.343506 0.000000
0.361572 0.357910 0.000000
0.441650 0.372070 0.000000
0.510742 0.384033 0.000000
0.552246 0.386963 0.000000
0.584473 0.385986 0.000000
0.612793 0.384277 0.000000
0.644531 0.382568 0.000000
0.668457 0.381348 0.000000
0.683105 0.381348 0.000000
0.696289 0.381348 0.000000
0.000000 0.269775 0.016098
0.000000 0.286133 0.015869
0.000000 0.306641 0.009972
0.069153 0.331543 0.003511
0.189209 0.356201 0.000374
0.282715 0.377197 0.000000
0.370605 0.392822 0.000000
0.452393 0.408203 0.000000
0.522461 0.420410 0.000000
0.565918 0.424072 0.000000
0.599121 0.423828 0.000000
0.628418 0.422852 0.000000
0.660645 0.421875 0.000000
0.685059 0.421143 0.000000
0.700684 0.421387 0.000000
0.713867 0.421143 0.000000
0.000000 0.290771 0.018982
0.000000 0.310547 0.018280
0.000000 0.332031 0.011795
0.065430 0.358398 0.003416
0.188110 0.383789 0.000075
0.287598 0.405029 0.000000
0.377197 0.422852 0.000000
0.457764 0.438477 0.000000
0.525391 0.450684 0.000000
0.571289 0.455566 0.000000
0.608398 0.457275 0.000000
0.640137 0.458008 0.000000
0.671387 0.458496 0.000000
0.696777 0.458740 0.000000
0.713379 0.458740 0.000000
0.728027 0.458984 0.000000
0.000000 0.312012 0.017593
0.000000 0.333740 0.016495
0.000000 0.356689 0.008987
0.059296 0.383545 0.001896
0.183350 0.410156 0.000000
0.287354 0.433594 0.000000
0.381104 0.450684 0.000000
0.464355 0.467773 0.000000
0.533691 0.482422 0.000000
0.580566 0.487305 0.000000
0.618652 0.488770 0.000000
0.651855 0.490479 0.000000
0.685547 0.493164 0.000000
0.711914 0.494873 0.000000
0.728516 0.494385 0.000000
0.743164 0.493652 0.000000
0.000000 0.331543 0.015144
0.000000 0.354736 0.013695
0.000000 0.378906 0.005123
0.052795 0.406006 0.000138
0.177979 0.434082 0.000000
0.285645 0.459961 0.000000
0.384033 0.475830 0.000000
0.470703 0.494141 0.000000
0.543457 0.512207 0.000000
0.590332 0.516602 0.000000
0.628906 0.517578 0.000000
0.663086 0.519043 0.000000
0.699707 0.524414 0.000000
0.727539 0.527344 0.000000
0.743164 0.525391 0.000000
0.756836 0.524414 0.000000
0.000000 0.343506 0.017639
0.000000 0.369385 0.015976
0.000000 0.394043 0.006947
0.048828 0.422363 0.000778
0.176880 0.450928 0.000000
0.288330 0.477295 0.000000
0.387939 0.494141 0.000000
0.475342 0.512695 0.000000
0.547852 0.530762 0.000000
0.596191 0.536133 0.000000
0.635742 0.538086 0.000000
0.670410 0.540527 0.000000
0.707031 0.545410 0.000000
0.735352 0.548828 0.000000
0.751953 0.548340 0.000000
0.766602 0.547363 0.000000
0.000000 0.353760 0.019806
0.000000 0.381592 0.017929
0.000000 0.407227 0.008507
0.045502 0.436279 0.001290
0.175903 0.464844 0.000000
0.290771 0.491699 0.000000
0.391357 0.509766 0.000000
0.479004 0.527832 0.000000
0.551758 0.546387 0.000000
0.601074 0.552734 0.000000
0.641602 0.555664 0.000000
0.676758 0.558594 0.000000
0.713379 0.563477 0.000000
0.741699 0.567383 0.000000
0.759277 0.566895 0.000000
0.774414 0.566895 0.000000
0.000000 0.360352 0.022064
0.000000 0.391602 0.020218
0.000000 0.417725 0.010643
0.043060 0.447998 0.002253
0.175415 0.477295 0.000048
0.292969 0.503906 0.000000
0.394775 0.522949 0.000000
0.482422 0.541504 0.000000
0.554688 0.559570 0.000000
0.604980 0.566406 0.000000
0.646484 0.570801 0.000000
0.683105 0.574219 0.000000
0.719727 0.580078 0.000000
0.748535 0.583496 0.000000
0.766602 0.584473 0.000000
0.782227 0.584473 0.000000
0.003941 0.005802 0.006996
0.007187 0.007339 0.008812
0.016342 0.008369 0.009056
0.062988 0.011719 0.010422
0.117798 0.014099 0.010941
0.157349 0.011993 0.008537
0.208618 0.012314 0.010796
0.262207 0.009964 0.009605
0.311035 0.004196 0.006451
0.344971 0.000759 0.006519
0.374512 0.000000 0.006794
0.400391 0.000000 0.006363
0.428223 0.000000 0.004555
0.450195 0.000000 0.003674
0.462646 0.000000 0.003956
0.473389 0.000000 0.004299
0.010056 0.018539 0.019547
0.018677 0.023026 0.024414
0.044495 0.026169 0.024902
0.096191 0.035217 0.027298
0.153809 0.041931 0.027267
0.204956 0.037292 0.023697
0.265381 0.037872 0.026123
0.322754 0.032440 0.023193
0.373047 0.017395 0.015991
0.411133 0.008568 0.014717
0.444092 0.006561 0.013802
0.472656 0.005730 0.012405
0.500488 0.003979 0.009201
0.522461 0.003061 0.007217
0.537109 0.002781 0.007225
0.549805 0.002548 0.007229
0.005112 0.044769 0.027985
0.012375 0.052521 0.032379
0.047607 0.058563 0.032318
0.104431 0.069275 0.034424
0.169434 0.077148 0.033600
0.229370 0.077637 0.028397
0.292725 0.082458 0.029343
0.351562 0.080200 0.025055
0.403564 0.071777 0.016541
0.443604 0.066650 0.013954
0.478760 0.061462 0.011871
0.509277 0.054749 0.010223
0.538086 0.041107 0.008873
0.560547 0.031342 0.007896
0.575195 0.027191 0.007549
0.588379 0.023590 0.007252
0.001746 0.088562 0.039703
0.004734 0.094177 0.042816
0.048920 0.100281 0.042603
0.113281 0.111084 0.042999
0.184326 0.122131 0.040283
0.252686 0.127808 0.033905
0.320312 0.133911 0.031204
0.380371 0.136597 0.024689
0.433105 0.134644 0.015701
0.476074 0.131104 0.011597
0.513184 0.127441 0.009750
0.544434 0.123108 0.008797
0.572754 0.116760 0.008270
0.594727 0.110840 0.007748
0.610352 0.105835 0.007042
0.624512 0.102173 0.006451
0.000051 0.130371 0.048157
0.000120 0.135010 0.051300
0.044373 0.144531 0.049805
0.114868 0.158081 0.048370
0.196045 0.171387 0.043365
0.270996 0.181641 0.033813
0.343262 0.189453 0.028427
0.407227 0.192993 0.020355
0.462402 0.195190 0.012207
0.506348 0.194824 0.010803
0.544434 0.191650 0.009453
0.576172 0.188477 0.008484
0.603027 0.184814 0.008163
0.625488 0.181396 0.007656
0.642090 0.178589 0.006596
0.656738 0.176758 0.005711
0.000000 0.163574 0.047760
0.000000 0.172485 0.051422
0.022537 0.184692 0.048096
0.102539 0.203247 0.045929
0.204102 0.219116 0.037994
0.282715 0.228271 0.023682
0.360596 0.241577 0.018692
0.431152 0.248047 0.013130
0.492188 0.247681 0.011742
0.535645 0.248779 0.010551
0.571777 0.249146 0.009331
0.603027 0.247437 0.008232
0.634277 0.240601 0.007034
0.658203 0.236816 0.006084
0.673828 0.237183 0.005440
0.687012 0.237549 0.004936
0.000000 0.205078 0.058624
0.000000 0.217041 0.059692
0.008774 0.232544 0.054749
0.092468 0.252197 0.048157
0.208984 0.270996 0.036346
0.299072 0.283936 0.021011
0.380127 0.295898 0.014076
0.450684 0.303955 0.012505
0.510742 0.307617 0.011566
0.557617 0.308350 0.009392
0.596680 0.308105 0.006992
0.629395 0.306885 0.005272
0.658203 0.304199 0.004723
0.681152 0.302246 0.003990
0.698730 0.300537 0.002720
0.713379 0.299316 0.001678
0.000000 0.244995 0.059784
0.000000 0.258545 0.060059
0.000000 0.276367 0.052399
0.084412 0.298340 0.042786
0.212646 0.319336 0.028870
0.310791 0.336670 0.017303
0.395752 0.348145 0.014282
0.468994 0.356201 0.012413
0.531738 0.362549 0.011154
0.579102 0.364014 0.008453
0.619141 0.363525 0.005482
0.652344 0.361816 0.003275
0.680664 0.359863 0.002558
0.704590 0.358154 0.001809
0.722168 0.356934 0.000974
0.737793 0.356201 0.000278
0.000000 0.279541 0.054291
0.000000 0.294189 0.054688
0.000000 0.314453 0.043945
0.081360 0.339111 0.032776
0.214722 0.362793 0.021210
0.317383 0.382080 0.016922
0.406982 0.394287 0.014771
0.485352 0.403809 0.012451
0.553711 0.410889 0.010033
0.600586 0.413574 0.007175
0.638672 0.413086 0.004436
0.671387 0.411377 0.002213
0.703125 0.408203 0.000869
0.728516 0.406250 0.000000
0.745605 0.406982 0.000000
0.760254 0.407227 0.000000
0.000000 0.307373 0.055481
0.000000 0.326416 0.054993
0.000000 0.348145 0.042206
0.075195 0.375244 0.027802
0.213379 0.400635 0.019699
0.323975 0.420898 0.017136
0.417236 0.436035 0.014229
0.497559 0.446533 0.011467
0.566895 0.453613 0.009018
0.615723 0.457275 0.005161
0.655762 0.458496 0.001989
0.689941 0.458008 0.000000
0.721680 0.455078 0.000000
0.747559 0.453613 0.000000
0.765625 0.454590 0.000000
0.781250 0.455566 0.000000
0.000000 0.330811 0.062927
0.000000 0.355469 0.061188
0.000000 0.379150 0.047180
0.065552 0.408447 0.028229
0.208374 0.435303 0.019348
0.329834 0.455811 0.017685
0.426514 0.474121 0.013290
0.506348 0.485352 0.010094
0.573730 0.492188 0.008698
0.626465 0.497803 0.003090
0.670898 0.500977 0.000874
0.707031 0.501953 0.000000
0.737793 0.501465 0.000000
0.763184 0.500977 0.000000
0.783203 0.501465 0.000000
0.800293 0.501953 0.000000
0.000000 0.354004 0.061127
0.000000 0.380859 0.058746
0.000000 0.406982 0.042572
0.058472 0.437012 0.026352
0.204712 0.465332 0.020340
0.332031 0.489014 0.018524
0.432373 0.505371 0.014290
0.515137 0.519043 0.010674
0.585449 0.529785 0.008194
0.638672 0.534668 0.002537
0.683594 0.537598 0.000633
0.721191 0.540039 0.000000
0.755371 0.542480 0.000000
0.782715 0.543457 0.000000
0.801270 0.542969 0.000000
0.817383 0.542480 0.000000
0.000000 0.375244 0.056824
0.000000 0.403564 0.054108
0.000000 0.431641 0.035675
0.052673 0.461670 0.023987
0.201904 0.491455 0.021637
0.333008 0.519043 0.019363
0.436523 0.533203 0.015732
0.523438 0.547852 0.011826
0.597656 0.563477 0.007683
0.650391 0.567871 0.002411
0.694824 0.569824 0.000614
0.733398 0.572266 0.000000
0.772461 0.578613 0.000000
0.801758 0.581055 0.000000
0.818359 0.579590 0.000000
0.833008 0.577148 0.000000
0.000000 0.387939 0.063171
0.000000 0.419678 0.059998
0.000000 0.448486 0.040649
0.048065 0.479980 0.026520
0.200073 0.510742 0.022827
0.335938 0.538574 0.020462
0.441406 0.554688 0.016617
0.528809 0.569824 0.012733
0.603516 0.585449 0.008865
0.657227 0.590820 0.003193
0.702637 0.594238 0.000933
0.742188 0.597656 0.000000
0.780762 0.603516 0.000000
0.810059 0.606445 0.000000
0.828125 0.605469 0.000000
0.843262 0.604492 0.000000
0.000000 0.398682 0.068420
0.000000 0.433350 0.065063
0.000000 0.462891 0.044830
0.044128 0.495605 0.028641
0.198486 0.526855 0.023849
0.338623 0.555664 0.021469
0.445557 0.573242 0.017365
0.533691 0.588867 0.013550
0.607910 0.604004 0.009880
0.663086 0.610840 0.003866
0.709473 0.614746 0.001216
0.749512 0.618164 0.000000
0.787598 0.624023 0.000000
0.817383 0.627441 0.000000
0.835938 0.627441 0.000000
0.852051 0.626465 0.000000
0.000000 0.406006 0.074280
0.000000 0.444092 0.071045
0.000000 0.474609 0.050659
0.040985 0.508301 0.031952
0.197510 0.540527 0.025330
0.341064 0.568848 0.022842
0.449463 0.588379 0.018738
0.538086 0.604492 0.014954
0.612305 0.619141 0.011635
0.668457 0.626953 0.005871
0.715820 0.631836 0.002401
0.755859 0.636230 0.000307
0.793945 0.641602 0.000102
0.823242 0.645020 0.000000
0.842773 0.645508 0.000000
0.859375 0.645996 0.000000
0.001913 0.007637 0.021118
0.005211 0.008957 0.023209
0.017380 0.010246 0.024460
0.066040 0.013680 0.029572
0.125488 0.016205 0.030121
0.169678 0.013550 0.024765
0.218750 0.012276 0.031174
0.270752 0.009529 0.031403
0.316650 0.004211 0.024139
0.353271 0.000727 0.026733
0.386719 0.000000 0.030136
0.415527 0.000000 0.030746
0.444092 0.000000 0.025482
0.466064 0.000000 0.022919
0.479736 0.000000 0.025314
0.491211 0.000000 0.027267
0.004807 0.024506 0.058533
0.012962 0.028290 0.063660
0.046997 0.032013 0.066101
0.100281 0.040863 0.068970
0.160278 0.047729 0.068909
0.219604 0.041504 0.065918
0.281982 0.038849 0.067261
0.337402 0.031586 0.064148
0.385498 0.017700 0.057373
0.427734 0.009003 0.056213
0.465088 0.006527 0.055450
0.496582 0.005795 0.053528
0.522949 0.004642 0.048157
0.544922 0.003723 0.044830
0.560547 0.002880 0.044830
0.574707 0.002398 0.044861
0.000812 0.056976 0.073547
0.002197 0.062469 0.076355
0.046265 0.068665 0.078430
0.107056 0.076782 0.079895
0.175903 0.083862 0.079956
0.243530 0.085999 0.078003
0.309326 0.086975 0.074951
0.367676 0.083069 0.070862
0.418213 0.076416 0.066284
0.462402 0.070923 0.062744
0.501465 0.064514 0.059387
0.534180 0.057220 0.056122
0.560547 0.045959 0.052216
0.582520 0.036835 0.049133
0.599121 0.029922 0.047089
0.614258 0.023987 0.045319
0.000000 0.099243 0.086182
0.000000 0.102417 0.086731
0.045898 0.109802 0.088440
0.113831 0.119202 0.087830
0.190796 0.129639 0.086548
0.266602 0.137329 0.085083
0.337158 0.138916 0.078247
0.397217 0.140015 0.073059
0.449463 0.140747 0.070129
0.497559 0.136963 0.064697
0.539062 0.131714 0.058899
0.572754 0.127075 0.054199
0.597656 0.122864 0.051361
0.618652 0.117798 0.048309
0.636719 0.110596 0.044220
0.652344 0.104553 0.040619
0.000000 0.142334 0.097778
0.000000 0.145508 0.097717
0.037872 0.156250 0.098572
0.111084 0.168457 0.096313
0.201050 0.181030 0.093994
0.283447 0.193115 0.091797
0.359375 0.197144 0.082642
0.423828 0.199219 0.076904
0.477783 0.203369 0.074524
0.527832 0.203247 0.066956
0.571777 0.200439 0.058990
0.606445 0.197632 0.053040
0.630859 0.196045 0.051117
0.651855 0.193726 0.047882
0.670898 0.189575 0.041748
0.687012 0.185913 0.036346
0.000000 0.180420 0.103455
0.000000 0.189941 0.105347
0.007538 0.202637 0.105530
0.092346 0.219849 0.104492
0.207886 0.234985 0.101318
0.293457 0.244873 0.095459
0.375244 0.255859 0.089111
0.445068 0.260742 0.081299
0.503418 0.259766 0.072632
0.552734 0.262695 0.065613
0.595215 0.264893 0.058411
0.630859 0.264893 0.051575
0.660645 0.260010 0.044312
0.684570 0.257080 0.038574
0.701172 0.256836 0.034851
0.716309 0.256348 0.031647
0.000000 0.223999 0.114197
0.000000 0.236206 0.112976
0.000000 0.251465 0.112732
0.082031 0.269775 0.108887
0.208374 0.287354 0.104065
0.308594 0.301514 0.099365
0.394531 0.310791 0.087158
0.465820 0.317627 0.077698
0.525391 0.322754 0.071716
0.579590 0.325439 0.059021
0.625977 0.327148 0.044708
0.663086 0.327881 0.033905
0.688477 0.326416 0.030487
0.710938 0.324707 0.025970
0.729980 0.322021 0.018616
0.746582 0.319824 0.012222
0.000000 0.266846 0.123474
0.000000 0.280029 0.121399
0.000000 0.297852 0.120483
0.075562 0.318604 0.115540
0.207886 0.338623 0.109192
0.317871 0.355957 0.102783
0.408691 0.365479 0.088501
0.483643 0.373291 0.077271
0.545898 0.380859 0.069275
0.601562 0.385010 0.053406
0.649414 0.387207 0.035675
0.687012 0.387695 0.022171
0.713379 0.387695 0.017548
0.736328 0.386719 0.013161
0.755859 0.385010 0.008286
0.772949 0.382812 0.004047
0.000000 0.303955 0.129028
0.000000 0.319336 0.128784
0.000000 0.339600 0.127197
0.069092 0.363037 0.122375
0.206909 0.385498 0.114563
0.322266 0.404297 0.104431
0.418701 0.416748 0.091492
0.498535 0.425293 0.077698
0.564941 0.431885 0.062622
0.619141 0.437012 0.045837
0.665527 0.440186 0.029022
0.703613 0.442383 0.015526
0.735352 0.442139 0.007408
0.760742 0.442139 0.002295
0.778809 0.440918 0.002287
0.794922 0.440674 0.002312
0.000000 0.333496 0.135376
0.000000 0.354004 0.135010
0.000000 0.375488 0.132935
0.056396 0.402588 0.126099
0.200928 0.427002 0.116760
0.327637 0.446533 0.105896
0.428955 0.462402 0.088440
0.511230 0.472168 0.071960
0.579102 0.478027 0.056580
0.635254 0.484375 0.033630
0.683594 0.489502 0.014656
0.723145 0.492432 0.002544
0.753906 0.491699 0.002409
0.779785 0.491211 0.002346
0.799316 0.491699 0.002352
0.816406 0.491943 0.002356
0.000000 0.358154 0.144043
0.000000 0.384766 0.142456
0.000000 0.408447 0.139893
0.034424 0.438477 0.129761
0.188110 0.465088 0.118652
0.333740 0.485107 0.109436
0.439453 0.504395 0.083130
0.522461 0.515625 0.063660
0.589355 0.520996 0.054688
0.649902 0.529297 0.021912
0.702148 0.536133 0.008331
0.743164 0.539551 0.002653
0.770508 0.538086 0.002541
0.794922 0.537598 0.002470
0.817383 0.539062 0.002493
0.836914 0.539062 0.002447
0.000000 0.382080 0.150391
0.000000 0.411133 0.150269
0.000000 0.437012 0.147339
0.016708 0.467529 0.137451
0.178345 0.496094 0.125488
0.334717 0.519531 0.114563
0.444336 0.537598 0.089111
0.530273 0.550293 0.067444
0.600098 0.560059 0.051697
0.660645 0.567383 0.018448
0.712891 0.573242 0.006714
0.753906 0.576172 0.002708
0.784180 0.577637 0.002581
0.810059 0.578613 0.002510
0.831543 0.578613 0.002497
0.850586 0.578125 0.002481
0.000000 0.403809 0.155762
0.000000 0.434082 0.157715
0.000000 0.461914 0.154541
0.001773 0.492432 0.145752
0.170044 0.522949 0.133545
0.333984 0.550293 0.119751
0.447266 0.565430 0.097961
0.536621 0.579590 0.074463
0.609863 0.594238 0.048828
0.669434 0.600098 0.017822
0.719727 0.604004 0.006680
0.761230 0.606934 0.002754
0.796387 0.611816 0.002584
0.824707 0.614258 0.002501
0.844238 0.613281 0.002501
0.861328 0.611816 0.002501
0.000000 0.416748 0.162476
0.000000 0.450928 0.165039
0.000000 0.479736 0.161987
0.000922 0.512207 0.153198
0.168579 0.543457 0.140869
0.336426 0.571777 0.126465
0.452393 0.588867 0.103394
0.542969 0.603516 0.080017
0.616211 0.617188 0.056061
0.676270 0.624023 0.022629
0.727539 0.628906 0.008743
0.769531 0.632324 0.002808
0.804199 0.636719 0.002653
0.832520 0.639648 0.002569
0.853516 0.639160 0.002617
0.871582 0.638672 0.002548
0.000000 0.427979 0.168213
0.000000 0.465332 0.171265
0.000000 0.495117 0.168457
0.000201 0.528809 0.159546
0.167358 0.561035 0.147095
0.338379 0.589355 0.132324
0.456787 0.608887 0.108032
0.547852 0.623535 0.084717
0.621094 0.636719 0.062225
0.682129 0.644531 0.026855
0.734375 0.650391 0.010529
0.776855 0.654297 0.002985
0.811035 0.658691 0.002846
0.839355 0.661133 0.002754
0.860840 0.661621 0.002733
0.879883 0.662109 0.002712
0.000000 0.435059 0.174561
0.000000 0.476318 0.178711
0.000000 0.507324 0.176514
0.000000 0.542480 0.167725
0.166138 0.575684 0.155396
0.340088 0.604004 0.140869
0.460205 0.625000 0.116333
0.552246 0.640625 0.093445
0.625488 0.652832 0.072815
0.687500 0.661621 0.039001
0.739746 0.667480 0.017365
0.782715 0.672363 0.004826
0.816406 0.676270 0.003641
0.845215 0.679199 0.002869
0.867188 0.680176 0.002733
0.886719 0.681152 0.002819
0.001592 0.009193 0.060547
0.004292 0.010597 0.066956
0.016861 0.012146 0.071045
0.066711 0.015656 0.078186
0.129883 0.017105 0.080872
0.175171 0.012894 0.075928
0.226685 0.012169 0.084167
0.280273 0.008835 0.084717
0.327148 0.002800 0.078125
0.364990 0.000513 0.081421
0.398926 0.000000 0.084961
0.427979 0.000000 0.085938
0.458252 0.000000 0.081421
0.480957 0.000000 0.079346
0.494385 0.000000 0.082153
0.505371 0.000000 0.084412
0.003922 0.028625 0.103149
0.010544 0.032715 0.110474
0.044556 0.036926 0.113586
0.100891 0.046875 0.119080
0.167236 0.050110 0.120605
0.229492 0.040802 0.116760
0.293457 0.038849 0.120667
0.350830 0.030502 0.118530
0.399414 0.014488 0.110657
0.440674 0.008324 0.110840
0.477783 0.006828 0.112244
0.509277 0.006073 0.111938
0.537598 0.004780 0.106812
0.560547 0.003651 0.104248
0.575195 0.003048 0.106201
0.588867 0.002682 0.107971
0.000639 0.063293 0.118530
0.001748 0.069458 0.125854
0.041229 0.075378 0.128906
0.105957 0.083862 0.134399
0.183105 0.090210 0.136719
0.253174 0.090759 0.133301
0.320312 0.093018 0.135132
0.380371 0.088379 0.132202
0.431885 0.078979 0.125122
0.474365 0.073059 0.123535
0.512695 0.067505 0.123413
0.545410 0.059631 0.122314
0.574219 0.047424 0.118286
0.597168 0.037292 0.115967
0.612793 0.031738 0.117188
0.626465 0.026611 0.118164
0.000000 0.107910 0.135742
0.000000 0.113647 0.142822
0.032501 0.121216 0.145874
0.103210 0.131958 0.151001
0.192871 0.142578 0.152832
0.273438 0.148682 0.149780
0.344971 0.150879 0.149292
0.407227 0.152100 0.145996
0.461426 0.150024 0.139893
0.507324 0.144775 0.137329
0.547852 0.139893 0.135986
0.581543 0.135254 0.134277
0.609375 0.130005 0.130981
0.631836 0.124695 0.128906
0.649414 0.119629 0.129395
0.664062 0.114868 0.129761
0.000000 0.154907 0.151611
0.000000 0.160889 0.158203
0.014755 0.171753 0.161255
0.091125 0.184692 0.165405
0.199463 0.197144 0.166626
0.288086 0.206909 0.163330
0.365479 0.211304 0.161377
0.432373 0.213135 0.157959
0.488770 0.214844 0.152588
0.537109 0.213379 0.149048
0.579102 0.210449 0.146606
0.614258 0.207642 0.144409
0.641602 0.206055 0.141724
0.665039 0.203857 0.140015
0.683105 0.200928 0.139526
0.698730 0.197754 0.139038
0.000000 0.196045 0.160400
0.000000 0.207520 0.167480
0.000000 0.220093 0.170044
0.079346 0.238159 0.174805
0.203247 0.253418 0.175659
0.296631 0.261230 0.171021
0.381592 0.272705 0.171387
0.454346 0.276855 0.166748
0.514648 0.273926 0.157837
0.563965 0.276367 0.155518
0.606445 0.278809 0.154297
0.642578 0.278809 0.152100
0.674316 0.273926 0.146606
0.700195 0.270996 0.143433
0.716309 0.271484 0.144531
0.730469 0.271729 0.145386
0.000000 0.243164 0.177124
0.000000 0.257568 0.182617
0.000000 0.272949 0.185059
0.065674 0.293213 0.188110
0.196777 0.311035 0.187988
0.308838 0.322998 0.184814
0.398682 0.333008 0.182251
0.473389 0.339600 0.177246
0.535645 0.341797 0.170776
0.588379 0.343506 0.166504
0.634277 0.345215 0.163208
0.671387 0.345947 0.160034
0.700684 0.344971 0.156250
0.725098 0.343750 0.153687
0.743164 0.341797 0.153076
0.759766 0.340576 0.152466
0.000000 0.288330 0.190186
0.000000 0.303223 0.194824
0.000000 0.321533 0.197021
0.050354 0.343506 0.199219
0.189697 0.364014 0.198364
0.315430 0.379150 0.194458
0.411377 0.389648 0.191040
