luts/BT.1886_to_Linear.spi1d
Version 1
From 0.000000 1.000000
Length 4096
Components 1
{
        0.0000000000000E+0
        2.1408716214596E-9
        1.1299588161861E-8
        2.9900719350748E-8
        5.9639583872203E-8
        1.0188696736192E-7
        1.5781694288445E-7
        2.2846828486012E-7
        3.1477961085830E-7
        4.1761169083209E-7
        5.3776263775483E-7
        6.7597879051523E-7
        8.3296281836008E-7
        1.0093799432787E-6
        1.2058628369346E-6
        1.4230155540622E-6
        1.6614167467102E-6
        1.9216223296337E-6
        2.2041677187367E-6
        2.5095697318472E-6
        2.8383282185424E-6
        3.1909274697618E-6
        3.5678374463982E-6
        3.9695148575567E-6
        4.3964041128233E-6
        4.8489381680581E-6
        5.3275392805268E-6
        5.8326196862977E-6
        6.3645822105687E-6
        6.9238208197828E-6
        7.5107211229519E-6
        8.1256608284389E-6
        8.7690101614985E-6
        9.4411322470955E-6
        1.0142383461878E-5
        1.0873113758641E-5
        1.1633666966173E-5
        1.2424381067005E-5
        1.3245588455235E-5
        1.4097616176383E-5
        1.4980786150946E-5
        1.5895415383147E-5
        1.6841816156213E-5
        1.7820296215358E-5
        1.8831158939497E-5
        1.9874703502658E-5
        2.0951225025906E-5
        2.2061014720551E-5
        2.3204360023299E-5
        2.4381544723983E-5
        2.5592849086405E-5
        2.6838549962810E-5
        2.8118920902434E-5
        2.9434232254551E-5
        3.0784751266398E-5
        3.2170742176318E-5
        3.3592466302440E-5
        3.5050182127192E-5
        3.6544145377910E-5
        3.8074609103784E-5
        3.9641823749376E-5
        4.1246037224910E-5
        4.2887494973530E-5
        4.4566440035714E-5
        4.6283113110981E-5
        4.8037752617081E-5
        4.9830594746782E-5
        5.1661873522395E-5
        5.3531820848160E-5
        5.5440666560615E-5
        5.7388638477039E-5
        5.9375962442078E-5
        6.1402862372653E-5
        6.3469560301218E-5
        6.5576276417479E-5
        6.7723229108612E-5
        6.9910634998096E-5
        7.2138708983184E-5
        7.4407664271112E-5
        7.6717712414080E-5
        7.9069063343083E-5
        8.1461925400615E-5
        8.3896505372332E-5
        8.6373008517690E-5
        8.8891638599624E-5
        9.1452597913287E-5
        9.4056087313923E-5
        9.6702306243866E-5
        9.9391452758750E-5
        1.0212372355292E-4
        1.0489931398409E-4
        1.0771841809732E-4
        1.1058122864827E-4
        1.1348793712575E-4
        1.1643873377378E-4
        1.1943380761283E-4
        1.2247334646066E-4
        1.2555753695249E-4
        1.2868656456063E-4
        1.3186061361364E-4
        1.3507986731492E-4
        1.3834450776083E-4
        1.4165471595841E-4
        1.4501067184251E-4
        1.4841255429263E-4
        1.5186054114922E-4
        1.5535480922963E-4
        1.5889553434366E-4
        1.6248289130875E-4
        1.6611705396475E-4
        1.6979819518835E-4
        1.7352648690722E-4
        1.7730210011376E-4
        1.8112520487854E-4
        1.8499597036344E-4
        1.8891456483447E-4
        1.9288115567435E-4
        1.9689590939470E-4
        2.0095899164812E-4
        2.0507056723980E-4
        2.0923080013907E-4
        2.1343985349056E-4
        2.1769788962521E-4
        2.2200507007094E-4
        2.2636155556322E-4
        2.3076750605534E-4
        2.3522308072844E-4
        2.3972843800141E-4
        2.4428373554054E-4
        2.4888913026897E-4
        2.5354477837596E-4
        2.5825083532598E-4
        2.6300745586759E-4
        2.6781479404220E-4
        2.7267300319259E-4
        2.7758223597131E-4
        2.8254264434890E-4
        2.8755437962194E-4
        2.9261759242102E-4
        2.9773243271841E-4
        3.0289904983575E-4
        3.0811759245152E-4
        3.1338820860831E-4
        3.1871104572009E-4
        3.2408625057926E-4
        3.2951396936356E-4
        3.3499434764294E-4
        3.4052753038619E-4
        3.4611366196757E-4
        3.5175288617324E-4
        3.5744534620760E-4
        3.6319118469954E-4
        3.6899054370858E-4
        3.7484356473084E-4
        3.8075038870502E-4
        3.8671115601818E-4
        3.9272600651146E-4
        3.9879507948574E-4
        4.0491851370712E-4
        4.1109644741239E-4
        4.1732901831440E-4
        4.2361636360727E-4
        4.2995861997161E-4
        4.3635592357959E-4
        4.4280841009997E-4
        4.4931621470302E-4
        4.5587947206539E-4
        4.6249831637486E-4
        4.6917288133507E-4
        4.7590330017015E-4
        4.8268970562926E-4
        4.8953222999109E-4
        4.9643100506827E-4
        5.0338616221175E-4
        5.1039783231506E-4
        5.1746614581855E-4
        5.2459123271352E-4
        5.3177322254639E-4
        5.3901224442263E-4
        5.4630842701084E-4
        5.5366189854662E-4
        5.6107278683644E-4
        5.6854121926144E-4
        5.7606732278122E-4
        5.8365122393749E-4
        5.9129304885776E-4
        5.9899292325891E-4
        6.0675097245075E-4
        6.1456732133951E-4
        6.2244209443128E-4
        6.3037541583542E-4
        6.3836740926792E-4
        6.4641819805469E-4
        6.5452790513484E-4
        6.6269665306389E-4
        6.7092456401693E-4
        6.7921175979178E-4
        6.8755836181207E-4
        6.9596449113028E-4
        7.0443026843077E-4
        7.1295581403273E-4
        7.2154124789313E-4
        7.3018668960959E-4
        7.3889225842326E-4
        7.4765807322162E-4
        7.5648425254129E-4
        7.6537091457076E-4
        7.7431817715307E-4
        7.8332615778857E-4
        7.9239497363749E-4
        8.0152474152259E-4
        8.1071557793174E-4
        8.1996759902042E-4
        8.2928092061433E-4
        8.3865565821179E-4
        8.4809192698623E-4
        8.5758984178861E-4
        8.6714951714983E-4
        8.7677106728309E-4
        8.8645460608620E-4
        8.9620024714394E-4
        9.0600810373032E-4
        9.1587828881083E-4
        9.2581091504469E-4
        9.3580609478703E-4
        9.4586394009110E-4
        9.5598456271040E-4
        9.6616807410080E-4
        9.7641458542267E-4
        9.8672420754296E-4
        9.9709705103723E-4
        1.0075332261917E-3
        1.0180328430053E-3
        1.0285960111915E-3
        1.0392228401805E-3
        1.0499134391211E-3
        1.0606679168825E-3
        1.0714863820563E-3
        1.0823689429584E-3
        1.0933157076307E-3
        1.1043267838434E-3
        1.1154022790960E-3
        1.1265423006200E-3
        1.1377469553801E-3
        1.1490163500761E-3
        1.1603505911447E-3
        1.1717497847612E-3
        1.1832140368411E-3
        1.1947434530421E-3
        1.2063381387654E-3
        1.2179981991574E-3
        1.2297237391117E-3
        1.2415148632702E-3
        1.2533716760251E-3
        1.2652942815204E-3
        1.2772827836532E-3
        1.2893372860756E-3
        1.3014578921961E-3
        1.3136447051812E-3
        1.3258978279565E-3
        1.3382173632090E-3
        1.3506034133876E-3
        1.3630560807053E-3
        1.3755754671405E-3
        1.3881616744382E-3
        1.4008148041113E-3
        1.4135349574428E-3
        1.4263222354861E-3
        1.4391767390673E-3
        1.4520985687860E-3
        1.4650878250167E-3
        1.4781446079106E-3
        1.4912690173963E-3
        1.5044611531815E-3
        1.5177211147542E-3
        1.5310490013840E-3
        1.5444449121234E-3
        1.5579089458089E-3
        1.5714412010624E-3
        1.5850417762925E-3
        1.5987107696955E-3
        1.6124482792569E-3
        1.6262544027523E-3
        1.6401292377489E-3
        1.6540728816064E-3
        1.6680854314784E-3
        1.6821669843134E-3
        1.6963176368561E-3
        1.7105374856482E-3
        1.7248266270301E-3
        1.7391851571416E-3
        1.7536131719229E-3
        1.7681107671163E-3
        1.7826780382664E-3
        1.7973150807221E-3
        1.8120219896372E-3
        1.8267988599711E-3
        1.8416457864909E-3
        1.8565628637711E-3
        1.8715501861960E-3
        1.8866078479595E-3
        1.9017359430671E-3
        1.9169345653361E-3
        1.9322038083973E-3
        1.9475437656954E-3
        1.9629545304905E-3
        1.9784361958586E-3
        1.9939888546929E-3
        2.0096125997045E-3
        2.0253075234237E-3
        2.0410737182005E-3
        2.0569112762058E-3
        2.0728202894325E-3
        2.0888008496959E-3
        2.1048530486349E-3
        2.1209769777133E-3
        2.1371727282198E-3
        2.1534403912696E-3
        2.1697800578052E-3
        2.1861918185968E-3
        2.2026757642438E-3
        2.2192319851752E-3
        2.2358605716506E-3
        2.2525616137611E-3
        2.2693352014301E-3
        2.2861814244141E-3
        2.3031003723035E-3
        2.3200921345235E-3
        2.3371568003347E-3
        2.3542944588344E-3
        2.3715051989567E-3
        2.3887891094739E-3
        2.4061462789970E-3
        2.4235767959765E-3
        2.4410807487031E-3
        2.4586582253087E-3
        2.4763093137670E-3
        2.4940341018941E-3
        2.5118326773498E-3
        2.5297051276375E-3
        2.5476515401058E-3
        2.5656720019486E-3
        2.5837666002061E-3
        2.6019354217657E-3
        2.6201785533621E-3
        2.6384960815787E-3
        2.6568880928480E-3
        2.6753546734523E-3
        2.6938959095242E-3
        2.7125118870478E-3
        2.7312026918589E-3
        2.7499684096459E-3
        2.7688091259504E-3
        2.7877249261679E-3
        2.8067158955486E-3
        2.8257821191977E-3
        2.8449236820765E-3
        2.8641406690025E-3
        2.8834331646508E-3
        2.9028012535540E-3
        2.9222450201032E-3
        2.9417645485487E-3
        2.9613599230003E-3
        2.9810312274283E-3
        3.0007785456637E-3
        3.0206019613995E-3
        3.0405015581903E-3
        3.0604774194539E-3
        3.0805296284712E-3
        3.1006582683872E-3
        3.1208634222114E-3
        3.1411451728183E-3
        3.1615036029485E-3
        3.1819387952084E-3
        3.2024508320717E-3
        3.2230397958792E-3
        3.2437057688400E-3
        3.2644488330315E-3
        3.2852690704005E-3
        3.3061665627632E-3
        3.3271413918064E-3
        3.3481936390872E-3
        3.3693233860345E-3
        3.3905307139487E-3
        3.4118157040029E-3
        3.4331784372429E-3
        3.4546189945881E-3
        3.4761374568319E-3
        3.4977339046421E-3
        3.5194084185616E-3
        3.5411610790088E-3
        3.5629919662782E-3
        3.5849011605409E-3
        3.6068887418450E-3
        3.6289547901163E-3
        3.6510993851584E-3
        3.6733226066537E-3
        3.6956245341637E-3
        3.7180052471291E-3
        3.7404648248710E-3
        3.7630033465909E-3
        3.7856208913711E-3
        3.8083175381757E-3
        3.8310933658505E-3
        3.8539484531237E-3
        3.8768828786065E-3
        3.8998967207933E-3
        3.9229900580625E-3
        3.9461629686766E-3
        3.9694155307828E-3
        3.9927478224134E-3
        4.0161599214866E-3
        4.0396519058064E-3
        4.0632238530633E-3
        4.0868758408349E-3
        4.1106079465860E-3
        4.1344202476694E-3
        4.1583128213260E-3
        4.1822857446854E-3
        4.2063390947663E-3
        4.2304729484771E-3
        4.2546873826157E-3
        4.2789824738710E-3
        4.3033582988221E-3
        4.3278149339396E-3
        4.3523524555857E-3
        4.3769709400146E-3
        4.4016704633727E-3
        4.4264511016996E-3
        4.4513129309279E-3
        4.4762560268838E-3
        4.5012804652877E-3
        4.5263863217542E-3
        4.5515736717929E-3
        4.5768425908084E-3
        4.6021931541011E-3
        4.6276254368673E-3
        4.6531395141996E-3
        4.6787354610872E-3
        4.7044133524168E-3
        4.7301732629722E-3
        4.7560152674353E-3
        4.7819394403860E-3
        4.8079458563031E-3
        4.8340345895641E-3
        4.8602057144460E-3
        4.8864593051254E-3
        4.9127954356790E-3
        4.9392141800839E-3
        4.9657156122180E-3
        4.9922998058601E-3
        5.0189668346909E-3
        5.0457167722925E-3
        5.0725496921495E-3
        5.0994656676489E-3
        5.1264647720803E-3
        5.1535470786370E-3
        5.1807126604155E-3
        5.2079615904162E-3
        5.2352939415439E-3
        5.2627097866078E-3
        5.2902091983220E-3
        5.3177922493059E-3
        5.3454590120845E-3
        5.3732095590883E-3
        5.4010439626545E-3
        5.4289622950265E-3
        5.4569646283546E-3
        5.4850510346964E-3
        5.5132215860168E-3
        5.5414763541885E-3
        5.5698154109925E-3
        5.5982388281180E-3
        5.6267466771632E-3
        5.6553390296350E-3
        5.6840159569499E-3
        5.7127775304340E-3
        5.7416238213233E-3
        5.7705549007641E-3
        5.7995708398134E-3
        5.8286717094388E-3
        5.8578575805193E-3
        5.8871285238452E-3
        5.9164846101186E-3
        5.9459259099537E-3
        5.9754524938768E-3
        6.0050644323273E-3
        6.0347617956570E-3
        6.0645446541312E-3
        6.0944130779286E-3
        6.1243671371417E-3
        6.1544069017769E-3
        6.1845324417552E-3
        6.2147438269120E-3
        6.2450411269976E-3
        6.2754244116776E-3
        6.3058937505329E-3
        6.3364492130601E-3
        6.3670908686719E-3
        6.3978187866972E-3
        6.4286330363814E-3
        6.4595336868867E-3
        6.4905208072923E-3
        6.5215944665949E-3
        6.5527547337086E-3
        6.5840016774653E-3
        6.6153353666153E-3
        6.6467558698269E-3
        6.6782632556873E-3
        6.7098575927025E-3
        6.7415389492975E-3
        6.7733073938169E-3
        6.8051629945248E-3
        6.8371058196053E-3
        6.8691359371624E-3
        6.9012534152209E-3
        6.9334583217259E-3
        6.9657507245435E-3
        6.9981306914610E-3
        7.0305982901869E-3
        7.0631535883514E-3
        7.0957966535068E-3
        7.1285275531271E-3
        7.1613463546088E-3
        7.1942531252711E-3
        7.2272479323559E-3
        7.2603308430282E-3
        7.2935019243761E-3
        7.3267612434116E-3
        7.3601088670700E-3
        7.3935448622108E-3
        7.4270692956178E-3
        7.4606822339992E-3
        7.4943837439877E-3
        7.5281738921410E-3
        7.5620527449419E-3
        7.5960203687987E-3
        7.6300768300449E-3
        7.6642221949403E-3
        7.6984565296701E-3
        7.7327799003463E-3
        7.7671923730070E-3
        7.8016940136171E-3
        7.8362848880683E-3
        7.8709650621795E-3
        7.9057346016967E-3
        7.9405935722938E-3
        7.9755420395720E-3
        8.0105800690608E-3
        8.0457077262177E-3
        8.0809250764286E-3
        8.1162321850080E-3
        8.1516291171991E-3
        8.1871159381742E-3
        8.2226927130347E-3
        8.2583595068115E-3
        8.2941163844651E-3
        8.3299634108857E-3
        8.3659006508937E-3
        8.4019281692395E-3
        8.4380460306041E-3
        8.4742542995989E-3
        8.5105530407663E-3
        8.5469423185797E-3
        8.5834221974436E-3
        8.6199927416940E-3
        8.6566540155984E-3
        8.6934060833561E-3
        8.7302490090984E-3
        8.7671828568888E-3
        8.8042076907232E-3
        8.8413235745300E-3
        8.8785305721703E-3
        8.9158287474381E-3
        8.9532181640607E-3
        8.9906988856986E-3
        9.0282709759456E-3
        9.0659344983296E-3
        9.1036895163120E-3
        9.1415360932884E-3
        9.1794742925885E-3
        9.2175041774766E-3
        9.2556258111514E-3
        9.2938392567466E-3
        9.3321445773305E-3
        9.3705418359068E-3
        9.4090310954145E-3
        9.4476124187279E-3
        9.4862858686572E-3
        9.5250515079481E-3
        9.5639093992827E-3
        9.6028596052789E-3
        9.6419021884913E-3
        9.6810372114108E-3
        9.7202647364650E-3
        9.7595848260185E-3
        9.7989975423728E-3
        9.8385029477667E-3
        9.8781011043763E-3
        9.9177920743154E-3
        9.9575759196352E-3
        9.9974527023252E-3
        1.0037422484313E-2
        1.0077485327463E-2
        1.0117641293580E-2
        1.0157890444406E-2
        1.0198232841623E-2
        1.0238668546850E-2
        1.0279197621646E-2
        1.0319820127510E-2
        1.0360536125879E-2
        1.0401345678130E-2
        1.0442248845580E-2
        1.0483245689484E-2
        1.0524336271041E-2
        1.0565520651386E-2
        1.0606798891596E-2
        1.0648171052689E-2
        1.0689637195622E-2
        1.0731197381294E-2
        1.0772851670545E-2
        1.0814600124155E-2
        1.0856442802846E-2
        1.0898379767282E-2
        1.0940411078067E-2
        1.0982536795747E-2
        1.1024756980811E-2
        1.1067071693689E-2
        1.1109480994753E-2
        1.1151984944318E-2
        1.1194583602639E-2
        1.1237277029918E-2
        1.1280065286296E-2
        1.1322948431858E-2
        1.1365926526633E-2
        1.1408999630590E-2
        1.1452167803645E-2
        1.1495431105655E-2
        1.1538789596422E-2
        1.1582243335690E-2
        1.1625792383150E-2
        1.1669436798432E-2
        1.1713176641115E-2
        1.1757011970720E-2
        1.1800942846713E-2
        1.1844969328502E-2
        1.1889091475445E-2
        1.1933309346839E-2
        1.1977623001930E-2
        1.2022032499907E-2
        1.2066537899906E-2
        1.2111139261006E-2
        1.2155836642234E-2
        1.2200630102560E-2
        1.2245519700903E-2
        1.2290505496124E-2
        1.2335587547033E-2
        1.2380765912386E-2
        1.2426040650883E-2
        1.2471411821173E-2
        1.2516879481850E-2
        1.2562443691455E-2
        1.2608104508476E-2
        1.2653861991348E-2
        1.2699716198453E-2
        1.2745667188121E-2
        1.2791715018626E-2
        1.2837859748195E-2
        1.2884101434997E-2
        1.2930440137152E-2
        1.2976875912727E-2
        1.3023408819737E-2
        1.3070038916145E-2
        1.3116766259861E-2
        1.3163590908747E-2
        1.3210512920609E-2
        1.3257532353204E-2
        1.3304649264237E-2
        1.3351863711362E-2
        1.3399175752182E-2
        1.3446585444249E-2
        1.3494092845065E-2
        1.3541698012079E-2
        1.3589401002691E-2
        1.3637201874251E-2
        1.3685100684058E-2
        1.3733097489360E-2
        1.3781192347356E-2
        1.3829385315195E-2
        1.3877676449975E-2
        1.3926065808746E-2
        1.3974553448506E-2
        1.4023139426205E-2
        1.4071823798744E-2
        1.4120606622974E-2
        1.4169487955696E-2
        1.4218467853664E-2
        1.4267546373580E-2
        1.4316723572101E-2
        1.4365999505831E-2
        1.4415374231328E-2
        1.4464847805102E-2
        1.4514420283613E-2
        1.4564091723274E-2
        1.4613862180447E-2
        1.4663731711450E-2
        1.4713700372550E-2
        1.4763768219967E-2
        1.4813935309874E-2
        1.4864201698395E-2
        1.4914567441608E-2
        1.4965032595542E-2
        1.5015597216180E-2
        1.5066261359457E-2
        1.5117025081261E-2
        1.5167888437433E-2
        1.5218851483767E-2
        1.5269914276010E-2
        1.5321076869864E-2
        1.5372339320982E-2
        1.5423701684972E-2
        1.5475164017394E-2
        1.5526726373765E-2
        1.5578388809552E-2
        1.5630151380179E-2
        1.5682014141021E-2
        1.5733977147410E-2
        1.5786040454631E-2
        1.5838204117924E-2
        1.5890468192481E-2
        1.5942832733451E-2
        1.5995297795937E-2
        1.6047863434998E-2
        1.6100529705644E-2
        1.6153296662845E-2
        1.6206164361522E-2
        1.6259132856552E-2
        1.6312202202769E-2
        1.6365372454961E-2
        1.6418643667871E-2
        1.6472015896199E-2
        1.6525489194598E-2
        1.6579063617680E-2
        1.6632739220010E-2
        1.6686516056110E-2
        1.6740394180459E-2
        1.6794373647491E-2
        1.6848454511595E-2
        1.6902636827119E-2
        1.6956920648366E-2
        1.7011306029594E-2
        1.7065793025020E-2
        1.7120381688816E-2
        1.7175072075112E-2
        1.7229864237994E-2
        1.7284758231504E-2
        1.7339754109644E-2
        1.7394851926369E-2
        1.7450051735596E-2
        1.7505353591194E-2
        1.7560757546994E-2
        1.7616263656781E-2
        1.7671871974300E-2
        1.7727582553253E-2
        1.7783395447298E-2
        1.7839310710054E-2
        1.7895328395095E-2
        1.7951448555955E-2
        1.8007671246124E-2
        1.8063996519053E-2
        1.8120424428148E-2
        1.8176955026776E-2
        1.8233588368261E-2
        1.8290324505887E-2
        1.8347163492895E-2
        1.8404105382484E-2
        1.8461150227815E-2
        1.8518298082005E-2
        1.8575548998131E-2
        1.8632903029228E-2
        1.8690360228293E-2
        1.8747920648278E-2
        1.8805584342097E-2
        1.8863351362624E-2
        1.8921221762691E-2
        1.8979195595088E-2
        1.9037272912569E-2
        1.9095453767843E-2
        1.9153738213583E-2
        1.9212126302417E-2
        1.9270618086938E-2
        1.9329213619696E-2
        1.9387912953202E-2
        1.9446716139927E-2
        1.9505623232301E-2
        1.9564634282718E-2
        1.9623749343528E-2
        1.9682968467044E-2
        1.9742291705540E-2
        1.9801719111249E-2
        1.9861250736366E-2
        1.9920886633046E-2
        1.9980626853405E-2
        2.0040471449521E-2
        2.0100420473432E-2
        2.0160473977137E-2
        2.0220632012597E-2
        2.0280894631734E-2
        2.0341261886431E-2
        2.0401733828532E-2
        2.0462310509845E-2
        2.0522991982137E-2
        2.0583778297136E-2
        2.0644669506536E-2
        2.0705665661988E-2
        2.0766766815107E-2
        2.0827973017471E-2
        2.0889284320619E-2
        2.0950700776051E-2
        2.1012222435230E-2
        2.1073849349583E-2
        2.1135581570497E-2
        2.1197419149323E-2
        2.1259362137372E-2
        2.1321410585921E-2
        2.1383564546208E-2
        2.1445824069433E-2
        2.1508189206759E-2
        2.1570660009313E-2
        2.1633236528184E-2
        2.1695918814425E-2
        2.1758706919050E-2
        2.1821600893038E-2
        2.1884600787330E-2
        2.1947706652832E-2
        2.2010918540412E-2
        2.2074236500900E-2
        2.2137660585094E-2
        2.2201190843750E-2
        2.2264827327592E-2
        2.2328570087305E-2
        2.2392419173539E-2
        2.2456374636908E-2
        2.2520436527990E-2
        2.2584604897325E-2
        2.2648879795420E-2
        2.2713261272744E-2
        2.2777749379730E-2
        2.2842344166778E-2
        2.2907045684248E-2
        2.2971853982469E-2
        2.3036769111731E-2
        2.3101791122289E-2
        2.3166920064365E-2
        2.3232155988143E-2
        2.3297498943773E-2
        2.3362948981368E-2
        2.3428506151009E-2
        2.3494170502740E-2
        2.3559942086570E-2
        2.3625820952472E-2
        2.3691807150387E-2
        2.3757900730218E-2
        2.3824101741836E-2
        2.3890410235076E-2
        2.3956826259737E-2
        2.4023349865585E-2
        2.4089981102353E-2
        2.4156720019736E-2
        2.4223566667397E-2
        2.4290521094965E-2
        2.4357583352033E-2
        2.4424753488161E-2
        2.4492031552875E-2
        2.4559417595665E-2
        2.4626911665990E-2
        2.4694513813273E-2
        2.4762224086904E-2
        2.4830042536238E-2
        2.4897969210599E-2
        2.4966004159273E-2
        2.5034147431516E-2
        2.5102399076550E-2
        2.5170759143561E-2
        2.5239227681705E-2
        2.5307804740102E-2
