luts/CineonLog_to_linear.spi1d
Version 1
From 0 1
Length 4096
Components 1
{
 -5.6508192793e-03
 -5.6407148950e-03
 -5.6305909529e-03
 -5.6204479188e-03
 -5.6102848612e-03
 -5.6001027115e-03
 -5.5899010040e-03
 -5.5796792731e-03
 -5.5694384500e-03
 -5.5591776036e-03
 -5.5488971993e-03
 -5.5385972373e-03
 -5.5282772519e-03
 -5.5179377086e-03
 -5.5075781420e-03
 -5.4971990176e-03
 -5.4867994040e-03
 -5.4763802327e-03
 -5.4659410380e-03
 -5.4554818198e-03
 -5.4450021125e-03
 -5.4345028475e-03
 -5.4239830934e-03
 -5.4134433158e-03
 -5.4028830491e-03
 -5.3923027590e-03
 -5.3817024454e-03
 -5.3710811771e-03
 -5.3604398854e-03
 -5.3497781046e-03
 -5.3390958346e-03
 -5.3283930756e-03
 -5.3176698275e-03
 -5.3069260903e-03
 -5.2961613983e-03
 -5.2853762172e-03
 -5.2745705470e-03
 -5.2637439221e-03
 -5.2528963424e-03
 -5.2420282736e-03
 -5.2311392501e-03
 -5.2202292718e-03
 -5.2092983387e-03
 -5.1983464509e-03
 -5.1873736084e-03
 -5.1763793454e-03
 -5.1653645933e-03
 -5.1543284208e-03
 -5.1432708278e-03
 -5.1321922801e-03
 -5.1210923120e-03
 -5.1099713892e-03
 -5.0988285802e-03
 -5.0876648165e-03
 -5.0764796324e-03
 -5.0652725622e-03
 -5.0540445372e-03
 -5.0427946262e-03
 -5.0315232947e-03
 -5.0202300772e-03
 -5.0089154392e-03
 -4.9975789152e-03
 -4.9862205051e-03
 -4.9748406745e-03
 -4.9634389579e-03
 -4.9520148896e-03
 -4.9405694008e-03
 -4.9291015603e-03
 -4.9176122993e-03
 -4.9061002210e-03
 -4.8945667222e-03
 -4.8830108717e-03
 -4.8714326695e-03
 -4.8598321155e-03
 -4.8482096754e-03
 -4.8365648836e-03
 -4.8248977400e-03
 -4.8132077791e-03
 -4.8014959320e-03
 -4.7897612676e-03
 -4.7780042514e-03
 -4.7662244178e-03
 -4.7544222325e-03
 -4.7425972298e-03
 -4.7307498753e-03
 -4.7188792378e-03
 -4.7069862485e-03
 -4.6950704418e-03
 -4.6831318177e-03
 -4.6711699106e-03
 -4.6591851860e-03
 -4.6471776441e-03
 -4.6351468191e-03
 -4.6230931766e-03
 -4.6110157855e-03
 -4.5989160426e-03
 -4.5867925510e-03
 -4.5746457763e-03
 -4.5624761842e-03
 -4.5502828434e-03
 -4.5380657539e-03
 -4.5258258469e-03
 -4.5135621913e-03
 -4.5012752526e-03
 -4.4889640994e-03
 -4.4766301289e-03
 -4.4642719440e-03
 -4.4518900104e-03
 -4.4394843280e-03
 -4.4270553626e-03
 -4.4146021828e-03
 -4.4021247886e-03
 -4.3896236457e-03
 -4.3770987540e-03
 -4.3645496480e-03
 -4.3519767933e-03
 -4.3393792585e-03
 -4.3267579749e-03
 -4.3141120113e-03
 -4.3014422990e-03
 -4.2887479067e-03
 -4.2760292999e-03
 -4.2632860132e-03
 -4.2505185120e-03
 -4.2377267964e-03
 -4.2249099351e-03
 -4.2120688595e-03
 -4.1992031038e-03
 -4.1863126680e-03
 -4.1733970866e-03
 -4.1604572907e-03
 -4.1474923491e-03
 -4.1345027275e-03
 -4.1214879602e-03
 -4.1084485129e-03
 -4.0953834541e-03
 -4.0822937153e-03
 -4.0691788308e-03
 -4.0560388006e-03
 -4.0428736247e-03
 -4.0296833031e-03
 -4.0164673701e-03
 -4.0032258257e-03
 -3.9899596013e-03
 -3.9766672999e-03
 -3.9633498527e-03
 -3.9500063285e-03
 -3.9366376586e-03
 -3.9232433774e-03
 -3.9098230191e-03
 -3.8963772822e-03
 -3.8829054683e-03
 -3.8694080431e-03
 -3.8558845408e-03
 -3.8423351943e-03
 -3.8287597708e-03
 -3.8151582703e-03
 -3.8015306927e-03
 -3.7878768053e-03
 -3.7741968408e-03
 -3.7604907993e-03
 -3.7467582151e-03
 -3.7329993211e-03
 -3.7192141172e-03
 -3.7054023705e-03
 -3.6915640812e-03
 -3.6776992492e-03
 -3.6638078745e-03
 -3.6498899572e-03
 -3.6359450314e-03
 -3.6219735630e-03
 -3.6079750862e-03
 -3.5939500667e-03
 -3.5798978060e-03
 -3.5658187699e-03
 -3.5517124925e-03
 -3.5375794396e-03
 -3.5234191455e-03
 -3.5092316102e-03
 -3.4950168338e-03
 -3.4807748161e-03
 -3.4665053245e-03
 -3.4522085916e-03
 -3.4378846176e-03
 -3.4235329367e-03
 -3.4091535490e-03
 -3.3947469201e-03
 -3.3803123515e-03
 -3.3658503089e-03
 -3.3513603266e-03
 -3.3368426375e-03
 -3.3222970087e-03
 -3.3077234402e-03
 -3.2931219321e-03
 -3.2784924842e-03
 -3.2638348639e-03
 -3.2491490711e-03
 -3.2344353385e-03
 -3.2196932007e-03
 -3.2049226575e-03
 -3.1901239417e-03
 -3.1752965879e-03
 -3.1604410615e-03
 -3.1455568969e-03
 -3.1306440942e-03
 -3.1157028861e-03
 -3.1007328071e-03
 -3.0857340898e-03
 -3.0707065016e-03
 -3.0556500424e-03
 -3.0405649450e-03
 -3.0254507437e-03
 -3.0103074387e-03
 -2.9951350298e-03
 -2.9799337499e-03
 -2.9647031333e-03
 -2.9494431801e-03
 -2.9341541231e-03
 -2.9188357294e-03
 -2.9034877662e-03
 -2.8881104663e-03
 -2.8727038298e-03
 -2.8572673909e-03
 -2.8418013826e-03
 -2.8263055719e-03
 -2.8107801918e-03
 -2.7952250093e-03
 -2.7796397917e-03
 -2.7640247717e-03
 -2.7483797166e-03
 -2.7327048592e-03
 -2.7169997338e-03
 -2.7012645733e-03
 -2.6854991447e-03
 -2.6697034482e-03
 -2.6538772509e-03
 -2.6380210184e-03
 -2.6221342850e-03
 -2.6062168181e-03
 -2.5902690832e-03
 -2.5742906146e-03
 -2.5582814123e-03
 -2.5422414765e-03
 -2.5261710398e-03
 -2.5100694038e-03
 -2.4939370342e-03
 -2.4777736980e-03
 -2.4615793955e-03
 -2.4453538936e-03
 -2.4290974252e-03
 -2.4128095247e-03
 -2.3964904249e-03
 -2.3801401258e-03
 -2.3637583945e-03
 -2.3473452311e-03
 -2.3309004027e-03
 -2.3144241422e-03
 -2.2979164496e-03
 -2.2813768592e-03
 -2.2648056038e-03
 -2.2482024506e-03
 -2.2315673996e-03
 -2.2149004508e-03
 -2.1982016042e-03
 -2.1814706270e-03
 -2.1647077519e-03
 -2.1479125135e-03
 -2.1310849115e-03
 -2.1142251790e-03
 -2.0973330829e-03
 -2.0804086234e-03
 -2.0634515677e-03
 -2.0464619156e-03
 -2.0294399001e-03
 -2.0123850554e-03
 -1.9952973817e-03
 -1.9781771116e-03
 -1.9610237796e-03
 -1.9438377349e-03
 -1.9266186282e-03
 -1.9093664596e-03
 -1.8920811126e-03
 -1.8747627037e-03
 -1.8574109999e-03
 -1.8400260014e-03
 -1.8226075917e-03
 -1.8051557709e-03
 -1.7876705388e-03
 -1.7701516626e-03
 -1.7525991425e-03
 -1.7350129783e-03
 -1.7173931701e-03
 -1.6997393686e-03
 -1.6820518067e-03
 -1.6643302515e-03
 -1.6465745866e-03
 -1.6287850449e-03
 -1.6109611606e-03
 -1.5931031667e-03
 -1.5752109466e-03
 -1.5572842676e-03
 -1.5393232461e-03
 -1.5213277657e-03
 -1.5032977099e-03
 -1.4852330787e-03
 -1.4671338722e-03
 -1.4489997411e-03
 -1.4308309183e-03
 -1.4126271708e-03
 -1.3943886152e-03
 -1.3761149021e-03
 -1.3578061480e-03
 -1.3394623529e-03
 -1.3210832840e-03
 -1.3026688248e-03
 -1.2842192082e-03
 -1.2657340849e-03
 -1.2472134549e-03
 -1.2286573183e-03
 -1.2100656750e-03
 -1.1914381757e-03
 -1.1727750534e-03
 -1.1540760752e-03
 -1.1353411246e-03
 -1.1165703181e-03
 -1.0977634229e-03
 -1.0789205553e-03
 -1.0600413661e-03
 -1.0411260882e-03
 -1.0221743723e-03
 -1.0031863349e-03
 -9.8416185938e-04
 -9.6510088770e-04
 -9.4600330340e-04
 -9.2686910648e-04
 -9.0769812232e-04
 -8.8849040912e-04
 -8.6924579227e-04
 -8.4996427177e-04
 -8.3064567298e-04
 -8.1129005412e-04
 -7.9189729877e-04
 -7.7246729052e-04
 -7.5300002936e-04
 -7.3349539889e-04
 -7.1395328268e-04
 -6.9437368074e-04
 -6.7475653486e-04
 -6.5510172863e-04
 -6.3540920382e-04
 -6.1567884404e-04
 -5.9591064928e-04
 -5.7610450312e-04
 -5.5626034737e-04
 -5.3637812380e-04
 -5.1645771600e-04
 -4.9649906578e-04
 -4.7650214401e-04
 -4.5646683429e-04
 -4.3639304931e-04
 -4.1628075996e-04
 -3.9612984983e-04
 -3.7594028981e-04
 -3.5571196349e-04
 -3.3544484177e-04
 -3.1513877911e-04
 -2.9479377554e-04
 -2.7440971462e-04
 -2.5398653816e-04
 -2.3352414428e-04
 -2.1302248933e-04
 -1.9248148601e-04
 -1.7190106155e-04
 -1.5128114319e-04
 -1.3062164362e-04
 -1.0992249736e-04
 -8.9183617092e-05
 -6.8404937338e-05
 -4.7586381697e-05
 -2.6727864679e-05
 -5.8293167058e-06
 1.5109340893e-05
 3.6088185880e-05
 5.7107292378e-05
 7.8166740423e-05
 9.9266610050e-05
 1.2040697038e-04
 1.4158790873e-04
 1.6280950513e-04
 1.8407181778e-04
 2.0537494856e-04
 2.2671895567e-04
 2.4810392642e-04
 2.6952996268e-04
 2.9099709354e-04
 3.1250543543e-04
 3.3405507565e-04
 3.5564604332e-04
 3.7727845483e-04
 3.9895239752e-04
 4.2066792957e-04
 4.4242516742e-04
 4.6422414016e-04
 4.8606493510e-04
 5.0794763956e-04
 5.2987236995e-04
 5.5183918448e-04
 5.7384814136e-04
 5.9589935699e-04
 6.1799288960e-04
 6.4012885559e-04
 6.6230725497e-04
 6.8452820415e-04
 7.0679187775e-04
 7.2909821756e-04
 7.5144739822e-04
 7.7383947792e-04
 7.9627451487e-04
 8.1875256728e-04
 8.4127380978e-04
 8.6383830057e-04
 8.8644609787e-04
 9.0909720166e-04
 9.3179184478e-04
 9.5453008544e-04
 9.7731186543e-04
 1.0001374176e-03
 1.0230068583e-03
 1.0459200712e-03
 1.0688772891e-03
 1.0918786284e-03
 1.1149239726e-03
 1.1380136712e-03
 1.1611477239e-03
 1.1843260145e-03
 1.2075488921e-03
 1.2308163568e-03
 1.2541285250e-03
 1.2774852803e-03
 1.3008869719e-03
 1.3243335998e-03
 1.3478251640e-03
 1.3713617809e-03
 1.3949436834e-03
 1.4185707550e-03
 1.4422432287e-03
 1.4659611043e-03
 1.4897244982e-03
 1.5135334106e-03
 1.5373881906e-03
 1.5612886054e-03
 1.5852350043e-03
 1.6092272708e-03
 1.6332656378e-03
 1.6573502216e-03
 1.6814809060e-03
 1.7056579236e-03
 1.7298813909e-03
 1.7541513080e-03
 1.7784677912e-03
 1.8028309569e-03
 1.8272409216e-03
 1.8516976852e-03
 1.8762014806e-03
 1.9007521914e-03
 1.9253500504e-03
 1.9499951741e-03
 1.9746874459e-03
 1.9994273316e-03
 2.0242144819e-03
 2.0490493625e-03
 2.0739319734e-03
 2.0988620818e-03
 2.1238401532e-03
 2.1488661878e-03
 2.1739404183e-03
 2.1990626119e-03
 2.2242330015e-03
 2.2494515870e-03
 2.2747188341e-03
 2.3000342771e-03
 2.3253986146e-03
 2.3508113809e-03
 2.3762730416e-03
 2.4017835967e-03
 2.4273430463e-03
 2.4529516231e-03
 2.4786093272e-03
 2.5043161586e-03
 2.5300725829e-03
 2.5558781344e-03
 2.5817335118e-03
 2.6076382492e-03
 2.6335928123e-03
 2.6595972013e-03
 2.6856514160e-03
 2.7117559221e-03
 2.7379102539e-03
 2.7641148772e-03
 2.7903697919e-03
 2.8166749980e-03
 2.8430307284e-03
 2.8694369830e-03
 2.8958939947e-03
 2.9224019963e-03
 2.9489605222e-03
 2.9755702708e-03
 3.0022310093e-03
 3.0289427377e-03
 3.0557059217e-03
 3.0825205613e-03
 3.1093864236e-03
 3.1363039743e-03
 3.1632732134e-03
 3.1902941409e-03
 3.2173669897e-03
 3.2444917597e-03
 3.2716686837e-03
 3.2988977619e-03
 3.3261789940e-03
 3.3535126131e-03
 3.3808986191e-03
 3.4083374776e-03
 3.4358287230e-03
 3.4633728210e-03
 3.4909697715e-03
 3.5186195746e-03
 3.5463226959e-03
 3.5740786698e-03
 3.6018881947e-03
 3.6297510378e-03
 3.6576671991e-03
 3.6856369115e-03
 3.7136606406e-03
 3.7417379208e-03
 3.7698689848e-03
 3.7980542984e-03
 3.8262933958e-03
 3.8545869756e-03
 3.8829348050e-03
 3.9113368839e-03
 3.9397934452e-03
 3.9683049545e-03
 3.9968709461e-03
 4.0254918858e-03
 4.0541677736e-03
 4.0828986093e-03
 4.1116843931e-03
 4.1405255906e-03
 4.1694222018e-03
 4.1983742267e-03
 4.2273816653e-03
 4.2564449832e-03
 4.2855641805e-03
 4.3147392571e-03
 4.3439702131e-03
 4.3732570484e-03
 4.4026002288e-03
 4.4319997542e-03
 4.4614556246e-03
 4.4909683056e-03
 4.5205373317e-03
 4.5501636341e-03
 4.5798462816e-03
 4.6095857397e-03
 4.6393829398e-03
 4.6692369506e-03
 4.6991482377e-03
 4.7291168012e-03
 4.7591431066e-03
 4.7892266884e-03
 4.8193684779e-03
 4.8495680094e-03
 4.8798252828e-03
 4.9101407640e-03
 4.9405144528e-03
 4.9709463492e-03
 5.0014364533e-03
 5.0319856964e-03
 5.0625931472e-03
 5.0932592712e-03
 5.1239845343e-03
 5.1547684707e-03
 5.1856115460e-03
 5.2165142260e-03
 5.2474755794e-03
 5.2784965374e-03
 5.3095775656e-03
 5.3407177329e-03
 5.3719175048e-03
 5.4031778127e-03
 5.4344977252e-03
 5.4658777080e-03
 5.4973177612e-03
 5.5288183503e-03
 5.5603794754e-03
 5.5920011364e-03
 5.6236833334e-03
 5.6554265320e-03
 5.6872307323e-03
 5.7190959342e-03
 5.7510221377e-03
 5.7830093428e-03
 5.8150584809e-03
 5.8471686207e-03
 5.8793406934e-03
 5.9115746990e-03
 5.9438701719e-03
 5.9762280434e-03
 6.0086478479e-03
 6.0411295854e-03
 6.0736741871e-03
 6.1062807217e-03
 6.1389501207e-03
 6.1716823839e-03
 6.2044770457e-03
 6.2373350374e-03
 6.2702558935e-03
 6.3032396138e-03
 6.3362871297e-03
 6.3693979755e-03
 6.4025721513e-03
 6.4358101226e-03
 6.4691123553e-03
 6.5024779178e-03
 6.5359077416e-03
 6.5694013610e-03
 6.6029597074e-03
 6.6365823150e-03
 6.6702696495e-03
 6.7040212452e-03
 6.7378380336e-03
 6.7717190832e-03
 6.8056657910e-03
 6.8396772258e-03
 6.8737543188e-03
 6.9078966044e-03
 6.9421045482e-03
 6.9763781503e-03
 7.0107174106e-03
 7.0451227948e-03
 7.0795938373e-03
 7.1141310036e-03
 7.1487347595e-03
 7.1834051050e-03
 7.2181415744e-03
 7.2529450990e-03
 7.2878147475e-03
 7.3227519169e-03
 7.3577561416e-03
 7.3928274214e-03
 7.4279657565e-03
 7.4631720781e-03
 7.4984454550e-03
 7.5337868184e-03
 7.5691957027e-03
 7.6046730392e-03
 7.6402178966e-03
 7.6758312061e-03
 7.7115129679e-03
 7.7472631820e-03
 7.7830823138e-03
 7.8189698979e-03
 7.8549263999e-03
 7.8909518197e-03
 7.9270461574e-03
 7.9632103443e-03
 7.9994434491e-03
 8.0357464030e-03
 8.0721182749e-03
 8.1085609272e-03
 8.1450734288e-03
 8.1816557795e-03
 8.2183079794e-03
 8.2550309598e-03
 8.2918237895e-03
 8.3286883309e-03
 8.3656227216e-03
 8.4026288241e-03
 8.4397047758e-03
 8.4768533707e-03
 8.5140718147e-03
 8.5513629019e-03
 8.5887247697e-03
 8.6261583492e-03
 8.6636636406e-03
 8.7012415752e-03
 8.7388912216e-03
 8.7766135111e-03
 8.8144075125e-03
 8.8522750884e-03
 8.8902143762e-03
 8.9282272384e-03
 8.9663118124e-03
 9.0044708923e-03
 9.0427026153e-03
 9.0810079128e-03
 9.1193858534e-03
 9.1578382999e-03
 9.1963643208e-03
 9.2349648476e-03
 9.2736389488e-03
 9.3123866245e-03
 9.3512097374e-03
 9.3901064247e-03
 9.4290785491e-03
 9.4681251794e-03
 9.5072472468e-03
 9.5464438200e-03
 9.5857158303e-03
 9.6250623465e-03
 9.6644852310e-03
 9.7039835528e-03
 9.7435582429e-03
 9.7832083702e-03
 9.8229348660e-03
 9.8627377301e-03
 9.9026160315e-03
 9.9425716326e-03
 9.9826036021e-03
 1.0022712871e-02
 1.0062898509e-02
 1.0103162378e-02
 1.0143502615e-02
 1.0183920152e-02
 1.0224415921e-02
 1.0264988989e-02
 1.0305639356e-02
 1.0346368887e-02
 1.0387175716e-02
 1.0428061709e-02
 1.0469025001e-02
 1.0510067455e-02
 1.0551189072e-02
 1.0592388920e-02
 1.0633668862e-02
 1.0675027035e-02
 1.0716465302e-02
 1.0757982731e-02
 1.0799580254e-02
 1.0841256939e-02
 1.0883013718e-02
 1.0924850591e-02
 1.0966768488e-02
 1.1008766480e-02
 1.1050844565e-02
 1.1093003675e-02
 1.1135243811e-02
 1.1177564971e-02
 1.1219968088e-02
 1.1262451299e-02
 1.1305016465e-02
 1.1347663589e-02
 1.1390392669e-02
 1.1433203705e-02
 1.1476096697e-02
 1.1519072577e-02
 1.1562130414e-02
 1.1605270207e-02
 1.1648493819e-02
 1.1691800319e-02
 1.1735189706e-02
 1.1778661981e-02
 1.1822218075e-02
 1.1865857989e-02
 1.1909581721e-02
 1.1953389272e-02
 1.1997280642e-02
 1.2041255832e-02
 1.2085315771e-02
 1.2129460461e-02
 1.2173689902e-02
 1.2218004093e-02
 1.2262403965e-02
 1.2306888588e-02
 1.2351457961e-02
 1.2396113947e-02
 1.2440854684e-02
 1.2485682033e-02
 1.2530595064e-02
 1.2575593777e-02
 1.2620679103e-02
 1.2665851973e-02
 1.2711110525e-02
 1.2756456621e-02
 1.2801889330e-02
 1.2847408652e-02
 1.2893016450e-02
 1.2938710861e-02
 1.2984493747e-02
 1.3030364178e-02
 1.3076322153e-02
 1.3122368604e-02
 1.3168504462e-02
 1.3214727864e-02
 1.3261039741e-02
 1.3307441026e-02
 1.3353930786e-02
 1.3400510885e-02
 1.3447179459e-02
 1.3493938372e-02
 1.3540785760e-02
 1.3587724417e-02
 1.3634752482e-02
 1.3681870885e-02
 1.3729079627e-02
 1.3776378706e-02
 1.3823769055e-02
 1.3871250674e-02
 1.3918822631e-02
 1.3966485858e-02
 1.4014241286e-02
 1.4062087983e-02
 1.4110026881e-02
 1.4158057049e-02
 1.4206180349e-02
 1.4254394919e-02
 1.4302702621e-02
 1.4351103455e-02
 1.4399596490e-02
 1.4448182657e-02
 1.4496861957e-02
 1.4545635320e-02
 1.4594501816e-02
 1.4643462375e-02
 1.4692516997e-02
 1.4741665684e-02
 1.4790908433e-02
 1.4840245247e-02
 1.4889677987e-02
 1.4939204790e-02
 1.4988826588e-02
 1.5038543381e-02
 1.5088356100e-02
 1.5138264745e-02
 1.5188268386e-02
 1.5238368884e-02
 1.5288564377e-02
 1.5338857658e-02
 1.5389245935e-02
 1.5439732000e-02
 1.5490314923e-02
 1.5540994704e-02
 1.5591771342e-02
 1.5642644837e-02
 1.5693617985e-02
 1.5744687989e-02
 1.5795854852e-02
 1.5847122297e-02
 1.5898486599e-02
 1.5949949622e-02
 1.6001511365e-02
 1.6053171828e-02
 1.6104932874e-02
 1.6156790778e-02
 1.6208749264e-02
 1.6260808334e-02
 1.6312967986e-02
 1.6365226358e-02
 1.6417585313e-02
 1.6470044851e-02
 1.6522604972e-02
 1.6575265676e-02
 1.6628026962e-02
 1.6680890694e-02
 1.6733855009e-02
 1.6786921769e-02
 1.6840089113e-02
 1.6893360764e-02
 1.6946732998e-02
 1.7000207677e-02
 1.7053784803e-02
 1.7107464373e-02
 1.7161248252e-02
 1.7215134576e-02
 1.7269125208e-02
 1.7323218286e-02
 1.7377417535e-02
 1.7431717366e-02
 1.7486123368e-02
 1.7540633678e-02
 1.7595248297e-02
 1.7649969086e-02
 1.7704792321e-02
 1.7759723589e-02
 1.7814757302e-02
 1.7869899049e-02
 1.7925145105e-02
 1.7980499193e-02
 1.8035957590e-02
 1.8091522157e-02
 1.8147194758e-02
 1.8202973530e-02
 1.8258860335e-02
 1.8314853311e-02
 1.8370954320e-02
 1.8427161500e-02
 1.8483478576e-02
 1.8539903685e-02
 1.8596434966e-02
 1.8653076142e-02
 1.8709827214e-02
 1.8766686320e-02
 1.8823653460e-02
 1.8880730495e-02
 1.8937917426e-02
 1.8995214254e-02
 1.9052620977e-02
 1.9110137597e-02
 1.9167764112e-02
 1.9225502387e-02
 1.9283350557e-02
 1.9341310486e-02
 1.9399380311e-02
 1.9457561895e-02
 1.9515857100e-02
 1.9574262202e-02
 1.9632780924e-02
 1.9691409543e-02
 1.9750153646e-02
 1.9809007645e-02
 1.9867977127e-02
 1.9927058369e-02
 1.9986253232e-02
 2.0045561716e-02
 2.0104983822e-02
 2.0164521411e-02
 2.0224170759e-02
 2.0283935592e-02
 2.0343815908e-02
 2.0403811708e-02
 2.0463921130e-02
 2.0524146035e-02
 2.0584486425e-02
 2.0644944161e-02
 2.0705517381e-02
 2.0766206086e-02
 2.0827012137e-02
 2.0887933671e-02
 2.0948972553e-02
 2.1010128781e-02
 2.1071402356e-02
 2.1132793278e-02
 2.1194303408e-02
 2.1255929023e-02
 2.1317675710e-02
 2.1379539743e-02
 2.1441521123e-02
 2.1503623575e-02
 2.1565843374e-02
 2.1628184244e-02
 2.1690644324e-02
 2.1753223613e-02
 2.1815923974e-02
 2.1878743544e-02
 2.1941684186e-02
 2.2004745901e-02
 2.2067928687e-02
 2.2131232545e-02
 2.2194657475e-02
 2.2258205339e-02
 2.2321874276e-02
 2.2385664284e-02
 2.2449579090e-02
 2.2513614967e-02
 2.2577773780e-02
 2.2642057389e-02
 2.2706462070e-02
 2.2770991549e-02
 2.2835643962e-02
 2.2900421172e-02
 2.2965323180e-02
 2.3030349985e-02
 2.3095501587e-02
 2.3160776123e-02
 2.3226177320e-02
 2.3291705176e-02
 2.3357357830e-02
 2.3423135281e-02
 2.3489041254e-02
 2.3555072024e-02
 2.3621229455e-02
 2.3687515408e-02
 2.3753928021e-02
 2.3820467293e-02
 2.3887135088e-02
 2.3953929543e-02
 2.4020852521e-02
 2.4087905884e-02
 2.4155085906e-02
 2.4222396314e-02
 2.4289833382e-02
 2.4357402697e-02
 2.4425100535e-02
 2.4492928758e-02
 2.4560885504e-02
 2.4628974497e-02
 2.4697193876e-02
 2.4765543640e-02
 2.4834025651e-02
 2.4902638048e-02
 2.4971382692e-02
 2.5040257722e-02
 2.5109266862e-02
 2.5178408250e-02
 2.5247681886e-02
 2.5317087770e-02
 2.5386627764e-02
 2.5456300005e-02
 2.5526108220e-02
 2.5596048683e-02
 2.5666123256e-02
 2.5736333802e-02
 2.5806678459e-02
 2.5877157226e-02
 2.5947771966e-02
 2.6018522680e-02
 2.6089409366e-02
 2.6160430163e-02
 2.6231588796e-02
 2.6302883402e-02
 2.6374315843e-02
 2.6445884258e-02
 2.6517590508e-02
 2.6589434594e-02
 2.6661416516e-02
 2.6733536273e-02
 2.6805793867e-02
 2.6878191158e-02
 2.6950728148e-02
 2.7023402974e-02
 2.7096217498e-02
 2.7169171721e-02
 2.7242265642e-02
 2.7315501124e-02
 2.7388876304e-02
 2.7462391183e-02
 2.7536049485e-02
 2.7609847486e-02
 2.7683787048e-02
 2.7757870033e-02
 2.7832094580e-02
 2.7906460688e-02
 2.7980970219e-02
 2.8055623174e-02
 2.8130419552e-02
 2.8205357492e-02
 2.8280440718e-02
 2.8355667368e-02
 2.8431039304e-02
 2.8506556526e-02
 2.8582217172e-02
 2.8658023104e-02
 2.8733976185e-02
 2.8810072690e-02
 2.8886316344e-02
 2.8962707147e-02
 2.9039243236e-02
 2.9115926474e-02
 2.9192758724e-02
 2.9269736260e-02
 2.9346862808e-02
 2.9424136505e-02
 2.9501557350e-02
 2.9579129070e-02
 2.9656847939e-02
 2.9734717682e-02
 2.9812736437e-02
 2.9890904203e-02
 2.9969222844e-02
 3.0047690496e-02
 3.0126309022e-02
 3.0205080286e-02
 3.0284000561e-02
 3.0363073573e-02
 3.0442297459e-02
 3.0521674082e-02
 3.0601201579e-02
 3.0680883676e-02
 3.0760718510e-02
 3.0840706080e-02
 3.0920846388e-02
 3.1001141295e-02
 3.1081590801e-02
 3.1162193045e-02
 3.1242951751e-02
 3.1323865056e-02
 3.1404934824e-02
 3.1486157328e-02
 3.1567536294e-02
 3.1649071723e-02
 3.1730763614e-02
 3.1812615693e-02
 3.1894620508e-02
 3.1976785511e-02
 3.2059106976e-02
 3.2141584903e-02
 3.2224223018e-02
 3.2307021320e-02
 3.2389976084e-02
 3.2473091036e-02
 3.2556362450e-02
 3.2639797777e-02
 3.2723389566e-02
 3.2807145268e-02
 3.2891061157e-02
 3.2975137234e-02
 3.3059373498e-02
 3.3143773675e-02
 3.3228334039e-02
 3.3313058317e-02
 3.3397942781e-02
 3.3482994884e-02
 3.3568203449e-02
 3.3653579652e-02
 3.3739119768e-02
 3.3824823797e-02
 3.3910691738e-02
 3.3996727318e-02
 3.4082923084e-02
 3.4169286489e-02
 3.4255817533e-02
 3.4342512488e-02
 3.4429375082e-02
 3.4516401589e-02
 3.4603599459e-02
 3.4690961242e-02
 3.4778490663e-02
 3.4866191447e-02
 3.4954056144e-02
 3.5042092204e-02
 3.5130299628e-02
 3.5218670964e-02
 3.5307213664e-02
 3.5395927727e-02
 3.5484813154e-02
 3.5573866218e-02
 3.5663090646e-02
 3.5752486438e-02
 3.5842057317e-02
 3.5931795835e-02
 3.6021709442e-02
 3.6111794412e-02
 3.6202050745e-02
 3.6292482167e-02
 3.6383084953e-02
 3.6473862827e-02
 3.6564815789e-02
 3.6655943841e-02
 3.6747246981e-02
 3.6838721484e-02
 3.6930374801e-02
 3.7022203207e-02
 3.7114210427e-02
 3.7206389010e-02
 3.7298750132e-02
 3.7391282618e-02
 3.7483997643e-02
 3.7576887757e-02
 3.7669956684e-02
 3.7763204426e-02
 3.7856634706e-02
 3.7950240076e-02
 3.8044024259e-02
 3.8137990981e-02
 3.8232136518e-02
 3.8326464593e-02
 3.8420971483e-02
 3.8515660912e-02
 3.8610532880e-02
 3.8705587387e-02
 3.8800824434e-02
 3.8896240294e-02
 3.8991842419e-02
 3.9087627083e-02
 3.9183598012e-02
 3.9279751480e-02
 3.9376087487e-02
 3.9472609758e-02
 3.9569318295e-02
 3.9666213095e-02
 3.9763290435e-02
 3.9860557765e-02
 3.9958007634e-02
 4.0055647492e-02
 4.0153473616e-02
 4.0251489729e-02
 4.0349692106e-02
 4.0448084474e-02
 4.0546663105e-02
 4.0645431727e-02
 4.0744390339e-02
 4.0843538940e-02
 4.0942881256e-02
 4.1042409837e-02
 4.1142128408e-02
 4.1242040694e-02
 4.1342146695e-02
 4.1442442685e-02
 4.1542928666e-02
 4.1643612087e-02
 4.1744485497e-02
 4.1845552623e-02
 4.1946817189e-02
 4.2048271745e-02
 4.2149923742e-02
 4.2251769453e-02
 4.2353812605e-02
 4.2456049472e-02
 4.2558483779e-02
 4.2661115527e-02
 4.2763940990e-02
 4.2866967618e-02
 4.2970187962e-02
 4.3073609471e-02
 4.3177228421e-02
 4.3281044811e-02
 4.3385062367e-02
 4.3489281088e-02
 4.3593697250e-02
 4.3698314577e-02
 4.3803133070e-02
 4.3908152729e-02
 4.4013373554e-02
 4.4118795544e-02
 4.4224418700e-02
 4.4330246747e-02
 4.4436279684e-02
 4.4542513788e-02
 4.4648952782e-02
 4.4755592942e-02
 4.4862441719e-02
 4.4969491661e-02
 4.5076750219e-02
 4.5184213668e-02
 4.5291885734e-02
 4.5399762690e-02
 4.5507844537e-02
 4.5616135001e-02
 4.5724634081e-02
 4.5833341777e-02
 4.5942258090e-02
 4.6051383018e-02
 4.6160716563e-02
 4.6270258725e-02
 4.6380013227e-02
 4.6489980072e-02
 4.6600155532e-02
 4.6710543334e-02
 4.6821143478e-02
 4.6931952238e-02
 4.7042977065e-02
 4.7154214233e-02
 4.7265663743e-02
 4.7377329320e-02
 4.7489210963e-02
 4.7601301223e-02
 4.7713611275e-02
 4.7826137394e-02
 4.7938875854e-02
 4.8051834106e-02
 4.8165008426e-02
 4.8278398812e-02
 4.8392005265e-02
 4.8505831510e-02
 4.8619877547e-02
 4.8734139651e-02
 4.8848625273e-02
 4.8963326961e-02
 4.9078248441e-02
 4.9193393439e-02
 4.9308758229e-02
 4.9424342811e-02
 4.9540150911e-02
 4.9656182528e-02
 4.9772433937e-02
 4.9888908863e-02
 5.0005611032e-02
 5.0122532994e-02
 5.0239682198e-02
 5.0357054919e-02
 5.0474651158e-02
 5.0592474639e-02
 5.0710525364e-02
 5.0828799605e-02
 5.0947304815e-02
 5.1066033542e-02
 5.1184993237e-02
 5.1304180175e-02
 5.1423594356e-02
 5.1543239504e-02
 5.1663115621e-02
 5.1783218980e-02
 5.1903553307e-02
 5.2024118602e-02
 5.2144918591e-02
 5.2265945822e-02
 5.2387207747e-02
 5.2508704364e-02
 5.2630431950e-02
 5.2752390504e-02
 5.2874587476e-02
 5.2997015417e-02
 5.3119681776e-02
 5.3242579103e-02
 5.3365714848e-02
 5.3489089012e-02
 5.3612697870e-02
 5.3736545146e-02
