luts/DesatLog_to_Linear.spi1d
Version 1
From 0.000000 1.000000
Length 4096
Components 1
{
        1.7637719091167E-4
        1.7697515220702E-4
        1.7757514073566E-4
        1.7817716337038E-4
        1.7878122700730E-4
        1.7938733856591E-4
        1.7999550498916E-4
        1.8060573324353E-4
        1.8121803031914E-4
        1.8183240322978E-4
        1.8244885901305E-4
        1.8306740473037E-4
        1.8368804746713E-4
        1.8431079433274E-4
        1.8493565246070E-4
        1.8556262900869E-4
        1.8619173115868E-4
        1.8682296611697E-4
        1.8745634111430E-4
        1.8809186340590E-4
        1.8872954027164E-4
        1.8936937901604E-4
        1.9001138696838E-4
        1.9065557148281E-4
        1.9130193993840E-4
        1.9195049973923E-4
        1.9260125831451E-4
        1.9325422311859E-4
        1.9390940163114E-4
        1.9456680135716E-4
        1.9522642982710E-4
        1.9588829459693E-4
        1.9655240324827E-4
        1.9721876338840E-4
        1.9788738265042E-4
        1.9855826869329E-4
        1.9923142920196E-4
        1.9990687188741E-4
        2.0058460448677E-4
        2.0126463476340E-4
        2.0194697050699E-4
        2.0263161953362E-4
        2.0331858968589E-4
        2.0400788883296E-4
        2.0469952487070E-4
        2.0539350572172E-4
        2.0608983933552E-4
        2.0678853368853E-4
        2.0748959678421E-4
        2.0819303665319E-4
        2.0889886135330E-4
        2.0960707896970E-4
        2.1031769761493E-4
        2.1103072542909E-4
        2.1174617057982E-4
        2.1246404126249E-4
        2.1318434570023E-4
        2.1390709214406E-4
        2.1463228887297E-4
        2.1535994419403E-4
        2.1609006644245E-4
        2.1682266398171E-4
        2.1755774520365E-4
        2.1829531852854E-4
        2.1903539240523E-4
        2.1977797531119E-4
        2.2052307575263E-4
        2.2127070226460E-4
        2.2202086341110E-4
        2.2277356778515E-4
        2.2352882400890E-4
        2.2428664073374E-4
        2.2504702664039E-4
        2.2580999043900E-4
        2.2657554086925E-4
        2.2734368670043E-4
        2.2811443673158E-4
        2.2888779979158E-4
        2.2966378473922E-4
        2.3044240046334E-4
        2.3122365588290E-4
        2.3200755994710E-4
        2.3279412163550E-4
        2.3358334995808E-4
        2.3437525395537E-4
        2.3516984269857E-4
        2.3596712528960E-4
        2.3676711086126E-4
        2.3756980857731E-4
        2.3837522763258E-4
        2.3918337725305E-4
        2.3999426669602E-4
        2.4080790525013E-4
        2.4162430223554E-4
        2.4244346700400E-4
        2.4326540893896E-4
        2.4409013745568E-4
        2.4491766200135E-4
        2.4574799205520E-4
        2.4658113712855E-4
        2.4741710676502E-4
        2.4825591054055E-4
        2.4909755806357E-4
        2.4994205897505E-4
        2.5078942294868E-4
        2.5163965969093E-4
        2.5249277894118E-4
        2.5334879047183E-4
        2.5420770408841E-4
        2.5506952962968E-4
        2.5593427696779E-4
        2.5680195600832E-4
        2.5767257669045E-4
        2.5854614898707E-4
        2.5942268290486E-4
        2.6030218848442E-4
        2.6118467580041E-4
        2.6207015496164E-4
        2.6295863611119E-4
        2.6385012942652E-4
        2.6474464511960E-4
        2.6564219343702E-4
        2.6654278466012E-4
        2.6744642910507E-4
        2.6835313712303E-4
        2.6926291910027E-4
        2.7017578545824E-4
        2.7109174665374E-4
        2.7201081317902E-4
        2.7293299556189E-4
        2.7385830436587E-4
        2.7478675019028E-4
        2.7571834367037E-4
        2.7665309547746E-4
        2.7759101631905E-4
        2.7853211693892E-4
        2.7947640811728E-4
        2.8042390067091E-4
        2.8137460545325E-4
        2.8232853335451E-4
        2.8328569530186E-4
        2.8424610225949E-4
        2.8520976522877E-4
        2.8617669524836E-4
        2.8714690339436E-4
        2.8812040078041E-4
        2.8909719855783E-4
        2.9007730791573E-4
        2.9106074008119E-4
        2.9204750631931E-4
        2.9303761793341E-4
        2.9403108626512E-4
        2.9502792269454E-4
        2.9602813864031E-4
        2.9703174555982E-4
        2.9803875494930E-4
        2.9904917834392E-4
        3.0006302731801E-4
        3.0108031348509E-4
        3.0210104849809E-4
        3.0312524404943E-4
        3.0415291187116E-4
        3.0518406373512E-4
        3.0621871145306E-4
        3.0725686687676E-4
        3.0829854189820E-4
        3.0934374844967E-4
        3.1039249850390E-4
        3.1144480407422E-4
        3.1250067721469E-4
        3.1356013002025E-4
        3.1462317462681E-4
        3.1568982321145E-4
        3.1676008799253E-4
        3.1783398122982E-4
        3.1891151522468E-4
        3.1999270232014E-4
        3.2107755490111E-4
        3.2216608539446E-4
        3.2325830626920E-4
        3.2435423003662E-4
        3.2545386925043E-4
        3.2655723650687E-4
        3.2766434444492E-4
        3.2877520574640E-4
        3.2988983313610E-4
        3.3100823938198E-4
        3.3213043729528E-4
        3.3325643973066E-4
        3.3438625958638E-4
        3.3551990980440E-4
        3.3665740337059E-4
        3.3779875331482E-4
        3.3894397271115E-4
        3.4009307467795E-4
        3.4124607237808E-4
        3.4240297901901E-4
        3.4356380785300E-4
        3.4472857217723E-4
        3.4589728533396E-4
        3.4706996071068E-4
        3.4824661174029E-4
        3.4942725190121E-4
        3.5061189471755E-4
        3.5180055375928E-4
        3.5299324264238E-4
        3.5418997502899E-4
        3.5539076462755E-4
        3.5659562519300E-4
        3.5780457052690E-4
        3.5901761447760E-4
        3.6023477094040E-4
        3.6145605385771E-4
        3.6268147721921E-4
        3.6391105506201E-4
        3.6514480147080E-4
        3.6638273057802E-4
        3.6762485656404E-4
        3.6887119365729E-4
        3.7012175613444E-4
        3.7137655832056E-4
        3.7263561458929E-4
        3.7389893936300E-4
        3.7516654711295E-4
        3.7643845235946E-4
        3.7771466967209E-4
        3.7899521366979E-4
        3.8028009902105E-4
        3.8156934044413E-4
        3.8286295270715E-4
        3.8416095062831E-4
        3.8546334907607E-4
        3.8677016296926E-4
        3.8808140727732E-4
        3.8939709702042E-4
        3.9071724726966E-4
        3.9204187314724E-4
        3.9337098982661E-4
        3.9470461253267E-4
        3.9604275654196E-4
        3.9738543718277E-4
        3.9873266983539E-4
        4.0008446993224E-4
        4.0144085295805E-4
        4.0280183445006E-4
        4.0416742999819E-4
        4.0553765524519E-4
        4.0691252588687E-4
        4.0829205767223E-4
        4.0967626640369E-4
        4.1106516793721E-4
        4.1245877818253E-4
        4.1385711310332E-4
        4.1526018871738E-4
        4.1666802109679E-4
        4.1808062636814E-4
        4.1949802071270E-4
        4.2092022036657E-4
        4.2234724162091E-4
        4.2377910082211E-4
        4.2521581437199E-4
        4.2665739872796E-4
        4.2810387040323E-4
        4.2955524596699E-4
        4.3101154204460E-4
        4.3247277531781E-4
        4.3393896252489E-4
        4.3541012046087E-4
        4.3688626597774E-4
        4.3836741598459E-4
        4.3985358744786E-4
        4.4134479739149E-4
        4.4284106289716E-4
        4.4434240110443E-4
        4.4584882921099E-4
        4.4736036447284E-4
        4.4887702420445E-4
        4.5039882577903E-4
        4.5192578662866E-4
        4.5345792424453E-4
        4.5499525617713E-4
        4.5653780003645E-4
        4.5808557349218E-4
        4.5963859427391E-4
        4.6119688017135E-4
        4.6276044903451E-4
        4.6432931877393E-4
        4.6590350736085E-4
        4.6748303282745E-4
        4.6906791326704E-4
        4.7065816683428E-4
        4.7225381174537E-4
        4.7385486627827E-4
        4.7546134877289E-4
        4.7707327763135E-4
        4.7869067131813E-4
        4.8031354836032E-4
        4.8194192734781E-4
        4.8357582693355E-4
        4.8521526583368E-4
        4.8686026282782E-4
        4.8851083675925E-4
        4.9016700653514E-4
        4.9182879112675E-4
        4.9349620956967E-4
        4.9516928096400E-4
        4.9684802447463E-4
        4.9853245933140E-4
        5.0022260482934E-4
        5.0191848032891E-4
        5.0362010525620E-4
        5.0532749910316E-4
        5.0704068142782E-4
        5.0875967185451E-4
        5.1048449007412E-4
        5.1221515584426E-4
        5.1395168898954E-4
        5.1569410940178E-4
        5.1744243704025E-4
        5.1919669193186E-4
        5.2095689417143E-4
        5.2272306392191E-4
        5.2449522141461E-4
        5.2627338694942E-4
        5.2805758089505E-4
        5.2984782368927E-4
        5.3164413583914E-4
        5.3344653792125E-4
        5.3525505058193E-4
        5.3706969453752E-4
        5.3889049057459E-4
        5.4071745955019E-4
        5.4255062239207E-4
        5.4439000009893E-4
        5.4623561374067E-4
        5.4808748445862E-4
        5.4994563346576E-4
        5.5181008204702E-4
        5.5368085155949E-4
        5.5555796343263E-4
        5.5744143916860E-4
        5.5933130034241E-4
        5.6122756860226E-4
        5.6313026566970E-4
        5.6503941333995E-4
        5.6695503348211E-4
        5.6887714803942E-4
        5.7080577902953E-4
        5.7274094854471E-4
        5.7468267875214E-4
        5.7663099189416E-4
        5.7858591028850E-4
        5.8054745632857E-4
        5.8251565248368E-4
        5.8449052129934E-4
        5.8647208539747E-4
        5.8846036747670E-4
        5.9045539031261E-4
        5.9245717675799E-4
        5.9446574974312E-4
        5.9648113227599E-4
        5.9850334744264E-4
        6.0053241840732E-4
        6.0256836841287E-4
        6.0461122078088E-4
        6.0666099891203E-4
        6.0871772628634E-4
        6.1078142646341E-4
        6.1285212308274E-4
        6.1492983986396E-4
        6.1701460060710E-4
        6.1910642919290E-4
        6.2120534958306E-4
        6.2331138582051E-4
        6.2542456202968E-4
        6.2754490241681E-4
        6.2967243127020E-4
        6.3180717296047E-4
        6.3394915194089E-4
        6.3609839274763E-4
        6.3825492000002E-4
        6.4041875840088E-4
        6.4258993273677E-4
        6.4476846787828E-4
        6.4695438878033E-4
        6.4914772048241E-4
        6.5134848810895E-4
        6.5355671686951E-4
        6.5577243205914E-4
        6.5799565905866E-4
        6.6022642333490E-4
        6.6246475044106E-4
        6.6471066601695E-4
        6.6696419578934E-4
        6.6922536557217E-4
        6.7149420126693E-4
        6.7377072886293E-4
        6.7605497443755E-4
        6.7834696415661E-4
        6.8064672427464E-4
        6.8295428113515E-4
        6.8526966117101E-4
        6.8759289090465E-4
        6.8992399694845E-4
        6.9226300600501E-4
        6.9460994486745E-4
        6.9696484041972E-4
        6.9932771963693E-4
        7.0169860958563E-4
        7.0407753742414E-4
        7.0646453040284E-4
        7.0885961586451E-4
        7.1126282124463E-4
        7.1367417407167E-4
        7.1609370196745E-4
        7.1852143264743E-4
        7.2095739392103E-4
        7.2340161369195E-4
        7.2585411995849E-4
        7.2831494081388E-4
        7.3078410444657E-4
        7.3326163914061E-4
        7.3574757327591E-4
        7.3824193532861E-4
        7.4074475387138E-4
        7.4325605757377E-4
        7.4577587520251E-4
        7.4830423562189E-4
        7.5084116779402E-4
        7.5338670077921E-4
        7.5594086373630E-4
        7.5850368592298E-4
        7.6107519669612E-4
        7.6365542551215E-4
        7.6624440192732E-4
        7.6884215559812E-4
        7.7144871628156E-4
        7.7406411383555E-4
        7.7668837821920E-4
        7.7932153949321E-4
        7.8196362782020E-4
        7.8461467346502E-4
        7.8727470679516E-4
        7.8994375828103E-4
        7.9262185849636E-4
        7.9530903811854E-4
        7.9800532792894E-4
        8.0071075881330E-4
        8.0342536176208E-4
        8.0614916787078E-4
        8.0888220834035E-4
        8.1162451447750E-4
        8.1437611769507E-4
        8.1713704951243E-4
        8.1990734155578E-4
        8.2268702555854E-4
        8.2547613336172E-4
        8.2827469691430E-4
        8.3108274827353E-4
        8.3390031960539E-4
        8.3672744318487E-4
        8.3956415139641E-4
        8.4241047673422E-4
        8.4526645180268E-4
        8.4813210931672E-4
        8.5100748210216E-4
        8.5389260309613E-4
        8.5678750534740E-4
        8.5969222201679E-4
        8.6260678637757E-4
        8.6553123181578E-4
        8.6846559183066E-4
        8.7140990003502E-4
        8.7436419015563E-4
        8.7732849603359E-4
        8.8030285162475E-4
        8.8328729100006E-4
        8.8628184834599E-4
        8.8928655796489E-4
        8.9230145427544E-4
        8.9532657181297E-4
        8.9836194522991E-4
        9.0140760929617E-4
        9.0446359889955E-4
        9.0752994904610E-4
        9.1060669486058E-4
        9.1369387158680E-4
        9.1679151458808E-4
        9.1989965934762E-4
        9.2301834146892E-4
        9.2614759667618E-4
        9.2928746081472E-4
        9.3243796985138E-4
        9.3559915987493E-4
        9.3877106709650E-4
        9.4195372784998E-4
        9.4514717859244E-4
        9.4835145590456E-4
        9.5156659649102E-4
        9.5479263718095E-4
        9.5802961492832E-4
        9.6127756681241E-4
        9.6453653003819E-4
        9.6780654193678E-4
        9.7108763996584E-4
        9.7437986171003E-4
        9.7768324488143E-4
        9.8099782731999E-4
        9.8432364699391E-4
        9.8766074200015E-4
        9.9100915056481E-4
        9.9436891104358E-4
        9.9774006192220E-4
        1.0011226418169E-3
        1.0045166894747E-3
        1.0079222437742E-3
        1.0113393437257E-3
        1.0147680284717E-3
        1.0182083372874E-3
        1.0216603095814E-3
        1.0251239848955E-3
        1.0285994029058E-3
        1.0320866034230E-3
        1.0355856263925E-3
        1.0390965118954E-3
        1.0426193001485E-3
        1.0461540315049E-3
        1.0497007464548E-3
        1.0532594856253E-3
        1.0568302897816E-3
        1.0604131998267E-3
        1.0640082568026E-3
        1.0676155018904E-3
        1.0712349764106E-3
        1.0748667218240E-3
        1.0785107797319E-3
        1.0821671918767E-3
        1.0858360001421E-3
        1.0895172465540E-3
        1.0932109732808E-3
        1.0969172226337E-3
        1.1006360370674E-3
        1.1043674591806E-3
        1.1081115317165E-3
        1.1118682975629E-3
        1.1156377997533E-3
        1.1194200814669E-3
        1.1232151860295E-3
        1.1270231569136E-3
        1.1308440377390E-3
        1.1346778722737E-3
        1.1385247044339E-3
        1.1423845782846E-3
        1.1462575380403E-3
        1.1501436280654E-3
        1.1540428928747E-3
        1.1579553771339E-3
        1.1618811256601E-3
        1.1658201834223E-3
        1.1697725955422E-3
        1.1737384072942E-3
        1.1777176641063E-3
        1.1817104115606E-3
        1.1857166953934E-3
        1.1897365614965E-3
        1.1937700559170E-3
        1.1978172248582E-3
        1.2018781146800E-3
        1.2059527718996E-3
        1.2100412431917E-3
        1.2141435753894E-3
        1.2182598154844E-3
        1.2223900106281E-3
        1.2265342081312E-3
        1.2306924554652E-3
        1.2348648002625E-3
        1.2390512903168E-3
        1.2432519735839E-3
        1.2474668981824E-3
        1.2516961123937E-3
        1.2559396646630E-3
        1.2601976036000E-3
        1.2644699779788E-3
        1.2687568367390E-3
        1.2730582289863E-3
        1.2773742039927E-3
        1.2817048111972E-3
        1.2860501002066E-3
        1.2904101207956E-3
        1.2947849229080E-3
        1.2991745566566E-3
        1.3035790723243E-3
        1.3079985203643E-3
        1.3124329514011E-3
        1.3168824162306E-3
        1.3213469658210E-3
        1.3258266513133E-3
        1.3303215240218E-3
        1.3348316354350E-3
        1.3393570372156E-3
        1.3438977812017E-3
        1.3484539194071E-3
        1.3530255040219E-3
        1.3576125874132E-3
        1.3622152221256E-3
        1.3668334608817E-3
        1.3714673565832E-3
        1.3761169623108E-3
        1.3807823313253E-3
        1.3854635170681E-3
        1.3901605731617E-3
        1.3948735534103E-3
        1.3996025118008E-3
        1.4043475025029E-3
        1.4091085798701E-3
        1.4138857984399E-3
        1.4186792129350E-3
        1.4234888782635E-3
        1.4283148495196E-3
        1.4331571819843E-3
        1.4380159311262E-3
        1.4428911526017E-3
        1.4477829022560E-3
        1.4526912361236E-3
        1.4576162104290E-3
        1.4625578815874E-3
        1.4675163062050E-3
        1.4724915410803E-3
        1.4774836432039E-3
        1.4824926697599E-3
        1.4875186781263E-3
        1.4925617258755E-3
        1.4976218707752E-3
        1.5026991707887E-3
        1.5077936840761E-3
        1.5129054689946E-3
        1.5180345840990E-3
        1.5231810881431E-3
        1.5283450400794E-3
        1.5335264990605E-3
        1.5387255244396E-3
        1.5439421757710E-3
        1.5491765128109E-3
        1.5544285955181E-3
        1.5596984840547E-3
        1.5649862387869E-3
        1.5702919202853E-3
        1.5756155893260E-3
        1.5809573068911E-3
        1.5863171341695E-3
        1.5916951325574E-3
        1.5970913636594E-3
        1.6025058892887E-3
        1.6079387714682E-3
        1.6133900724311E-3
        1.6188598546214E-3
        1.6243481806950E-3
        1.6298551135201E-3
        1.6353807161782E-3
        1.6409250519644E-3
        1.6464881843887E-3
        1.6520701771760E-3
        1.6576710942677E-3
        1.6632909998217E-3
        1.6689299582135E-3
        1.6745880340368E-3
        1.6802652921042E-3
        1.6859617974484E-3
        1.6916776153220E-3
        1.6974128111994E-3
        1.7031674507767E-3
        1.7089415999725E-3
        1.7147353249294E-3
        1.7205486920138E-3
        1.7263817678174E-3
        1.7322346191573E-3
        1.7381073130775E-3
        1.7439999168492E-3
        1.7499124979714E-3
        1.7558451241723E-3
        1.7617978634096E-3
        1.7677707838712E-3
        1.7737639539764E-3
        1.7797774423765E-3
        1.7858113179552E-3
        1.7918656498301E-3
        1.7979405073530E-3
        1.8040359601108E-3
        1.8101520779263E-3
        1.8162889308590E-3
        1.8224465892060E-3
        1.8286251235026E-3
        1.8348246045235E-3
        1.8410451032830E-3
        1.8472866910364E-3
        1.8535494392804E-3
        1.8598334197542E-3
        1.8661387044403E-3
        1.8724653655650E-3
        1.8788134755996E-3
        1.8851831072611E-3
        1.8915743335131E-3
        1.8979872275663E-3
        1.9044218628800E-3
        1.9108783131622E-3
        1.9173566523709E-3
        1.9238569547149E-3
        1.9303792946545E-3
        1.9369237469026E-3
        1.9434903864250E-3
        1.9500792884422E-3
        1.9566905284293E-3
        1.9633241821174E-3
        1.9699803254944E-3
        1.9766590348058E-3
        1.9833603865555E-3
        1.9900844575070E-3
        1.9968313246837E-3
        2.0036010653703E-3
        2.0103937571137E-3
        2.0172094777234E-3
        2.0240483052729E-3
        2.0309103181002E-3
        2.0377955948091E-3
        2.0447042142697E-3
        2.0516362556197E-3
        2.0585917982648E-3
        2.0655709218801E-3
        2.0725737064109E-3
        2.0796002320733E-3
        2.0866505793556E-3
        2.0937248290187E-3
        2.1008230620975E-3
        2.1079453599016E-3
        2.1150918040163E-3
        2.1222624763033E-3
        2.1294574589020E-3
        2.1366768342302E-3
        2.1439206849852E-3
        2.1511890941446E-3
        2.1584821449674E-3
        2.1657999209946E-3
        2.1731425060508E-3
        2.1805099842445E-3
        2.1879024399695E-3
        2.1953199579057E-3
        2.2027626230200E-3
        2.2102305205674E-3
        2.2177237360919E-3
        2.2252423554277E-3
        2.2327864646997E-3
        2.2403561503251E-3
        2.2479514990138E-3
        2.2555725977698E-3
        2.2632195338921E-3
        2.2708923949756E-3
        2.2785912689122E-3
        2.2863162438917E-3
        2.2940674084029E-3
        2.3018448512348E-3
        2.3096486614772E-3
        2.3174789285219E-3
        2.3253357420639E-3
        2.3332191921023E-3
        2.3411293689412E-3
        2.3490663631909E-3
        2.3570302657690E-3
        2.3650211679011E-3
        2.3730391611223E-3
        2.3810843372779E-3
        2.3891567885246E-3
        2.3972566073316E-3
        2.4053838864816E-3
        2.4135387190716E-3
        2.4217211985146E-3
        2.4299314185401E-3
        2.4381694731953E-3
        2.4464354568463E-3
        2.4547294641792E-3
        2.4630515902011E-3
        2.4714019302410E-3
        2.4797805799514E-3
        2.4881876353089E-3
        2.4966231926154E-3
        2.5050873484995E-3
        2.5135801999172E-3
        2.5221018441534E-3
        2.5306523788226E-3
        2.5392319018705E-3
        2.5478405115745E-3
        2.5564783065455E-3
        2.5651453857287E-3
        2.5738418484045E-3
        2.5825677941901E-3
        2.5913233230404E-3
        2.6001085352491E-3
        2.6089235314499E-3
        2.6177684126179E-3
        2.6266432800702E-3
        2.6355482354676E-3
        2.6444833808155E-3
        2.6534488184652E-3
        2.6624446511148E-3
        2.6714709818108E-3
        2.6805279139489E-3
        2.6896155512753E-3
        2.6987339978881E-3
        2.7078833582383E-3
        2.7170637371308E-3
        2.7262752397260E-3
        2.7355179715408E-3
        2.7447920384498E-3
        2.7540975466865E-3
        2.7634346028446E-3
        2.7728033138793E-3
        2.7822037871081E-3
        2.7916361302125E-3
        2.8011004512393E-3
        2.8105968586012E-3
        2.8201254610787E-3
        2.8296863678210E-3
        2.8392796883473E-3
        2.8489055325483E-3
        2.8585640106871E-3
        2.8682552334005E-3
        2.8779793117006E-3
        2.8877363569757E-3
        2.8975264809920E-3
        2.9073497958943E-3
        2.9172064142077E-3
        2.9270964488388E-3
        2.9370200130771E-3
        2.9469772205960E-3
        2.9569681854544E-3
        2.9669930220977E-3
        2.9770518453596E-3
        2.9871447704628E-3
        2.9972719130209E-3
        3.0074333890394E-3
        3.0176293149168E-3
        3.0278598074466E-3
        3.0381249838181E-3
        3.0484249616179E-3
        3.0587598588312E-3
        3.0691297938433E-3
        3.0795348854408E-3
        3.0899752528130E-3
        3.1004510155533E-3
        3.1109622936606E-3
        3.1215092075405E-3
        3.1320918780069E-3
        3.1427104262832E-3
        3.1533649740040E-3
        3.1640556432161E-3
        3.1747825563800E-3
        3.1855458363714E-3
        3.1963456064828E-3
        3.2071819904244E-3
        3.2180551123259E-3
        3.2289650967380E-3
        3.2399120686334E-3
        3.2508961534087E-3
        3.2619174768855E-3
        3.2729761653119E-3
        3.2840723453643E-3
        3.2952061441482E-3
        3.3063776892002E-3
        3.3175871084893E-3
        3.3288345304184E-3
        3.3401200838256E-3
        3.3514438979857E-3
        3.3628061026120E-3
        3.3742068278575E-3
        3.3856462043163E-3
        3.3971243630254E-3
        3.4086414354660E-3
        3.4201975535651E-3
        3.4317928496968E-3
        3.4434274566842E-3
        3.4551015078006E-3
        3.4668151367710E-3
        3.4785684777741E-3
        3.4903616654431E-3
        3.5021948348679E-3
        3.5140681215963E-3
        3.5259816616357E-3
