luts/DesatLog_to_EncodeLog.spi1d
Version 1
From 0.0 1.0
Length 4096
Components 1
{
        2.0141601562500E-4
        4.0283203125000E-4
        6.0424804687500E-4
        8.0566406250000E-4
        1.0070800781250E-3
        1.2084960937500E-3
        1.4099121093750E-3
        1.6113281250000E-3
        1.8127441406250E-3
        2.0141601562500E-3
        2.2155761718750E-3
        2.4169921875000E-3
        2.6184082031250E-3
        2.8198242187500E-3
        3.0212402343750E-3
        3.2226562500000E-3
        3.4240722656250E-3
        3.6254882812500E-3
        3.8269042968750E-3
        4.0283203125000E-3
        4.2297363281250E-3
        4.4311523437500E-3
        4.6325683593750E-3
        4.8339843750000E-3
        5.0354003906250E-3
        5.2368164062500E-3
        5.4382324218750E-3
        5.6396484375000E-3
        5.8410644531250E-3
        6.0424804687500E-3
        6.2438964843750E-3
        6.4453125000000E-3
        6.6467285156250E-3
        6.8481445312500E-3
        7.0495605468750E-3
        7.2509765625000E-3
        7.4523925781250E-3
        7.6538085937500E-3
        7.8552246093750E-3
        8.0566406250000E-3
        8.2580566406250E-3
        8.4594726562500E-3
        8.6608886718750E-3
        8.8623046875000E-3
        9.0637207031250E-3
        9.2651367187500E-3
        9.4665527343750E-3
        9.6679687500000E-3
        9.8693847656250E-3
        1.0070800781250E-2
        1.0272216796875E-2
        1.0473632812500E-2
        1.0675048828125E-2
        1.0876464843750E-2
        1.1077880859375E-2
        1.1279296875000E-2
        1.1480712890625E-2
        1.1682128906250E-2
        1.1883544921875E-2
        1.2084960937500E-2
        1.2286376953125E-2
        1.2487792968750E-2
        1.2689208984375E-2
        1.2890625000000E-2
        1.3092041015625E-2
        1.3293457031250E-2
        1.3494873046875E-2
        1.3696289062500E-2
        1.3897705078125E-2
        1.4099121093750E-2
        1.4300537109375E-2
        1.4501953125000E-2
        1.4703369140625E-2
        1.4904785156250E-2
        1.5106201171875E-2
        1.5307617187500E-2
        1.5509033203125E-2
        1.5710449218750E-2
        1.5911865234375E-2
        1.6113281250000E-2
        1.6314697265625E-2
        1.6516113281250E-2
        1.6717529296875E-2
        1.6918945312500E-2
        1.7120361328125E-2
        1.7321777343750E-2
        1.7523193359375E-2
        1.7724609375000E-2
        1.7926025390625E-2
        1.8127441406250E-2
        1.8328857421875E-2
        1.8530273437500E-2
        1.8731689453125E-2
        1.8933105468750E-2
        1.9134521484375E-2
        1.9335937500000E-2
        1.9537353515625E-2
        1.9738769531250E-2
        1.9940185546875E-2
        2.0141601562500E-2
        2.0343017578125E-2
        2.0544433593750E-2
        2.0745849609375E-2
        2.0947265625000E-2
        2.1148681640625E-2
        2.1350097656250E-2
        2.1551513671875E-2
        2.1752929687500E-2
        2.1954345703125E-2
        2.2155761718750E-2
        2.2357177734375E-2
        2.2558593750000E-2
        2.2760009765625E-2
        2.2961425781250E-2
        2.3162841796875E-2
        2.3364257812500E-2
        2.3565673828125E-2
        2.3767089843750E-2
        2.3968505859375E-2
        2.4169921875000E-2
        2.4371337890625E-2
        2.4572753906250E-2
        2.4774169921875E-2
        2.4975585937500E-2
        2.5177001953125E-2
        2.5378417968750E-2
        2.5579833984375E-2
        2.5781250000000E-2
        2.5982666015625E-2
        2.6184082031250E-2
        2.6385498046875E-2
        2.6586914062500E-2
        2.6788330078125E-2
        2.6989746093750E-2
        2.7191162109375E-2
        2.7392578125000E-2
        2.7593994140625E-2
        2.7795410156250E-2
        2.7996826171875E-2
        2.8198242187500E-2
        2.8399658203125E-2
        2.8601074218750E-2
        2.8802490234375E-2
        2.9003906250000E-2
        2.9205322265625E-2
        2.9406738281250E-2
        2.9608154296875E-2
        2.9809570312500E-2
        3.0010986328125E-2
        3.0212402343750E-2
        3.0413818359375E-2
        3.0615234375000E-2
        3.0816650390625E-2
        3.1018066406250E-2
        3.1219482421875E-2
        3.1420898437500E-2
        3.1622314453125E-2
        3.1823730468750E-2
        3.2025146484375E-2
        3.2226562500000E-2
        3.2427978515625E-2
        3.2629394531250E-2
        3.2830810546875E-2
        3.3032226562500E-2
        3.3233642578125E-2
        3.3435058593750E-2
        3.3636474609375E-2
        3.3837890625000E-2
        3.4039306640625E-2
        3.4240722656250E-2
        3.4442138671875E-2
        3.4643554687500E-2
        3.4844970703125E-2
        3.5046386718750E-2
        3.5247802734375E-2
        3.5449218750000E-2
        3.5650634765625E-2
        3.5852050781250E-2
        3.6053466796875E-2
        3.6254882812500E-2
        3.6456298828125E-2
        3.6657714843750E-2
        3.6859130859375E-2
        3.7060546875000E-2
        3.7261962890625E-2
        3.7463378906250E-2
        3.7664794921875E-2
        3.7866210937500E-2
        3.8067626953125E-2
        3.8269042968750E-2
        3.8470458984375E-2
        3.8671875000000E-2
        3.8873291015625E-2
        3.9074707031250E-2
        3.9276123046875E-2
        3.9477539062500E-2
        3.9678955078125E-2
        3.9880371093750E-2
        4.0081787109375E-2
        4.0283203125000E-2
        4.0484619140625E-2
        4.0686035156250E-2
        4.0887451171875E-2
        4.1088867187500E-2
        4.1290283203125E-2
        4.1491699218750E-2
        4.1693115234375E-2
        4.1894531250000E-2
        4.2095947265625E-2
        4.2297363281250E-2
        4.2498779296875E-2
        4.2700195312500E-2
        4.2901611328125E-2
        4.3103027343750E-2
        4.3304443359375E-2
        4.3505859375000E-2
        4.3707275390625E-2
        4.3908691406250E-2
        4.4110107421875E-2
        4.4311523437500E-2
        4.4512939453125E-2
        4.4714355468750E-2
        4.4915771484375E-2
        4.5117187500000E-2
        4.5318603515625E-2
        4.5520019531250E-2
        4.5721435546875E-2
        4.5922851562500E-2
        4.6124267578125E-2
        4.6325683593750E-2
        4.6527099609375E-2
        4.6728515625000E-2
        4.6929931640625E-2
        4.7131347656250E-2
        4.7332763671875E-2
        4.7534179687500E-2
        4.7735595703125E-2
        4.7937011718750E-2
        4.8138427734375E-2
        4.8339843750000E-2
        4.8541259765625E-2
        4.8742675781250E-2
        4.8944091796875E-2
        4.9145507812500E-2
        4.9346923828125E-2
        4.9548339843750E-2
        4.9749755859375E-2
        4.9951171875000E-2
        5.0152587890625E-2
        5.0354003906250E-2
        5.0555419921875E-2
        5.0756835937500E-2
        5.0958251953125E-2
        5.1159667968750E-2
        5.1361083984375E-2
        5.1562500000000E-2
        5.1763916015625E-2
        5.1965332031250E-2
        5.2166748046875E-2
        5.2368164062500E-2
        5.2569580078125E-2
        5.2770996093750E-2
        5.2972412109375E-2
        5.3173828125000E-2
        5.3375244140625E-2
        5.3576660156250E-2
        5.3778076171875E-2
        5.3979492187500E-2
        5.4180908203125E-2
        5.4382324218750E-2
        5.4583740234375E-2
        5.4785156250000E-2
        5.4986572265625E-2
        5.5187988281250E-2
        5.5389404296875E-2
        5.5590820312500E-2
        5.5792236328125E-2
        5.5993652343750E-2
        5.6195068359375E-2
        5.6396484375000E-2
        5.6597900390625E-2
        5.6799316406250E-2
        5.7000732421875E-2
        5.7202148437500E-2
        5.7403564453125E-2
        5.7604980468750E-2
        5.7806396484375E-2
        5.8007812500000E-2
        5.8209228515625E-2
        5.8410644531250E-2
        5.8612060546875E-2
        5.8813476562500E-2
        5.9014892578125E-2
        5.9216308593750E-2
        5.9417724609375E-2
        5.9619140625000E-2
        5.9820556640625E-2
        6.0021972656250E-2
        6.0223388671875E-2
        6.0424804687500E-2
        6.0626220703125E-2
        6.0827636718750E-2
        6.1029052734375E-2
        6.1230468750000E-2
        6.1431884765625E-2
        6.1633300781250E-2
        6.1834716796875E-2
        6.2036132812500E-2
        6.2237548828125E-2
        6.2438964843750E-2
        6.2640380859375E-2
        6.2841796875000E-2
        6.3043212890625E-2
        6.3244628906250E-2
        6.3446044921875E-2
        6.3647460937500E-2
        6.3848876953125E-2
        6.4050292968750E-2
        6.4251708984375E-2
        6.4453125000000E-2
        6.4654541015625E-2
        6.4855957031250E-2
        6.5057373046875E-2
        6.5258789062500E-2
        6.5460205078125E-2
        6.5661621093750E-2
        6.5863037109375E-2
        6.6064453125000E-2
        6.6265869140625E-2
        6.6467285156250E-2
        6.6668701171875E-2
        6.6870117187500E-2
        6.7071533203125E-2
        6.7272949218750E-2
        6.7474365234375E-2
        6.7675781250000E-2
        6.7877197265625E-2
        6.8078613281250E-2
        6.8280029296875E-2
        6.8481445312500E-2
        6.8682861328125E-2
        6.8884277343750E-2
        6.9085693359375E-2
        6.9287109375000E-2
        6.9488525390625E-2
        6.9689941406250E-2
        6.9891357421875E-2
        7.0092773437500E-2
        7.0294189453125E-2
        7.0495605468750E-2
        7.0697021484375E-2
        7.0898437500000E-2
        7.1099853515625E-2
        7.1301269531250E-2
        7.1502685546875E-2
        7.1704101562500E-2
        7.1905517578125E-2
        7.2106933593750E-2
        7.2308349609375E-2
        7.2509765625000E-2
        7.2711181640625E-2
        7.2912597656250E-2
        7.3114013671875E-2
        7.3315429687500E-2
        7.3516845703125E-2
        7.3718261718750E-2
        7.3919677734375E-2
        7.4121093750000E-2
        7.4322509765625E-2
        7.4523925781250E-2
        7.4725341796875E-2
        7.4926757812500E-2
        7.5128173828125E-2
        7.5329589843750E-2
        7.5531005859375E-2
        7.5732421875000E-2
        7.5933837890625E-2
        7.6135253906250E-2
        7.6336669921875E-2
        7.6538085937500E-2
        7.6739501953125E-2
        7.6940917968750E-2
        7.7142333984375E-2
        7.7343750000000E-2
        7.7545166015625E-2
        7.7746582031250E-2
        7.7947998046875E-2
        7.8149414062500E-2
        7.8350830078125E-2
        7.8552246093750E-2
        7.8753662109375E-2
        7.8955078125000E-2
        7.9156494140625E-2
        7.9357910156250E-2
        7.9559326171875E-2
        7.9760742187500E-2
        7.9962158203125E-2
        8.0163574218750E-2
        8.0364990234375E-2
        8.0566406250000E-2
        8.0767822265625E-2
        8.0969238281250E-2
        8.1170654296875E-2
        8.1372070312500E-2
        8.1573486328125E-2
        8.1774902343750E-2
        8.1976318359375E-2
        8.2177734375000E-2
        8.2379150390625E-2
        8.2580566406250E-2
        8.2781982421875E-2
        8.2983398437500E-2
        8.3184814453125E-2
        8.3386230468750E-2
        8.3587646484375E-2
        8.3789062500000E-2
        8.3990478515625E-2
        8.4191894531250E-2
        8.4393310546875E-2
        8.4594726562500E-2
        8.4796142578125E-2
        8.4997558593750E-2
        8.5198974609375E-2
        8.5400390625000E-2
        8.5601806640625E-2
        8.5803222656250E-2
        8.6004638671875E-2
        8.6206054687500E-2
        8.6407470703125E-2
        8.6608886718750E-2
        8.6810302734375E-2
        8.7011718750000E-2
        8.7213134765625E-2
        8.7414550781250E-2
        8.7615966796875E-2
        8.7817382812500E-2
        8.8018798828125E-2
        8.8220214843750E-2
        8.8421630859375E-2
        8.8623046875000E-2
        8.8824462890625E-2
        8.9025878906250E-2
        8.9227294921875E-2
        8.9428710937500E-2
        8.9630126953125E-2
        8.9831542968750E-2
        9.0032958984375E-2
        9.0234375000000E-2
        9.0435791015625E-2
        9.0637207031250E-2
        9.0838623046875E-2
        9.1040039062500E-2
        9.1241455078125E-2
        9.1442871093750E-2
        9.1644287109375E-2
        9.1845703125000E-2
        9.2047119140625E-2
        9.2248535156250E-2
        9.2449951171875E-2
        9.2651367187500E-2
        9.2852783203125E-2
        9.3054199218750E-2
        9.3255615234375E-2
        9.3457031250000E-2
        9.3658447265625E-2
        9.3859863281250E-2
        9.4061279296875E-2
        9.4262695312500E-2
        9.4464111328125E-2
        9.4665527343750E-2
        9.4866943359375E-2
        9.5068359375000E-2
        9.5269775390625E-2
        9.5471191406250E-2
        9.5672607421875E-2
        9.5874023437500E-2
        9.6075439453125E-2
        9.6276855468750E-2
        9.6478271484375E-2
        9.6679687500000E-2
        9.6881103515625E-2
        9.7082519531250E-2
        9.7283935546875E-2
        9.7485351562500E-2
        9.7686767578125E-2
        9.7888183593750E-2
        9.8089599609375E-2
        9.8291015625000E-2
        9.8492431640625E-2
        9.8693847656250E-2
        9.8895263671875E-2
        9.9096679687500E-2
        9.9298095703125E-2
        9.9499511718750E-2
        9.9700927734375E-2
        9.9902343750000E-2
        1.0010375976563E-1
        1.0030517578125E-1
        1.0050659179688E-1
        1.0070800781250E-1
        1.0090942382813E-1
        1.0111083984375E-1
        1.0131225585938E-1
        1.0151367187500E-1
        1.0171508789063E-1
        1.0191650390625E-1
        1.0211791992188E-1
        1.0231933593750E-1
        1.0252075195313E-1
        1.0272216796875E-1
        1.0292358398438E-1
        1.0312500000000E-1
        1.0332641601563E-1
        1.0352783203125E-1
        1.0372924804688E-1
        1.0393066406250E-1
        1.0413208007813E-1
        1.0433349609375E-1
        1.0453491210938E-1
        1.0473632812500E-1
        1.0493774414063E-1
        1.0513916015625E-1
        1.0534057617188E-1
        1.0554199218750E-1
        1.0574340820313E-1
        1.0594482421875E-1
        1.0614624023438E-1
        1.0634765625000E-1
        1.0654907226563E-1
        1.0675048828125E-1
        1.0695190429688E-1
        1.0715332031250E-1
        1.0735473632813E-1
        1.0755615234375E-1
        1.0775756835938E-1
        1.0795898437500E-1
        1.0816040039063E-1
        1.0836181640625E-1
        1.0856323242188E-1
        1.0876464843750E-1
        1.0896606445313E-1
        1.0916748046875E-1
        1.0936889648438E-1
        1.0957031250000E-1
        1.0977172851563E-1
        1.0997314453125E-1
        1.1017456054688E-1
        1.1037597656250E-1
        1.1057739257813E-1
        1.1077880859375E-1
        1.1098022460938E-1
        1.1118164062500E-1
        1.1138305664063E-1
        1.1158447265625E-1
        1.1178588867188E-1
        1.1198730468750E-1
        1.1218872070313E-1
        1.1239013671875E-1
        1.1259155273438E-1
        1.1279296875000E-1
        1.1299438476563E-1
        1.1319580078125E-1
        1.1339721679688E-1
        1.1359863281250E-1
        1.1380004882813E-1
        1.1400146484375E-1
        1.1420288085938E-1
        1.1440429687500E-1
        1.1460571289063E-1
        1.1480712890625E-1
        1.1500854492188E-1
        1.1520996093750E-1
        1.1541137695313E-1
        1.1561279296875E-1
        1.1581420898438E-1
        1.1601562500000E-1
        1.1621704101563E-1
        1.1641845703125E-1
        1.1661987304688E-1
        1.1682128906250E-1
        1.1702270507813E-1
        1.1722412109375E-1
        1.1742553710938E-1
        1.1762695312500E-1
        1.1782836914063E-1
        1.1802978515625E-1
        1.1823120117188E-1
        1.1843261718750E-1
        1.1863403320313E-1
        1.1883544921875E-1
        1.1903686523438E-1
        1.1923828125000E-1
        1.1943969726563E-1
        1.1964111328125E-1
        1.1984252929688E-1
        1.2004394531250E-1
        1.2024536132813E-1
        1.2044677734375E-1
        1.2064819335938E-1
        1.2084960937500E-1
        1.2105102539063E-1
        1.2125244140625E-1
        1.2145385742188E-1
        1.2165527343750E-1
        1.2185668945313E-1
        1.2205810546875E-1
        1.2225952148438E-1
        1.2246093750000E-1
        1.2266235351563E-1
        1.2286376953125E-1
        1.2306518554688E-1
        1.2326660156250E-1
        1.2346801757813E-1
        1.2366943359375E-1
        1.2387084960938E-1
        1.2407226562500E-1
        1.2427368164063E-1
        1.2447509765625E-1
        1.2467651367188E-1
        1.2487792968750E-1
        1.2507934570313E-1
        1.2528076171875E-1
        1.2548217773438E-1
        1.2568359375000E-1
        1.2588500976563E-1
        1.2608642578125E-1
        1.2628784179688E-1
        1.2648925781250E-1
        1.2669067382813E-1
        1.2689208984375E-1
        1.2709350585938E-1
        1.2729492187500E-1
        1.2749633789063E-1
        1.2769775390625E-1
        1.2789916992188E-1
        1.2810058593750E-1
        1.2830200195313E-1
        1.2850341796875E-1
        1.2870483398438E-1
        1.2890625000000E-1
        1.2910766601563E-1
        1.2930908203125E-1
        1.2951049804688E-1
        1.2971191406250E-1
        1.2991333007813E-1
        1.3011474609375E-1
        1.3031616210938E-1
        1.3051757812500E-1
        1.3071899414063E-1
        1.3092041015625E-1
        1.3112182617188E-1
        1.3132324218750E-1
        1.3152465820313E-1
        1.3172607421875E-1
        1.3192749023438E-1
        1.3212890625000E-1
        1.3233032226563E-1
        1.3253173828125E-1
        1.3273315429688E-1
        1.3293457031250E-1
        1.3313598632813E-1
        1.3333740234375E-1
        1.3353881835938E-1
        1.3374023437500E-1
        1.3394165039063E-1
        1.3414306640625E-1
        1.3434448242188E-1
        1.3454589843750E-1
        1.3474731445313E-1
        1.3494873046875E-1
        1.3515014648438E-1
        1.3535156250000E-1
        1.3555297851563E-1
        1.3575439453125E-1
        1.3595581054688E-1
        1.3615722656250E-1
        1.3635864257813E-1
        1.3656005859375E-1
        1.3676147460938E-1
        1.3696289062500E-1
        1.3716430664063E-1
        1.3736572265625E-1
        1.3756713867188E-1
        1.3776855468750E-1
        1.3796997070313E-1
        1.3817138671875E-1
        1.3837280273438E-1
        1.3857421875000E-1
        1.3877563476563E-1
        1.3897705078125E-1
        1.3917846679688E-1
        1.3937988281250E-1
        1.3958129882813E-1
        1.3978271484375E-1
        1.3998413085938E-1
        1.4018554687500E-1
        1.4038696289063E-1
        1.4058837890625E-1
        1.4078979492188E-1
        1.4099121093750E-1
        1.4119262695313E-1
        1.4139404296875E-1
        1.4159545898438E-1
        1.4179687500000E-1
        1.4199829101563E-1
        1.4219970703125E-1
        1.4240112304688E-1
        1.4260253906250E-1
        1.4280395507813E-1
        1.4300537109375E-1
        1.4320678710938E-1
        1.4340820312500E-1
        1.4360961914063E-1
        1.4381103515625E-1
        1.4401245117188E-1
        1.4421386718750E-1
        1.4441528320313E-1
        1.4461669921875E-1
        1.4481811523438E-1
        1.4501953125000E-1
        1.4522094726563E-1
        1.4542236328125E-1
        1.4562377929688E-1
        1.4582519531250E-1
        1.4602661132813E-1
        1.4622802734375E-1
        1.4642944335938E-1
        1.4663085937500E-1
        1.4683227539063E-1
        1.4703369140625E-1
        1.4723510742188E-1
        1.4743652343750E-1
        1.4763793945313E-1
        1.4783935546875E-1
        1.4804077148438E-1
        1.4824218750000E-1
        1.4844360351563E-1
        1.4864501953125E-1
        1.4884643554688E-1
        1.4904785156250E-1
        1.4924926757813E-1
        1.4945068359375E-1
        1.4965209960938E-1
        1.4985351562500E-1
        1.5005493164063E-1
        1.5025634765625E-1
        1.5045776367188E-1
        1.5065917968750E-1
        1.5086059570313E-1
        1.5106201171875E-1
        1.5126342773438E-1
        1.5146484375000E-1
        1.5166625976563E-1
        1.5186767578125E-1
        1.5206909179688E-1
        1.5227050781250E-1
        1.5247192382813E-1
        1.5267333984375E-1
        1.5287475585938E-1
        1.5307617187500E-1
        1.5327758789063E-1
        1.5347900390625E-1
        1.5368041992188E-1
        1.5388183593750E-1
        1.5408325195313E-1
        1.5428466796875E-1
        1.5448608398438E-1
        1.5468750000000E-1
        1.5488891601563E-1
        1.5509033203125E-1
        1.5529174804688E-1
        1.5549316406250E-1
        1.5569458007813E-1
        1.5589599609375E-1
        1.5609741210938E-1
        1.5629882812500E-1
        1.5650024414063E-1
        1.5670166015625E-1
        1.5690307617188E-1
        1.5710449218750E-1
        1.5730590820313E-1
        1.5750732421875E-1
        1.5770874023438E-1
        1.5791015625000E-1
        1.5811157226563E-1
        1.5831298828125E-1
        1.5851440429688E-1
        1.5871582031250E-1
        1.5891723632813E-1
        1.5911865234375E-1
        1.5932006835938E-1
        1.5952148437500E-1
        1.5972290039063E-1
        1.5992431640625E-1
        1.6012573242188E-1
        1.6032714843750E-1
        1.6052856445313E-1
        1.6072998046875E-1
        1.6093139648438E-1
        1.6113281250000E-1
        1.6133422851563E-1
        1.6153564453125E-1
        1.6173706054688E-1
        1.6193847656250E-1
        1.6213989257813E-1
        1.6234130859375E-1
        1.6254272460938E-1
        1.6274414062500E-1
        1.6294555664063E-1
        1.6314697265625E-1
        1.6334838867188E-1
        1.6354980468750E-1
        1.6375122070313E-1
        1.6395263671875E-1
        1.6415405273438E-1
        1.6435546875000E-1
        1.6455688476563E-1
        1.6475830078125E-1
        1.6495971679688E-1
        1.6516113281250E-1
        1.6536254882813E-1
        1.6556396484375E-1
        1.6576538085938E-1
        1.6596679687500E-1
        1.6616821289063E-1
        1.6636962890625E-1
        1.6657104492188E-1
        1.6677246093750E-1
        1.6697387695313E-1
        1.6717529296875E-1
        1.6737670898438E-1
        1.6757812500000E-1
        1.6777954101563E-1
        1.6798095703125E-1
        1.6818237304688E-1
        1.6838378906250E-1
        1.6858520507813E-1
        1.6878662109375E-1
        1.6898803710938E-1
        1.6918945312500E-1
        1.6939086914063E-1
        1.6959228515625E-1
        1.6979370117188E-1
        1.6999511718750E-1
        1.7019653320313E-1
        1.7039794921875E-1
        1.7059936523438E-1
        1.7080078125000E-1
        1.7100219726563E-1
        1.7120361328125E-1
        1.7140502929688E-1
        1.7160644531250E-1
        1.7180786132813E-1
        1.7200927734375E-1
        1.7221069335938E-1
        1.7241210937500E-1
        1.7261352539063E-1
        1.7281494140625E-1
        1.7301635742188E-1
        1.7321777343750E-1
        1.7341918945313E-1
        1.7362060546875E-1
        1.7382202148438E-1
        1.7402343750000E-1
        1.7422485351563E-1
        1.7442626953125E-1
        1.7462768554688E-1
        1.7482910156250E-1
        1.7503051757813E-1
        1.7523193359375E-1
        1.7543334960938E-1
        1.7563476562500E-1
        1.7583618164063E-1
        1.7603759765625E-1
        1.7623901367188E-1
        1.7644042968750E-1
        1.7664184570313E-1
        1.7684326171875E-1
        1.7704467773438E-1
        1.7724609375000E-1
        1.7744750976563E-1
        1.7764892578125E-1
        1.7785034179688E-1
        1.7805175781250E-1
        1.7825317382813E-1
        1.7845458984375E-1
        1.7865600585938E-1
