luts/F-Log_to_Linear.spi1d
Version 1
From 0.000000 1.000000
Length 4096
Components 1
{
        -0.010630485651
        -0.010602531146
        -0.010574576640
        -0.010546622135
        -0.010518667630
        -0.010490713124
        -0.010462758619
        -0.010434804113
        -0.010406849608
        -0.010378895102
        -0.010350940597
        -0.010322986092
        -0.010295031586
        -0.010267077081
        -0.010239122575
        -0.010211168070
        -0.010183213564
        -0.010155259059
        -0.010127304554
        -0.010099350048
        -0.010071395543
        -0.010043441037
        -0.010015486532
        -0.009987532026
        -0.009959577521
        -0.009931623016
        -0.009903668510
        -0.009875714005
        -0.009847759499
        -0.009819804994
        -0.009791850488
        -0.009763895983
        -0.009735941478
        -0.009707986972
        -0.009680032467
        -0.009652077961
        -0.009624123456
        -0.009596168950
        -0.009568214445
        -0.009540259940
        -0.009512305434
        -0.009484350929
        -0.009456396423
        -0.009428441918
        -0.009400487412
        -0.009372532907
        -0.009344578402
        -0.009316623896
        -0.009288669391
        -0.009260714885
        -0.009232760380
        -0.009204805874
        -0.009176851369
        -0.009148896864
        -0.009120942358
        -0.009092987853
        -0.009065033347
        -0.009037078842
        -0.009009124336
        -0.008981169831
        -0.008953215326
        -0.008925260820
        -0.008897306315
        -0.008869351809
        -0.008841397304
        -0.008813442798
        -0.008785488293
        -0.008757533788
        -0.008729579282
        -0.008701624777
        -0.008673670271
        -0.008645715766
        -0.008617761260
        -0.008589806755
        -0.008561852250
        -0.008533897744
        -0.008505943239
        -0.008477988733
        -0.008450034228
        -0.008422079722
        -0.008394125217
        -0.008366170712
        -0.008338216206
        -0.008310261701
        -0.008282307195
        -0.008254352690
        -0.008226398184
        -0.008198443679
        -0.008170489174
        -0.008142534668
        -0.008114580163
        -0.008086625657
        -0.008058671152
        -0.008030716646
        -0.008002762141
        -0.007974807636
        -0.007946853130
        -0.007918898625
        -0.007890944119
        -0.007862989614
        -0.007835035109
        -0.007807080603
        -0.007779126098
        -0.007751171592
        -0.007723217087
        -0.007695262581
        -0.007667308076
        -0.007639353571
        -0.007611399065
        -0.007583444560
        -0.007555490054
        -0.007527535549
        -0.007499581043
        -0.007471626538
        -0.007443672033
        -0.007415717527
        -0.007387763022
        -0.007359808516
        -0.007331854011
        -0.007303899505
        -0.007275945000
        -0.007247990495
        -0.007220035989
        -0.007192081484
        -0.007164126978
        -0.007136172473
        -0.007108217967
        -0.007080263462
        -0.007052308957
        -0.007024354451
        -0.006996399946
        -0.006968445440
        -0.006940490935
        -0.006912536429
        -0.006884581924
        -0.006856627419
        -0.006828672913
        -0.006800718408
        -0.006772763902
        -0.006744809397
        -0.006716854891
        -0.006688900386
        -0.006660945881
        -0.006632991375
        -0.006605036870
        -0.006577082364
        -0.006549127859
        -0.006521173353
        -0.006493218848
        -0.006465264343
        -0.006437309837
        -0.006409355332
        -0.006381400826
        -0.006353446321
        -0.006325491815
        -0.006297537310
        -0.006269582805
        -0.006241628299
        -0.006213673794
        -0.006185719288
        -0.006157764783
        -0.006129810277
        -0.006101855772
        -0.006073901267
        -0.006045946761
        -0.006017992256
        -0.005990037750
        -0.005962083245
        -0.005934128739
        -0.005906174234
        -0.005878219729
        -0.005850265223
        -0.005822310718
        -0.005794356212
        -0.005766401707
        -0.005738447201
        -0.005710492696
        -0.005682538191
        -0.005654583685
        -0.005626629180
        -0.005598674674
        -0.005570720169
        -0.005542765663
        -0.005514811158
        -0.005486856653
        -0.005458902147
        -0.005430947642
        -0.005402993136
        -0.005375038631
        -0.005347084125
        -0.005319129620
        -0.005291175115
        -0.005263220609
        -0.005235266104
        -0.005207311598
        -0.005179357093
        -0.005151402587
        -0.005123448082
        -0.005095493577
        -0.005067539071
        -0.005039584566
        -0.005011630060
        -0.004983675555
        -0.004955721049
        -0.004927766544
        -0.004899812039
        -0.004871857533
        -0.004843903028
        -0.004815948522
        -0.004787994017
        -0.004760039512
        -0.004732085006
        -0.004704130501
        -0.004676175995
        -0.004648221490
        -0.004620266984
        -0.004592312479
        -0.004564357974
        -0.004536403468
        -0.004508448963
        -0.004480494457
        -0.004452539952
        -0.004424585446
        -0.004396630941
        -0.004368676436
        -0.004340721930
        -0.004312767425
        -0.004284812919
        -0.004256858414
        -0.004228903908
        -0.004200949403
        -0.004172994898
        -0.004145040392
        -0.004117085887
        -0.004089131381
        -0.004061176876
        -0.004033222370
        -0.004005267865
        -0.003977313360
        -0.003949358854
        -0.003921404349
        -0.003893449843
        -0.003865495338
        -0.003837540832
        -0.003809586327
        -0.003781631822
        -0.003753677316
        -0.003725722811
        -0.003697768305
        -0.003669813800
        -0.003641859294
        -0.003613904789
        -0.003585950284
        -0.003557995778
        -0.003530041273
        -0.003502086767
        -0.003474132262
        -0.003446177756
        -0.003418223251
        -0.003390268746
        -0.003362314240
        -0.003334359735
        -0.003306405229
        -0.003278450724
        -0.003250496218
        -0.003222541713
        -0.003194587208
        -0.003166632702
        -0.003138678197
        -0.003110723691
        -0.003082769186
        -0.003054814680
        -0.003026860175
        -0.002998905670
        -0.002970951164
        -0.002942996659
        -0.002915042153
        -0.002887087648
        -0.002859133142
        -0.002831178637
        -0.002803224132
        -0.002775269626
        -0.002747315121
        -0.002719360615
        -0.002691406110
        -0.002663451604
        -0.002635497099
        -0.002607542594
        -0.002579588088
        -0.002551633583
        -0.002523679077
        -0.002495724572
        -0.002467770066
        -0.002439815561
        -0.002411861056
        -0.002383906550
        -0.002355952045
        -0.002327997539
        -0.002300043034
        -0.002272088528
        -0.002244134023
        -0.002216179518
        -0.002188225012
        -0.002160270507
        -0.002132316001
        -0.002104361496
        -0.002076406990
        -0.002048452485
        -0.002020497980
        -0.001992543474
        -0.001964588969
        -0.001936634463
        -0.001908679958
        -0.001880725452
        -0.001852770947
        -0.001824816442
        -0.001796861936
        -0.001768907431
        -0.001740952925
        -0.001712998420
        -0.001685043915
        -0.001657089409
        -0.001629134904
        -0.001601180398
        -0.001573225893
        -0.001545271387
        -0.001517316882
        -0.001489362377
        -0.001461407871
        -0.001433453366
        -0.001405498860
        -0.001377544355
        -0.001349589849
        -0.001321635344
        -0.001293680839
        -0.001265726333
        -0.001237771828
        -0.001209817322
        -0.001181862817
        -0.001153908311
        -0.001125953806
        -0.001097999301
        -0.001070044795
        -0.001042090290
        -0.001014135784
        -0.000986181279
        -0.000958226773
        -0.000930272268
        -0.000902317763
        -0.000874363257
        -0.000846408752
        -0.000818454246
        -0.000790499741
        -0.000762545235
        -0.000734590730
        -0.000706636225
        -0.000678681719
        -0.000650727214
        -0.000622772708
        -0.000594818203
        -0.000566863697
        -0.000538909192
        -0.000510954687
        -0.000483000181
        -0.000455045676
        -0.000427091170
        -0.000399136665
        -0.000371182159
        -0.000343227654
        -0.000315273149
        -0.000287318643
        -0.000259364138
        -0.000231409632
        -0.000203455127
        -0.000175500621
        -0.000147546116
        -0.000119591611
        -0.000091637105
        -0.000063682600
        -0.000035728094
        -0.000007773589
        0.000020180917
        0.000048135422
        0.000076089927
        0.000104044433
        0.000131998938
        0.000159953444
        0.000187907949
        0.000215862455
        0.000243816960
        0.000271771465
        0.000299725971
        0.000327680476
        0.000355634982
        0.000383589487
        0.000411543993
        0.000439498498
        0.000467453003
        0.000495407509
        0.000523362014
        0.000551316520
        0.000579271025
        0.000607225531
        0.000635180036
        0.000663134541
        0.000691089047
        0.000719043552
        0.000746998058
        0.000774952563
        0.000802907069
        0.000830861574
        0.000858816079
        0.000898714335
        0.000928006679
        0.000957346848
        0.000986734920
        0.001016170974
        0.001045655088
        0.001075187341
        0.001104767811
        0.001134396577
        0.001164073718
        0.001193799312
        0.001223573439
        0.001253396178
        0.001283267609
        0.001313187810
        0.001343156862
        0.001373174845
        0.001403241837
        0.001433357920
        0.001463523173
        0.001493737677
        0.001524001512
        0.001554314759
        0.001584677498
        0.001615089810
        0.001645551775
        0.001676063477
        0.001706624994
        0.001737236409
        0.001767897803
        0.001798609258
        0.001829370855
        0.001860182676
        0.001891044804
        0.001921957320
        0.001952920307
        0.001983933848
        0.002014998023
        0.002046112917
        0.002077278612
        0.002108495192
        0.002139762738
        0.002171081335
        0.002202451065
        0.002233872013
        0.002265344261
        0.002296867895
        0.002328442996
        0.002360069650
        0.002391747941
        0.002423477953
        0.002455259770
        0.002487093477
        0.002518979159
        0.002550916900
        0.002582906786
        0.002614948902
        0.002647043333
        0.002679190164
        0.002711389481
        0.002743641370
        0.002775945916
        0.002808303206
        0.002840713325
        0.002873176361
        0.002905692398
        0.002938261524
        0.002970883826
        0.003003559390
        0.003036288303
        0.003069070652
        0.003101906525
        0.003134796009
        0.003167739192
        0.003200736160
        0.003233787003
        0.003266891808
        0.003300050662
        0.003333263655
        0.003366530875
        0.003399852410
        0.003433228348
        0.003466658780
        0.003500143793
        0.003533683477
        0.003567277921
        0.003600927214
        0.003634631447
        0.003668390708
        0.003702205088
        0.003736074676
        0.003769999564
        0.003803979840
        0.003838015595
        0.003872106921
        0.003906253907
        0.003940456645
        0.003974715225
        0.004009029739
        0.004043400279
        0.004077826935
        0.004112309799
        0.004146848963
        0.004181444520
        0.004216096560
        0.004250805176
        0.004285570461
        0.004320392507
        0.004355271407
        0.004390207253
        0.004425200139
        0.004460250158
        0.004495357403
        0.004530521967
        0.004565743944
        0.004601023428
        0.004636360512
        0.004671755292
        0.004707207860
        0.004742718311
        0.004778286740
        0.004813913241
        0.004849597910
        0.004885340841
        0.004921142129
        0.004957001869
        0.004992920158
        0.005028897090
        0.005064932762
        0.005101027269
        0.005137180707
        0.005173393173
        0.005209664763
        0.005245995573
        0.005282385700
        0.005318835241
        0.005355344293
        0.005391912954
        0.005428541319
        0.005465229488
        0.005501977557
        0.005538785625
        0.005575653789
        0.005612582148
        0.005649570799
        0.005686619841
        0.005723729374
        0.005760899494
        0.005798130303
        0.005835421897
        0.005872774378
        0.005910187844
        0.005947662394
        0.005985198129
        0.006022795149
        0.006060453553
        0.006098173441
        0.006135954915
        0.006173798074
        0.006211703020
        0.006249669853
        0.006287698674
        0.006325789584
        0.006363942686
        0.006402158079
        0.006440435867
        0.006478776151
        0.006517179033
        0.006555644615
        0.006594172999
        0.006632764289
        0.006671418586
        0.006710135994
        0.006748916616
        0.006787760555
        0.006826667914
        0.006865638797
        0.006904673307
        0.006943771549
        0.006982933626
        0.007022159644
        0.007061449705
        0.007100803915
        0.007140222378
        0.007179705200
        0.007219252485
        0.007258864338
        0.007298540866
        0.007338282173
        0.007378088366
        0.007417959551
        0.007457895832
        0.007497897318
        0.007537964113
        0.007578096326
        0.007618294062
        0.007658557429
        0.007698886534
        0.007739281483
        0.007779742386
        0.007820269348
        0.007860862479
        0.007901521886
        0.007942247678
        0.007983039962
        0.008023898848
        0.008064824443
        0.008105816858
        0.008146876201
        0.008188002581
        0.008229196108
        0.008270456892
        0.008311785041
        0.008353180667
        0.008394643880
        0.008436174789
        0.008477773505
        0.008519440140
        0.008561174803
        0.008602977607
        0.008644848661
        0.008686788079
        0.008728795970
        0.008770872448
        0.008813017624
        0.008855231609
        0.008897514518
        0.008939866461
        0.008982287553
        0.009024777905
        0.009067337631
        0.009109966843
        0.009152665657
        0.009195434184
        0.009238272540
        0.009281180837
        0.009324159191
        0.009367207715
        0.009410326524
        0.009453515733
        0.009496775457
        0.009540105811
        0.009583506910
        0.009626978870
        0.009670521806
        0.009714135834
        0.009757821071
        0.009801577633
        0.009845405636
        0.009889305196
        0.009933276431
        0.009977319458
        0.010021434394
        0.010065621355
        0.010109880461
        0.010154211828
        0.010198615575
        0.010243091820
        0.010287640680
        0.010332262276
        0.010376956725
        0.010421724146
        0.010466564659
        0.010511478382
        0.010556465436
        0.010601525941
        0.010646660015
        0.010691867779
        0.010737149354
        0.010782504860
        0.010827934418
        0.010873438148
        0.010919016172
        0.010964668611
        0.011010395586
        0.011056197220
        0.011102073634
        0.011148024950
        0.011194051290
        0.011240152777
        0.011286329534
        0.011332581684
        0.011378909349
        0.011425312653
        0.011471791720
        0.011518346673
        0.011564977636
        0.011611684732
        0.011658468088
        0.011705327826
        0.011752264072
        0.011799276951
        0.011846366587
        0.011893533106
        0.011940776634
        0.011988097296
        0.012035495218
        0.012082970527
        0.012130523348
        0.012178153808
        0.012225862035
        0.012273648154
        0.012321512294
        0.012369454581
        0.012417475144
        0.012465574109
        0.012513751605
        0.012562007760
        0.012610342703
        0.012658756562
        0.012707249467
        0.012755821545
        0.012804472927
        0.012853203741
        0.012902014118
        0.012950904188
        0.012999874080
        0.013048923925
        0.013098053853
        0.013147263996
        0.013196554484
        0.013245925448
        0.013295377020
        0.013344909331
        0.013394522513
        0.013444216699
        0.013493992020
        0.013543848608
        0.013593786598
        0.013643806121
        0.013693907310
        0.013744090300
        0.013794355223
        0.013844702213
        0.013895131405
        0.013945642932
        0.013996236929
        0.014046913530
        0.014097672871
        0.014148515087
        0.014199440312
        0.014250448683
        0.014301540335
        0.014352715403
        0.014403974025
        0.014455316337
        0.014506742475
        0.014558252577
        0.014609846778
        0.014661525218
        0.014713288032
        0.014765135359
        0.014817067337
        0.014869084104
        0.014921185799
        0.014973372560
        0.015025644526
        0.015078001836
        0.015130444629
        0.015182973046
        0.015235587226
        0.015288287308
        0.015341073434
        0.015393945743
        0.015446904376
        0.015499949475
        0.015553081180
        0.015606299634
        0.015659604976
        0.015712997350
        0.015766476898
        0.015820043761
        0.015873698083
        0.015927440006
        0.015981269673
        0.016035187227
        0.016089192812
        0.016143286572
        0.016197468651
        0.016251739192
        0.016306098340
        0.016360546241
        0.016415083038
        0.016469708877
        0.016524423904
        0.016579228263
        0.016634122102
        0.016689105565
        0.016744178799
        0.016799341951
        0.016854595168
        0.016909938597
        0.016965372384
        0.017020896678
        0.017076511626
        0.017132217376
        0.017188014077
        0.017243901877
        0.017299880924
        0.017355951368
        0.017412113358
        0.017468367044
        0.017524712575
        0.017581150100
        0.017637679771
        0.017694301738
        0.017751016151
        0.017807823161
        0.017864722920
        0.017921715579
        0.017978801289
        0.018035980203
        0.018093252473
        0.018150618251
        0.018208077690
        0.018265630942
        0.018323278161
        0.018381019501
        0.018438855115
        0.018496785156
        0.018554809780
        0.018612929140
        0.018671143391
        0.018729452689
        0.018787857187
        0.018846357043
        0.018904952411
        0.018963643447
        0.019022430308
        0.019081313149
        0.019140292129
        0.019199367403
        0.019258539129
        0.019317807464
        0.019377172567
        0.019436634595
        0.019496193706
        0.019555850059
        0.019615603812
        0.019675455125
        0.019735404157
        0.019795451068
        0.019855596016
        0.019915839164
        0.019976180669
        0.020036620695
        0.020097159400
        0.020157796946
        0.020218533495
        0.020279369209
        0.020340304248
        0.020401338776
        0.020462472955
        0.020523706947
        0.020585040915
        0.020646475023
        0.020708009434
        0.020769644313
        0.020831379822
        0.020893216126
        0.020955153390
        0.021017191779
        0.021079331458
        0.021141572592
        0.021203915346
        0.021266359887
        0.021328906381
        0.021391554995
        0.021454305894
        0.021517159247
        0.021580115220
        0.021643173981
        0.021706335697
        0.021769600538
        0.021832968670
        0.021896440264
        0.021960015487
        0.022023694509
        0.022087477499
        0.022151364628
        0.022215356065
        0.022279451980
        0.022343652545
        0.022407957929
        0.022472368304
        0.022536883842
        0.022601504714
        0.022666231092
        0.022731063149
        0.022796001057
        0.022861044988
        0.022926195117
        0.022991451615
        0.023056814658
        0.023122284418
        0.023187861071
        0.023253544790
        0.023319335751
        0.023385234128
        0.023451240097
        0.023517353834
        0.023583575515
        0.023649905315
        0.023716343411
        0.023782889981
        0.023849545201
        0.023916309249
        0.023983182302
        0.024050164538
        0.024117256135
        0.024184457273
        0.024251768130
        0.024319188885
        0.024386719717
        0.024454360807
        0.024522112334
        0.024589974478
        0.024657947421
        0.024726031343
        0.024794226425
        0.024862532849
        0.024930950796
        0.024999480449
        0.025068121990
        0.025136875602
        0.025205741467
        0.025274719769
        0.025343810692
        0.025413014419
        0.025482331135
        0.025551761024
        0.025621304270
        0.025690961060
        0.025760731578
        0.025830616010
        0.025900614541
        0.025970727359
        0.026040954650
        0.026111296601
        0.026181753398
        0.026252325230
        0.026323012284
        0.026393814749
        0.026464732812
        0.026535766663
        0.026606916491
        0.026678182485
        0.026749564834
        0.026821063729
        0.026892679359
        0.026964411916
        0.027036261591
        0.027108228574
        0.027180313057
        0.027252515233
        0.027324835292
        0.027397273428
        0.027469829833
        0.027542504701
        0.027615298225
        0.027688210598
        0.027761242015
        0.027834392670
        0.027907662757
        0.027981052473
        0.028054562011
        0.028128191568
        0.028201941340
        0.028275811522
